public/LUTs/C-8080-STD.cube
# Copyright: (C) Copyright 2010-2021 by IWLTBAP SAS
# Cannot be resold, shared or otherwise redistributed
# Website: https://luts.iwltbap.com
TITLE "IWLTBAP 8080 (Rec.709, sRGB, DCI-P3)"
LUT_3D_SIZE 33
0.003937 0.003937 0.003937
0.019369 0.004055 0.000123
0.035517 0.015188 0.000000
0.072679 0.023148 0.000000
0.115136 0.036846 0.002991
0.167118 0.038593 0.003315
0.209318 0.039715 0.001858
0.262324 0.039382 0.005770
0.313721 0.035507 0.010575
0.358084 0.031376 0.010946
0.401338 0.026487 0.011418
0.450272 0.023959 0.014343
0.490204 0.022976 0.016640
0.532576 0.028424 0.020582
0.583057 0.040413 0.026441
0.632159 0.058220 0.036533
0.669709 0.081405 0.046173
0.701378 0.104462 0.055627
0.736793 0.124794 0.071596
0.772691 0.144989 0.086882
0.802002 0.166672 0.097580
0.826833 0.191546 0.111760
0.853533 0.216402 0.128648
0.871075 0.234683 0.142281
0.895645 0.254463 0.149345
0.922930 0.275005 0.164178
0.943892 0.293629 0.177219
0.962016 0.315486 0.201800
0.980984 0.337307 0.209171
0.996078 0.353681 0.223580
0.999771 0.373289 0.239704
1.000000 0.398276 0.256853
1.000000 0.478424 0.325500
0.000123 0.012008 0.000123
0.015670 0.034093 0.007250
0.042409 0.042608 0.000689
0.079608 0.056804 0.009909
0.116535 0.065582 0.001897
0.170608 0.069025 0.002976
0.216750 0.067318 0.002264
0.269387 0.069182 0.011532
0.310617 0.067066 0.010988
0.356288 0.059888 0.011123
0.398818 0.057914 0.011722
0.445559 0.057365 0.015236
0.490522 0.059480 0.016595
0.534066 0.068454 0.022855
0.577952 0.079117 0.030593
0.621921 0.092721 0.041313
0.662110 0.108190 0.051820
0.701132 0.124862 0.062487
0.737117 0.144942 0.076269
0.765492 0.163676 0.087941
0.793362 0.181320 0.100806
0.823219 0.202793 0.116292
0.852349 0.224155 0.130125
0.873562 0.243208 0.141542
0.895675 0.263377 0.153026
0.915196 0.280330 0.160606
0.936615 0.301055 0.179538
0.959359 0.322610 0.200073
0.980684 0.338918 0.209411
0.992429 0.358363 0.227929
0.999985 0.380666 0.243043
0.999886 0.405993 0.253187
1.000000 0.489836 0.325500
0.003433 0.042395 0.000715
0.015104 0.068736 0.004176
0.041925 0.077201 0.000282
0.078027 0.085240 0.003647
0.125478 0.086669 0.000957
0.173365 0.090126 0.000865
0.225305 0.096095 0.001811
0.274207 0.094151 0.007068
0.318134 0.088198 0.005351
0.359393 0.085762 0.008211
0.399075 0.085842 0.011299
0.442423 0.087053 0.013391
0.485997 0.091016 0.017052
0.530250 0.095372 0.023730
0.577348 0.104758 0.032962
0.623357 0.118019 0.043390
0.659791 0.130684 0.052045
0.693761 0.144593 0.063768
0.728889 0.160328 0.078322
0.760861 0.178200 0.089273
0.791499 0.198026 0.102573
0.819483 0.216432 0.117914
0.848802 0.235699 0.128726
0.870998 0.254591 0.141532
0.892758 0.269852 0.154919
0.912240 0.289216 0.168786
0.936132 0.308484 0.181812
0.958037 0.329342 0.197011
0.977331 0.342844 0.211969
0.989848 0.361793 0.221953
0.999778 0.381577 0.236732
0.996556 0.406498 0.253439
1.000000 0.483309 0.315172
0.003551 0.087630 0.007179
0.001969 0.107108 0.010158
0.036832 0.112209 0.000848
0.076559 0.119089 0.003229
0.123427 0.120201 0.000485
0.175590 0.125904 0.002588
0.226504 0.127767 0.000996
0.277865 0.124490 0.006345
0.318068 0.120541 0.007685
0.360480 0.117625 0.010693
0.402275 0.117134 0.013167
0.446483 0.118342 0.019046
0.490413 0.121606 0.024992
0.534460 0.127068 0.031217
0.580725 0.135221 0.041837
0.622758 0.145056 0.050637
0.657011 0.157694 0.059556
0.690804 0.172108 0.072502
0.726285 0.185990 0.085260
0.758221 0.200406 0.097603
0.784617 0.214879 0.109525
0.811956 0.231329 0.121142
0.843391 0.252179 0.135151
0.864591 0.269110 0.148491
0.888338 0.281900 0.160243
0.910990 0.300836 0.171112
0.932155 0.319494 0.188643
0.951255 0.339529 0.200964
0.973737 0.353957 0.214251
0.989954 0.372512 0.218502
0.999459 0.391273 0.242781
0.996441 0.412672 0.262186
1.000000 0.484371 0.313239
0.004314 0.145775 0.002316
0.000508 0.149929 0.007730
0.017852 0.154336 0.006130
0.075276 0.158341 0.001376
0.137690 0.167404 0.005720
0.192304 0.168814 0.001732
0.243507 0.166822 0.000742
0.301131 0.165735 0.003270
0.348744 0.169705 0.009794
0.390944 0.170345 0.014965
0.432103 0.169555 0.020955
0.481346 0.170479 0.028900
0.529754 0.172726 0.035653
0.573644 0.176327 0.042620
0.609855 0.181193 0.053823
0.644621 0.189082 0.066974
0.679156 0.199579 0.076008
0.710905 0.209416 0.084929
0.740049 0.221489 0.096846
0.767207 0.236508 0.107361
0.795452 0.247326 0.117026
0.824567 0.257555 0.128216
0.853276 0.273711 0.142360
0.874940 0.288606 0.155918
0.895205 0.303172 0.164667
0.914876 0.320301 0.176334
0.937243 0.335899 0.192601
0.956713 0.355801 0.199208
0.976647 0.371305 0.212331
0.995293 0.387624 0.230210
0.999496 0.403752 0.244031
0.999453 0.424549 0.258072
1.000000 0.501537 0.323951
0.001232 0.177235 0.006856
0.003412 0.185640 0.007856
0.006985 0.193076 0.006998
0.064120 0.196872 0.003244
0.132194 0.201368 0.002103
0.191581 0.209443 0.003183
0.244880 0.207678 0.002994
0.295149 0.205248 0.001212
0.346768 0.206615 0.001854
0.399594 0.209587 0.011102
0.454174 0.216221 0.026845
0.505599 0.217174 0.036337
0.550944 0.218946 0.051196
0.589136 0.220596 0.058744
0.625339 0.225335 0.066850
0.658797 0.229899 0.078667
0.688769 0.236831 0.088212
0.717743 0.245149 0.096848
0.744936 0.252736 0.107184
0.771738 0.265880 0.120252
0.799639 0.276859 0.130378
0.828019 0.285159 0.139523
0.854546 0.300928 0.153873
0.873686 0.313277 0.164809
0.895038 0.324481 0.175438
0.911869 0.337919 0.188331
0.934955 0.353267 0.195948
0.957488 0.371553 0.211545
0.976568 0.388188 0.221519
0.992803 0.402122 0.237643
0.999857 0.415957 0.250858
0.998959 0.436832 0.271931
1.000000 0.514344 0.332118
0.000120 0.200981 0.007843
0.003239 0.223579 0.011757
0.004742 0.227494 0.006289
0.050556 0.234014 0.009789
0.118058 0.236398 0.003695
0.180861 0.243894 0.004172
0.241705 0.248286 0.001333
0.299939 0.244608 0.002108
0.345762 0.246161 0.000832
0.398820 0.247916 0.007223
0.457755 0.256673 0.025633
0.518331 0.263664 0.047606
0.566281 0.268300 0.065471
0.603662 0.270816 0.074449
0.636080 0.272775 0.083142
0.666257 0.275888 0.093981
0.697147 0.279227 0.103943
0.726425 0.282434 0.112425
0.753161 0.289351 0.121529
0.778116 0.299549 0.129859
0.800810 0.307344 0.136440
0.825481 0.315215 0.147554
0.850653 0.325905 0.161544
0.872253 0.337120 0.175045
0.895917 0.348787 0.179723
0.918249 0.359572 0.189535
0.937559 0.372901 0.201930
0.955247 0.389730 0.217933
0.970272 0.401370 0.229595
0.991639 0.416752 0.244077
0.999793 0.433088 0.258531
0.996775 0.454621 0.275868
0.999380 0.528787 0.334559
0.000000 0.219964 0.005459
0.000950 0.261365 0.022397
0.003142 0.258543 0.017596
0.049819 0.266516 0.020697
0.115152 0.273124 0.008601
0.175818 0.278281 0.005405
0.234324 0.286328 0.001042
0.291918 0.290477 0.001623
0.346696 0.285563 0.000553
0.396036 0.284541 0.001563
0.452882 0.291550 0.016231
0.515086 0.299831 0.041686
0.569203 0.309288 0.068659
0.614561 0.319049 0.088839
0.651577 0.322776 0.101952
0.681237 0.323937 0.110366
0.709917 0.325257 0.118603
0.737444 0.326919 0.126490
0.761376 0.330663 0.134330
0.783135 0.336139 0.142926
0.803681 0.342648 0.149758
0.827554 0.349067 0.159357
0.852899 0.356966 0.170720
0.872587 0.366362 0.179442
0.894056 0.374999 0.187958
0.913077 0.383807 0.198648
0.933911 0.395216 0.210066
0.954022 0.408297 0.225109
0.973586 0.419591 0.234987
0.987037 0.436262 0.251375
0.999948 0.448712 0.267034
0.999150 0.463880 0.279757
0.998450 0.530128 0.327448
0.000755 0.291619 0.033470
0.000112 0.317842 0.041748
0.009933 0.312744 0.040234
0.067071 0.313482 0.041187
0.131146 0.318245 0.037840
0.183509 0.323583 0.028334
0.236329 0.331304 0.012649
0.295213 0.336903 0.003657
0.356892 0.335602 0.001078
0.401333 0.326650 0.000322
0.453019 0.328116 0.011944
0.513345 0.335208 0.034692
0.567229 0.345387 0.062349
0.615926 0.357323 0.086489
0.660486 0.368737 0.109870
0.697801 0.375646 0.130028
0.728305 0.376023 0.140739
0.755277 0.376056 0.145399
0.777917 0.378083 0.151463
0.796842 0.380066 0.160439
0.815606 0.383071 0.167955
0.836581 0.385629 0.175519
0.860669 0.390496 0.186059
0.878530 0.399153 0.194005
0.898299 0.406515 0.202480
0.912922 0.414614 0.209170
0.933680 0.422257 0.221945
0.954269 0.433029 0.237398
0.972580 0.444366 0.245384
0.989502 0.457543 0.260368
0.995724 0.468280 0.271289
0.997213 0.485361 0.291807
0.998802 0.552353 0.340920
0.000283 0.285282 0.039103
0.004068 0.358732 0.060997
0.035768 0.355253 0.066026
0.086588 0.351938 0.066188
0.143721 0.356851 0.065619
0.190571 0.359785 0.054235
0.238787 0.364078 0.040046
0.292488 0.368814 0.023733
0.351570 0.371379 0.010447
0.399941 0.367421 0.004957
0.442202 0.362977 0.004566
0.495223 0.364238 0.017555
0.550875 0.372769 0.046773
0.601459 0.384281 0.075681
0.650157 0.396019 0.104203
0.694456 0.407916 0.128651
0.732675 0.415669 0.149779
0.765134 0.419648 0.164978
0.787643 0.421144 0.171445
0.806036 0.420841 0.176510
0.825801 0.422445 0.181990
0.844509 0.424082 0.190786
0.865881 0.427287 0.199065
0.880559 0.432357 0.206048
0.900799 0.436454 0.215114
0.918339 0.441243 0.220824
0.936881 0.450666 0.233947
0.954175 0.459271 0.243015
0.969962 0.470745 0.253801
0.987505 0.479972 0.266191
0.996634 0.491722 0.278252
0.998089 0.505195 0.300496
0.999717 0.576269 0.348644
0.000000 0.290436 0.045917
0.029813 0.392991 0.081949
0.069079 0.389272 0.088264
0.106834 0.387697 0.087392
0.150874 0.388312 0.084968
0.194076 0.385745 0.076930
0.239124 0.391672 0.066782
0.287267 0.391960 0.055719
0.339515 0.398022 0.042454
0.387747 0.400279 0.027057
0.434361 0.400431 0.013222
0.480268 0.394529 0.006826
0.530958 0.394829 0.027965
0.581843 0.405535 0.055570
0.632415 0.417975 0.084771
0.679480 0.430198 0.113891
0.720611 0.442362 0.140242
0.758308 0.453054 0.162927
0.790306 0.461162 0.182293
0.814572 0.464034 0.196608
0.833176 0.462751 0.200398
0.851421 0.462069 0.205549
0.871188 0.463515 0.213577
0.884878 0.466474 0.217737
0.903575 0.469077 0.226952
0.920622 0.472730 0.237973
0.939718 0.481268 0.248536
0.956972 0.488468 0.254097
0.973630 0.494722 0.264073
0.992791 0.505883 0.277337
0.999233 0.514013 0.292474
0.999621 0.528194 0.307489
1.000000 0.595365 0.357214
0.004566 0.317079 0.059346
0.067967 0.428230 0.102779
0.099312 0.419878 0.106637
0.131098 0.419082 0.108191
0.164021 0.417603 0.105134
0.200240 0.414822 0.097620
0.241587 0.419207 0.091020
0.286579 0.420556 0.083962
0.330470 0.424962 0.072562
0.376082 0.426872 0.059919
0.425935 0.432504 0.041488
0.474067 0.432365 0.023367
0.516327 0.425783 0.017386
0.559099 0.426917 0.027397
0.608257 0.436662 0.057288
0.657945 0.449643 0.092711
0.700856 0.462947 0.123335
0.741082 0.475638 0.149787
0.779975 0.487775 0.175425
0.812372 0.496118 0.199612
0.836959 0.500272 0.214642
0.856556 0.502690 0.224591
0.876306 0.502630 0.232533
0.892687 0.504428 0.236777
0.909220 0.505815 0.243502
0.924202 0.507904 0.253603
0.941462 0.513933 0.262152
0.957615 0.518524 0.269796
0.974285 0.520927 0.277562
0.993031 0.530748 0.291804
0.996039 0.537589 0.301136
1.000000 0.550837 0.312626
1.000000 0.600655 0.361177
0.058933 0.390099 0.091610
0.109173 0.458912 0.124226
0.128525 0.453565 0.124288
0.153358 0.448324 0.120958
0.179469 0.445441 0.120564
0.210739 0.443541 0.114707
0.249880 0.447350 0.110658
0.288763 0.447202 0.102821
0.326915 0.451902 0.095966
0.371350 0.454939 0.087722
0.419681 0.460911 0.069821
0.468603 0.464191 0.050238
0.511340 0.460998 0.035514
0.545555 0.454776 0.023508
0.585536 0.454817 0.034931
0.634441 0.464316 0.067641
0.680820 0.478525 0.103615
0.723554 0.492949 0.133648
0.763592 0.505400 0.159033
0.798652 0.515762 0.185412
0.828916 0.525471 0.209201
0.855551 0.534215 0.229940
0.882369 0.540961 0.246279
0.900524 0.545058 0.253565
0.915141 0.543725 0.262748
0.931866 0.543082 0.271085
0.946461 0.545755 0.278981
0.962593 0.549960 0.285972
0.977686 0.551717 0.295914
0.992185 0.559143 0.305414
0.997593 0.566747 0.316043
0.999953 0.578444 0.330576
0.998493 0.629948 0.373676
0.085353 0.404947 0.104009
0.135320 0.484585 0.134687
0.156229 0.481624 0.137753
0.173514 0.478308 0.132586
0.193207 0.473977 0.128273
0.221847 0.469681 0.127170
0.256469 0.471980 0.124434
0.290136 0.470368 0.117628
0.328030 0.474459 0.113327
0.369236 0.477847 0.106490
0.412373 0.482926 0.091780
0.458051 0.485260 0.076742
0.504408 0.488160 0.061960
0.541156 0.486858 0.045060
0.571177 0.478669 0.032596
0.610479 0.478605 0.040096
0.655622 0.490236 0.072107
0.698957 0.504654 0.109099
0.740692 0.519241 0.138278
0.779952 0.531816 0.166812
0.814576 0.542013 0.195122
0.844322 0.553562 0.220380
0.875074 0.565361 0.244398
0.898553 0.574634 0.262349
0.917910 0.577966 0.276887
0.933076 0.578461 0.286577
0.949216 0.578234 0.294606
0.967770 0.581656 0.303162
0.982060 0.582829 0.313258
0.993076 0.588861 0.320505
0.999903 0.594520 0.329731
0.999796 0.604377 0.348266
0.995723 0.662841 0.383947
0.101439 0.401474 0.109284
0.158390 0.506425 0.140735
0.177613 0.505150 0.147660
0.190084 0.504220 0.142179
0.208077 0.498336 0.140092
0.231564 0.492278 0.139516
0.260405 0.493574 0.135078
0.292482 0.492765 0.130894
0.326606 0.494846 0.126649
0.364161 0.498521 0.120305
0.403940 0.502435 0.108952
0.446784 0.504721 0.098255
0.489687 0.510691 0.081827
0.530557 0.514772 0.067812
0.564716 0.508910 0.050820
0.597079 0.502885 0.036865
0.633020 0.506133 0.046201
0.674186 0.515988 0.076692
0.717609 0.529481 0.113282
0.758834 0.542191 0.147370
0.796525 0.552454 0.177393
0.828908 0.566021 0.204918
0.859966 0.580205 0.230925
0.888038 0.592036 0.259067
0.913407 0.601915 0.279332
0.931647 0.607076 0.296566
0.952341 0.609349 0.310753
0.970425 0.613037 0.319665
0.984295 0.614912 0.326025
0.993850 0.616551 0.337162
0.999930 0.619721 0.342595
0.998742 0.628639 0.357423
0.994377 0.685749 0.399826
0.129456 0.427922 0.124898
0.180294 0.525502 0.150637
0.197700 0.528135 0.157109
0.206651 0.522935 0.150443
0.224235 0.519823 0.154217
0.242362 0.513434 0.150186
0.265941 0.512922 0.145799
0.294874 0.513021 0.140425
0.327473 0.515822 0.136747
0.362399 0.519271 0.131831
0.398796 0.522413 0.121914
0.438878 0.526116 0.111827
0.479526 0.531755 0.100129
0.518312 0.534835 0.089122
0.556957 0.535563 0.075203
0.590458 0.533753 0.055135
0.619480 0.528785 0.039476
0.653122 0.529398 0.044080
0.693280 0.539370 0.077638
0.734182 0.551014 0.120770
0.773405 0.562557 0.153203
0.811982 0.576853 0.184327
0.845710 0.591880 0.213930
0.873055 0.604919 0.243284
0.900579 0.615011 0.267178
0.928068 0.624340 0.294044
0.950046 0.632915 0.314798
0.969009 0.641215 0.331051
0.983946 0.646196 0.342501
0.994931 0.645052 0.350979
0.999823 0.644929 0.358805
0.999024 0.653541 0.371243
0.996269 0.696128 0.406269
0.161332 0.476608 0.139770
0.197074 0.545847 0.158278
0.216323 0.547236 0.161492
0.224112 0.541621 0.158403
0.238131 0.539230 0.160949
0.253116 0.534813 0.156032
0.270181 0.531055 0.154152
0.297128 0.531843 0.151681
0.329292 0.535290 0.145496
0.363226 0.537660 0.143054
0.396489 0.540889 0.132300
0.433605 0.544938 0.122991
0.471565 0.549106 0.113706
0.508503 0.551291 0.106369
0.546769 0.555664 0.097106
0.582199 0.558835 0.077453
0.613213 0.555413 0.056526
0.641415 0.551039 0.042902
0.671610 0.552443 0.049143
0.710526 0.560730 0.083421
0.752815 0.573984 0.123644
0.792462 0.588565 0.159761
0.829657 0.602902 0.196765
0.858223 0.616178 0.223528
0.887249 0.627289 0.249294
0.915956 0.638113 0.279189
0.939583 0.650127 0.303846
0.962303 0.662816 0.330797
0.979673 0.670410 0.350634
0.996354 0.673235 0.368628
0.999771 0.674162 0.378219
0.999969 0.682563 0.393913
0.998993 0.723938 0.426773
0.181119 0.504108 0.144930
0.214736 0.568038 0.163328
0.232800 0.565950 0.168357
0.239677 0.565464 0.166951
0.250344 0.560070 0.167101
0.264601 0.555956 0.165652
0.277245 0.550025 0.163379
0.301200 0.550130 0.162381
0.330397 0.552769 0.155440
0.361778 0.554637 0.151255
0.393438 0.558837 0.143234
0.428639 0.562188 0.136870
0.460943 0.564364 0.126272
0.497459 0.568403 0.119619
0.536125 0.573774 0.113522
0.572094 0.577380 0.098973
0.606473 0.580201 0.082946
0.636813 0.579898 0.066686
0.661431 0.574087 0.052855
0.691059 0.574265 0.055473
0.730867 0.585431 0.083444
0.771141 0.598131 0.130157
0.809985 0.612403 0.170630
0.843637 0.625954 0.201353
0.875964 0.639799 0.232622
0.900505 0.651794 0.259939
0.927909 0.664359 0.289887
0.952343 0.676514 0.318076
0.973466 0.685798 0.341051
0.992297 0.695916 0.375116
0.998859 0.701035 0.389460
0.998929 0.710030 0.412727
0.998984 0.761390 0.459594
0.187252 0.507334 0.145103
0.233416 0.588274 0.168331
0.250364 0.588684 0.180800
0.255722 0.589443 0.177507
0.264186 0.584989 0.175740
0.277107 0.578221 0.175497
0.289390 0.570639 0.172315
0.308409 0.568886 0.167156
0.335637 0.571087 0.163577
0.362688 0.573543 0.157627
0.392189 0.577634 0.154276
0.425950 0.580572 0.148925
0.455650 0.582903 0.140963
0.490054 0.586550 0.133840
0.526669 0.591659 0.125480
0.561199 0.595210 0.115877
0.595215 0.598907 0.102328
0.629571 0.603331 0.086186
0.658219 0.601827 0.073075
0.680446 0.597768 0.056912
0.709899 0.599117 0.053698
0.749629 0.606246 0.088919
0.790319 0.621400 0.134789
0.826841 0.635648 0.175355
0.862301 0.648576 0.209740
0.887779 0.662618 0.238061
0.916408 0.676883 0.273871
0.939790 0.687055 0.301263
0.964033 0.698780 0.328414
0.983606 0.709713 0.359576
0.998561 0.716912 0.385872
0.998663 0.729466 0.413809
0.998781 0.780920 0.464669
0.202807 0.531256 0.150605
0.251772 0.609404 0.175176
0.265807 0.610268 0.185646
0.271382 0.610809 0.185238
0.279000 0.607589 0.181297
0.291517 0.601535 0.180141
0.302932 0.594927 0.178362
0.320315 0.590501 0.172908
0.344036 0.590553 0.171875
0.368370 0.593715 0.167846
0.395778 0.597641 0.163447
0.426611 0.599498 0.157598
0.455699 0.604480 0.151842
0.487902 0.606594 0.144335
0.520178 0.610410 0.136706
0.550213 0.613873 0.129695
0.583445 0.617145 0.119209
0.619468 0.622634 0.105431
0.652369 0.626601 0.091252
0.679340 0.626427 0.075474
0.703028 0.620442 0.057901
0.732494 0.618663 0.057244
0.771168 0.630791 0.093658
0.809087 0.645426 0.141108
0.844744 0.657380 0.177447
0.873945 0.672808 0.211521
0.904449 0.686589 0.250578
0.927984 0.697241 0.282701
0.949627 0.710120 0.312159
0.974851 0.719359 0.338827
0.992779 0.727143 0.370992
0.999377 0.740912 0.399540
1.000000 0.784362 0.451009
0.226345 0.566307 0.161972
0.269878 0.632035 0.187293
0.280720 0.628977 0.189469
0.285359 0.631470 0.191744
0.296061 0.627805 0.188666
0.309904 0.623724 0.186633
0.318822 0.620662 0.186341
0.334510 0.613978 0.181804
0.353363 0.612712 0.181510
0.375690 0.615063 0.178048
0.401063 0.619817 0.173611
0.429367 0.621583 0.169103
0.458512 0.625835 0.162992
0.488425 0.629332 0.153865
0.516398 0.632401 0.146725
0.544670 0.635341 0.142390
0.577514 0.640093 0.134956
0.612258 0.646170 0.125746
0.645823 0.650306 0.111826
0.678154 0.653990 0.093462
0.705891 0.652342 0.078764
0.728824 0.644631 0.062392
0.755843 0.646397 0.059081
0.790591 0.656809 0.093859
0.827559 0.668329 0.143830
0.859435 0.685666 0.182625
0.894625 0.697365 0.225909
0.920539 0.709315 0.263844
0.940928 0.721285 0.293195
0.965812 0.733861 0.322059
0.982656 0.739944 0.352533
0.997601 0.753103 0.387268
0.999050 0.792313 0.443420
0.255239 0.600100 0.174168
0.289680 0.654959 0.198148
0.301151 0.653370 0.201118
0.303288 0.655591 0.201489
0.314967 0.651944 0.200354
0.326575 0.649091 0.194685
0.335226 0.646255 0.193534
0.348986 0.640825 0.189885
0.362989 0.639738 0.185420
0.383275 0.640772 0.183704
0.407547 0.643530 0.184148
0.436719 0.646905 0.180597
0.464609 0.649739 0.174976
0.491679 0.654160 0.166714
0.517936 0.658468 0.157395
0.547455 0.661082 0.153907
0.579312 0.665337 0.149863
0.611897 0.670820 0.142552
0.644063 0.674678 0.129679
0.676424 0.679574 0.113623
0.709215 0.684664 0.102818
0.734872 0.684206 0.084838
0.756030 0.679404 0.063928
0.777464 0.675213 0.063778
0.812667 0.681713 0.099425
0.847532 0.698341 0.148695
0.884868 0.713850 0.200028
0.913042 0.727026 0.242214
0.940415 0.738661 0.278510
0.959619 0.748374 0.307542
0.980566 0.756712 0.342347
0.994932 0.773073 0.376120
0.998338 0.823969 0.442528
0.271669 0.614485 0.179344
0.312272 0.684603 0.206798
0.321233 0.684209 0.210466
0.323703 0.686082 0.211033
0.330635 0.680585 0.210308
0.342324 0.679480 0.208077
0.352235 0.676327 0.204748
0.364506 0.672640 0.199799
0.376753 0.666471 0.193648
0.392918 0.665250 0.190299
0.416282 0.667569 0.191214
0.444982 0.670863 0.187163
0.470159 0.675189 0.182971
0.495915 0.679999 0.178205
0.521189 0.683576 0.170323
0.548576 0.687697 0.166010
0.578321 0.691936 0.163673
0.607993 0.694459 0.155716
0.639481 0.697044 0.144837
0.673179 0.702404 0.136225
0.704349 0.709356 0.123253
0.733203 0.714629 0.105174
0.762050 0.713495 0.094170
0.777349 0.702578 0.076226
0.799859 0.700561 0.060928
0.834167 0.708966 0.102773
0.869932 0.724406 0.152280
0.902214 0.738648 0.202406
0.932304 0.749947 0.247883
0.953195 0.757281 0.280482
0.974603 0.770507 0.322530
0.990804 0.783021 0.354619
1.000000 0.830258 0.421942
0.287293 0.647919 0.188283
0.331762 0.709412 0.218666
0.337139 0.710251 0.222004
0.340319 0.712395 0.219991
0.349779 0.707036 0.216322
0.357506 0.703590 0.216645
0.365004 0.702864 0.217042
0.377083 0.699675 0.213413
0.391521 0.694344 0.212672
0.404674 0.691299 0.204120
0.425712 0.692634 0.200250
0.451441 0.694205 0.194017
0.476359 0.699553 0.191765
0.502063 0.703196 0.189254
0.527147 0.705644 0.183397
0.553386 0.711791 0.177129
0.578944 0.716999 0.174312
0.605528 0.719120 0.169352
0.636380 0.720820 0.159498
0.666461 0.724088 0.148731
0.696027 0.729078 0.136180
0.728731 0.734049 0.123942
0.759887 0.739009 0.111276
0.783370 0.736338 0.098591
0.802675 0.730254 0.082161
0.824801 0.729225 0.073408
0.856399 0.732548 0.099511
0.889610 0.745629 0.154891
0.918177 0.756427 0.209823
0.945969 0.769295 0.248996
0.965805 0.780304 0.291541
0.984697 0.794354 0.332773
1.000000 0.833147 0.397576
0.312546 0.688088 0.201866
0.353426 0.744754 0.230853
0.364457 0.745609 0.240800
0.363715 0.747701 0.234335
0.372811 0.744086 0.231321
0.378115 0.740782 0.228458
0.384618 0.737929 0.228454
0.397535 0.736524 0.227691
0.411045 0.735687 0.225954
0.422506 0.730422 0.221568
0.439751 0.728502 0.217540
0.464159 0.731520 0.210477
0.489876 0.733858 0.208280
0.515273 0.735725 0.205254
0.540271 0.739270 0.200314
0.566554 0.744088 0.194687
0.592041 0.748317 0.190040
0.618444 0.751875 0.184943
0.646288 0.753007 0.176953
0.673962 0.754736 0.165787
0.702632 0.759738 0.155093
0.732532 0.764909 0.146700
0.766130 0.772446 0.133381
0.792535 0.773281 0.123073
0.815468 0.773426 0.105039
0.833288 0.766123 0.091244
0.855019 0.758069 0.083521
0.884548 0.765323 0.112052
0.913508 0.775372 0.168039
0.943076 0.786945 0.222796
0.964361 0.798207 0.272020
0.986615 0.811657 0.307416
1.000000 0.839920 0.374733
0.354749 0.753820 0.227879
0.397104 0.808895 0.263685
0.397337 0.811288 0.262494
0.402454 0.804184 0.260884
0.405556 0.802986 0.259763
0.414816 0.802083 0.254787
0.422897 0.800161 0.255979
0.435078 0.799418 0.251230
0.447003 0.794412 0.246133
0.461098 0.789054 0.245745
0.476225 0.787905 0.244158
0.496593 0.791035 0.240902
0.522780 0.790234 0.236405
0.546915 0.791899 0.232359
0.568257 0.796062 0.229990
0.593591 0.799430 0.231219
0.619396 0.803532 0.222985
0.646353 0.807935 0.214289
0.674640 0.810174 0.211406
0.702198 0.810917 0.204016
0.730240 0.813119 0.195267
0.757872 0.817731 0.182655
0.791313 0.822259 0.175028
0.818202 0.824822 0.163607
0.844845 0.829869 0.145736
0.866656 0.823683 0.131290
0.881906 0.815264 0.124691
0.903339 0.809342 0.112666
0.928363 0.813230 0.132312
0.955259 0.821908 0.192922
0.978171 0.830992 0.248225
0.998878 0.842687 0.303563
1.000000 0.887813 0.372505
0.374018 0.773037 0.242046
0.416479 0.837485 0.281662
0.422366 0.838124 0.273586
0.422596 0.831598 0.278096
0.426240 0.830354 0.269911
0.430282 0.829228 0.261711
0.443067 0.826356 0.268682
0.455072 0.827415 0.267272
0.463615 0.821702 0.264517
0.478912 0.817075 0.263737
0.489456 0.815390 0.259696
0.510830 0.817239 0.255781
0.533416 0.819059 0.252779
0.556244 0.820317 0.248754
0.578523 0.822883 0.247122
0.602381 0.825442 0.245825
0.625962 0.829028 0.240426
0.651382 0.833418 0.235182
0.678968 0.837043 0.228970
0.704316 0.837807 0.218933
0.731060 0.838372 0.211203
0.758907 0.843868 0.205472
0.789354 0.846175 0.197438
