public/LUTs/C-8080-STD.cube
# Copyright: (C) Copyright 2010-2021 by IWLTBAP SAS
# Cannot be resold, shared or otherwise redistributed
# Website: https://luts.iwltbap.com
TITLE "IWLTBAP 8080 (Rec.709, sRGB, DCI-P3)"
LUT_3D_SIZE 5
0.003937 0.003937 0.003937
0.313721 0.035507 0.010575
0.669709 0.081405 0.046173
0.895645 0.254463 0.149345
1.000000 0.478424 0.325500
0.000755 0.291619 0.033470
0.356892 0.335602 0.001078
0.728305 0.376023 0.140739
0.898299 0.406515 0.202480
0.998802 0.552353 0.340920
0.161332 0.476608 0.139770
0.329292 0.535290 0.145496
0.613213 0.555413 0.056526
0.887249 0.627289 0.249294
0.998993 0.723938 0.426773
0.312546 0.688088 0.201866
0.411045 0.735687 0.225954
0.592041 0.748317 0.190040
0.815468 0.773426 0.105039
1.000000 0.839920 0.374733
0.623535 0.996063 0.494110
0.693359 0.999237 0.520813
0.774506 1.000000 0.505813
0.898033 0.997826 0.463493
0.996063 0.992157 0.388245
0.001739 0.159791 0.337990
0.273733 0.157070 0.314139
0.558891 0.188255 0.292294
0.767145 0.276474 0.312164
0.999024 0.469605 0.423973
0.000732 0.366287 0.351955
0.392895 0.412153 0.409134
0.677915 0.401697 0.381109
0.866657 0.432901 0.380342
0.996809 0.571047 0.472013
0.264465 0.579601 0.358913
0.394408 0.594077 0.367850
0.635034 0.594978 0.325066
0.890337 0.664832 0.446670
0.999245 0.730980 0.530826
0.353119 0.720492 0.347414
0.437137 0.763319 0.360736
0.588286 0.754519 0.325715
0.815372 0.780134 0.290998
0.993860 0.848749 0.483301
0.624168 0.999024 0.564613
0.688555 0.998127 0.582264
0.763706 0.999371 0.565815
0.893772 0.999245 0.526937
1.000000 0.992157 0.466217
0.000000 0.295197 0.501220
0.077652 0.271046 0.519264
0.635567 0.437088 0.657204
0.823235 0.536781 0.667187
0.998108 0.583298 0.679520
0.000996 0.488640 0.612564
0.361566 0.530043 0.677780
0.695559 0.587603 0.721941
0.861301 0.621598 0.710445
0.998451 0.632286 0.695938
0.262375 0.678871 0.654465
0.461342 0.724230 0.700495
0.692055 0.730800 0.722740
0.839508 0.704380 0.683121
0.995743 0.742493 0.699226
0.432480 0.819561 0.629902
0.517219 0.844328 0.654342
0.606712 0.793552 0.606413
0.802977 0.803233 0.574818
0.987438 0.877212 0.713742
0.617706 0.997024 0.721572
0.672783 0.998203 0.726395
0.741142 0.999969 0.704323
0.866963 0.998394 0.674545
0.993103 0.998047 0.633392
0.010307 0.527466 0.760040
0.229784 0.515774 0.765614
0.555031 0.561035 0.803849
0.824547 0.704490 0.867140
0.970573 0.800538 0.912300
0.263256 0.643309 0.819370
0.406331 0.664839 0.853205
0.624713 0.669854 0.869930
0.845061 0.768838 0.890607
0.987167 0.849111 0.931162
0.282463 0.725979 0.790592
0.420406 0.762977 0.826883
0.668733 0.792835 0.868059
0.853157 0.848339 0.899670
0.965652 0.887115 0.928585
0.464886 0.874283 0.839527
0.558044 0.901498 0.871851
0.694572 0.901769 0.878503
0.840696 0.903516 0.890735
0.949427 0.893982 0.873787
0.650451 0.999237 0.891633
0.686220 0.998526 0.888268
0.746692 0.998100 0.882023
0.835392 0.999786 0.858912
0.958382 1.000000 0.839447
0.501953 0.772552 0.933319
0.537246 0.764709 0.940186
0.634354 0.756866 0.941178
0.805679 0.813728 0.958290
0.929413 0.890198 0.992157
0.554802 0.824768 0.960823
0.594015 0.830368 0.971306
0.677036 0.816567 0.972923
0.826908 0.854550 0.979260
0.935616 0.915329 0.994423
0.475464 0.851792 0.945908
0.569504 0.874447 0.968002
0.728912 0.891686 0.982353
0.832936 0.895462 0.978634
0.929535 0.941299 0.990326
0.508514 0.921906 0.951538
0.564062 0.944649 0.972458
0.671470 0.938275 0.972828
0.844918 0.945185 0.987896
0.924057 0.974281 0.995529
0.662750 1.000000 0.988220
0.699020 1.000000 0.990417
0.765656 1.000000 0.992157
0.855118 0.997047 0.992699
0.921570 1.000000 0.996063
