public/LUTs/C-8080-STD.cube
# Copyright: (C) Copyright 2010-2021 by IWLTBAP SAS
# Cannot be resold, shared or otherwise redistributed
# Website: https://luts.iwltbap.com
TITLE "IWLTBAP 8080 (Rec.709, sRGB, DCI-P3)"
LUT_3D_SIZE 9
0.003937 0.003937 0.003937
0.115136 0.036846 0.002991
0.313721 0.035507 0.010575
0.490204 0.022976 0.016640
0.669709 0.081405 0.046173
0.802002 0.166672 0.097580
0.895645 0.254463 0.149345
0.980984 0.337307 0.209171
1.000000 0.478424 0.325500
0.004314 0.145775 0.002316
0.137690 0.167404 0.005720
0.348744 0.169705 0.009794
0.529754 0.172726 0.035653
0.679156 0.199579 0.076008
0.795452 0.247326 0.117026
0.895205 0.303172 0.164667
0.976647 0.371305 0.212331
1.000000 0.501537 0.323951
0.000755 0.291619 0.033470
0.131146 0.318245 0.037840
0.356892 0.335602 0.001078
0.567229 0.345387 0.062349
0.728305 0.376023 0.140739
0.815606 0.383071 0.167955
0.898299 0.406515 0.202480
0.972580 0.444366 0.245384
0.998802 0.552353 0.340920
0.058933 0.390099 0.091610
0.179469 0.445441 0.120564
0.326915 0.451902 0.095966
0.511340 0.460998 0.035514
0.680820 0.478525 0.103615
0.828916 0.525471 0.209201
0.915141 0.543725 0.262748
0.977686 0.551717 0.295914
0.998493 0.629948 0.373676
0.161332 0.476608 0.139770
0.238131 0.539230 0.160949
0.329292 0.535290 0.145496
0.471565 0.549106 0.113706
0.613213 0.555413 0.056526
0.752815 0.573984 0.123644
0.887249 0.627289 0.249294
0.979673 0.670410 0.350634
0.998993 0.723938 0.426773
0.226345 0.566307 0.161972
0.296061 0.627805 0.188666
0.353363 0.612712 0.181510
0.458512 0.625835 0.162992
0.577514 0.640093 0.134956
0.705891 0.652342 0.078764
0.827559 0.668329 0.143830
0.940928 0.721285 0.293195
0.999050 0.792313 0.443420
0.312546 0.688088 0.201866
0.372811 0.744086 0.231321
0.411045 0.735687 0.225954
0.489876 0.733858 0.208280
0.592041 0.748317 0.190040
0.702632 0.759738 0.155093
0.815468 0.773426 0.105039
0.913508 0.775372 0.168039
1.000000 0.839920 0.374733
0.424317 0.845981 0.286419
0.480787 0.894612 0.318420
0.511830 0.890731 0.307448
0.568210 0.886934 0.304297
0.655686 0.891356 0.287987
0.749893 0.899336 0.271623
0.859963 0.911623 0.244173
0.955077 0.913800 0.200385
0.998623 0.910591 0.262940
0.623535 0.996063 0.494110
0.685695 0.995670 0.528927
0.693359 0.999237 0.520813
0.726986 0.999046 0.518181
0.774506 1.000000 0.505813
0.839226 1.000000 0.493202
0.898033 0.997826 0.463493
0.968144 0.995575 0.444271
0.996063 0.992157 0.388245
0.000454 0.061268 0.145573
0.100019 0.064767 0.156629
0.315695 0.082545 0.155976
0.417589 0.094778 0.142747
0.522167 0.128223 0.149248
0.662893 0.182364 0.174909
0.774626 0.241371 0.206151
0.880387 0.314614 0.240937
0.998581 0.447933 0.338764
0.006395 0.183560 0.170555
0.133601 0.187004 0.180478
0.313202 0.186910 0.174654
0.476638 0.200659 0.180985
0.623872 0.227298 0.194948
0.745821 0.263439 0.215696
0.848640 0.311896 0.235704
0.936479 0.371731 0.273252
0.998839 0.491841 0.359898
0.045054 0.333635 0.196413
0.177013 0.346794 0.207389
0.365804 0.354578 0.193656
0.563129 0.371521 0.230980
0.702766 0.385464 0.248510
0.792689 0.389552 0.250626
0.880578 0.412783 0.269257
0.959850 0.450273 0.301135
0.999388 0.556981 0.385272
0.142029 0.428669 0.209727
0.230516 0.478460 0.234795
0.350109 0.470752 0.212423
0.521451 0.478528 0.182525
0.685592 0.496023 0.225207
0.826616 0.540222 0.297595
0.904456 0.547505 0.322863
0.970537 0.559649 0.343160
0.999793 0.634668 0.424210
0.195709 0.506901 0.211050
0.272787 0.565078 0.235357
0.345578 0.547473 0.222502
0.480239 0.559300 0.204594
0.620181 0.567828 0.172836
0.753811 0.584860 0.213718
0.888510 0.637925 0.313882
0.973993 0.676073 0.401128
0.999786 0.724830 0.459759
0.253591 0.589095 0.224717
0.317450 0.646775 0.245107
0.364766 0.624838 0.237353
0.465047 0.633948 0.223248
0.583982 0.647075 0.199860
0.708022 0.658528 0.169110
0.828532 0.675299 0.213843
0.942105 0.725728 0.340458
0.997531 0.796906 0.477934
0.329198 0.697813 0.254168
0.383139 0.756075 0.277997
0.420925 0.745188 0.267591
0.493959 0.741435 0.258677
0.590113 0.749197 0.239113
0.701845 0.761726 0.213839
0.814356 0.774373 0.177384
0.914545 0.777095 0.224918
0.994182 0.844571 0.405631
0.436119 0.852653 0.319167
0.492582 0.904890 0.361564
0.519042 0.899238 0.346460
0.571690 0.888943 0.339052
0.652377 0.893687 0.326747
0.747898 0.900425 0.306122
0.855824 0.911926 0.286453
0.949884 0.913537 0.248796
0.999898 0.905725 0.299731
0.628433 0.996914 0.511574
0.679239 0.999157 0.549700
0.693615 0.998877 0.546004
0.721278 0.999475 0.535808
0.773680 0.998892 0.523817
0.835951 0.998403 0.507668
0.900686 0.997322 0.485708
0.957622 0.997985 0.455274
0.999557 0.992157 0.414353
0.001739 0.159791 0.337990
0.003048 0.139231 0.351477
0.273733 0.157070 0.314139
0.416269 0.185169 0.295365
0.558891 0.188255 0.292294
0.661402 0.210896 0.281506
0.767145 0.276474 0.312164
0.867549 0.341289 0.340410
0.999024 0.469605 0.423973
0.001571 0.236918 0.300644
0.085288 0.238321 0.321031
0.315891 0.261012 0.344794
0.500442 0.283570 0.362168
0.631201 0.268045 0.336524
0.733784 0.294916 0.337961
0.835403 0.342991 0.348949
0.924581 0.395573 0.369384
0.998850 0.509332 0.455791
0.000732 0.366287 0.351955
0.185050 0.407924 0.390577
0.392895 0.412153 0.409134
0.556339 0.404598 0.397046
0.677915 0.401697 0.381109
0.775835 0.409756 0.374265
0.866657 0.432901 0.380342
0.948894 0.469517 0.397113
0.996809 0.571047 0.472013
0.147332 0.504076 0.357211
0.282610 0.556808 0.407367
0.398805 0.521018 0.390358
0.553769 0.524028 0.371168
0.709287 0.546398 0.406222
0.815600 0.564536 0.432371
0.886121 0.561137 0.427212
0.954980 0.573506 0.433823
0.998914 0.644970 0.495302
0.264465 0.579601 0.358913
0.334671 0.624508 0.385036
0.394408 0.594077 0.367850
0.498344 0.587563 0.345140
0.635034 0.594978 0.325066
0.766374 0.613886 0.362825
0.890337 0.664832 0.446670
0.964220 0.689559 0.487214
0.999245 0.730980 0.530826
0.298292 0.633622 0.342971
0.354510 0.680973 0.364650
0.401889 0.661878 0.352638
0.475101 0.647765 0.330908
0.589575 0.661542 0.318231
0.712915 0.672080 0.296235
0.829689 0.691683 0.335571
0.937677 0.741007 0.443928
0.999185 0.810069 0.564457
0.353119 0.720492 0.347414
0.402193 0.773123 0.372340
0.437137 0.763319 0.360736
0.491167 0.744776 0.340339
0.588286 0.754519 0.325715
0.698158 0.768694 0.312028
0.815372 0.780134 0.290998
0.913696 0.784732 0.330631
0.993860 0.848749 0.483301
0.445844 0.856492 0.402605
0.492508 0.908002 0.428632
0.519894 0.900118 0.417594
0.565913 0.892378 0.404280
0.646078 0.890983 0.391485
0.742394 0.900984 0.380385
0.851073 0.913178 0.364195
0.947488 0.913970 0.335240
0.999570 0.906630 0.387518
0.624168 0.999024 0.564613
0.675495 0.997416 0.589701
0.688555 0.998127 0.582264
0.717581 0.999044 0.576443
0.763706 0.999371 0.565815
0.828464 0.999056 0.549105
0.893772 0.999245 0.526937
0.956393 0.996599 0.506373
1.000000 0.992157 0.466217
0.000527 0.231403 0.432903
0.001432 0.220031 0.440441
0.188801 0.214358 0.427246
0.465026 0.280174 0.481770
0.606682 0.325964 0.495382
0.722140 0.362344 0.503558
0.794783 0.354685 0.467250
0.869189 0.370629 0.457341
0.994061 0.495068 0.531372
0.000029 0.316309 0.449949
0.014191 0.324300 0.476629
0.269916 0.310030 0.492542
0.529250 0.374557 0.545795
0.663112 0.406876 0.550545
0.771502 0.419318 0.536058
0.850011 0.402809 0.499736
0.914524 0.421448 0.486796
0.998563 0.538978 0.560686
0.001130 0.411390 0.474414
0.125118 0.451894 0.518632
0.365285 0.460374 0.550935
0.570716 0.493692 0.588237
0.690418 0.508264 0.585285
0.769352 0.470795 0.538540
0.847395 0.461892 0.510451
0.929106 0.498113 0.515846
0.997362 0.589806 0.581862
0.084399 0.547195 0.527567
0.254739 0.597094 0.574119
0.421865 0.600319 0.585805
0.588400 0.602934 0.602726
0.693205 0.588932 0.579311
0.775902 0.575615 0.556858
0.858468 0.580183 0.545984
0.936990 0.593717 0.548017
0.997167 0.661950 0.594594
0.275225 0.655226 0.525064
0.366013 0.701267 0.563019
0.463510 0.690281 0.567427
0.547740 0.653394 0.544952
0.662064 0.652882 0.529014
0.783014 0.679076 0.566998
0.879583 0.705307 0.597694
0.942953 0.701269 0.589632
0.997459 0.740221 0.619042
0.354418 0.707713 0.497779
0.422335 0.747741 0.542422
0.474324 0.730778 0.533841
0.516289 0.696989 0.500483
0.605041 0.692537 0.481315
0.719562 0.702819 0.462505
0.836526 0.723371 0.506672
0.934657 0.772379 0.587707
0.997018 0.823733 0.654356
0.406925 0.767347 0.496373
0.447525 0.807920 0.518679
0.472949 0.793934 0.504315
0.516494 0.774094 0.478698
0.583310 0.761746 0.451375
0.691551 0.775441 0.443004
0.808834 0.788457 0.428231
0.909522 0.800326 0.469128
0.992782 0.860055 0.598010
0.460479 0.875557 0.516039
0.506571 0.917084 0.540726
0.531654 0.910447 0.528055
0.573226 0.900161 0.511077
0.629162 0.888028 0.486882
0.729061 0.897451 0.480577
0.839634 0.909140 0.471191
0.938737 0.912970 0.452118
0.999127 0.914375 0.504267
0.622028 0.993622 0.627831
0.663350 0.999723 0.656439
0.675832 0.998757 0.648360
0.706429 1.000000 0.634505
0.750275 0.998869 0.623371
0.815091 0.999248 0.613621
0.884257 0.999605 0.595923
0.946532 0.996270 0.570382
1.000000 0.994152 0.541656
0.000000 0.295197 0.501220
0.001656 0.289419 0.507418
0.077652 0.271046 0.519264
0.429302 0.350790 0.599363
0.635567 0.437088 0.657204
0.733461 0.464897 0.654094
0.823235 0.536781 0.667187
0.887554 0.529530 0.644920
0.998108 0.583298 0.679520
0.002882 0.410885 0.598831
0.003640 0.414182 0.616796
0.212913 0.386255 0.622868
0.483833 0.433410 0.663405
0.672156 0.501035 0.699851
0.762941 0.521338 0.689132
0.852873 0.580961 0.694529
0.922021 0.565884 0.670718
0.997040 0.616751 0.703495
0.000996 0.488640 0.612564
0.162316 0.523936 0.646190
0.361566 0.530043 0.677780
0.527531 0.530324 0.693982
0.695559 0.587603 0.721941
0.776922 0.603978 0.712284
0.861301 0.621598 0.710445
0.926719 0.595391 0.676583
0.998451 0.632286 0.695938
0.074948 0.571171 0.617983
0.231811 0.613600 0.656933
0.383652 0.616568 0.665362
0.558557 0.633599 0.699620
0.701717 0.674207 0.732417
0.780057 0.682121 0.729614
0.842392 0.642053 0.686330
0.908808 0.616685 0.648993
0.997391 0.670927 0.685414
0.262375 0.678871 0.654465
0.359874 0.722319 0.694565
0.461342 0.724230 0.700495
0.585479 0.728006 0.712347
0.692055 0.730800 0.722740
0.769121 0.720648 0.706997
0.839508 0.704380 0.683121
0.913100 0.701778 0.671482
0.995743 0.742493 0.699226
0.403702 0.768288 0.656879
0.459378 0.809128 0.691378
0.514746 0.799806 0.690512
0.588103 0.786376 0.686570
0.643376 0.752439 0.660440
0.736887 0.753651 0.646641
0.847308 0.781414 0.683453
0.923435 0.808334 0.714084
0.992573 0.827459 0.728340
0.432480 0.819561 0.629902
0.476852 0.851596 0.653873
0.517219 0.844328 0.654342
0.572470 0.826188 0.648452
0.606712 0.793552 0.606413
0.690815 0.793657 0.586930
0.802977 0.803233 0.574818
0.904119 0.820688 0.614981
0.987438 0.877212 0.713742
0.493700 0.901348 0.646858
0.535452 0.932856 0.667353
0.557418 0.928254 0.660927
0.589887 0.914313 0.638311
0.635648 0.897872 0.609135
0.709548 0.895347 0.590412
0.818018 0.903263 0.581102
0.919179 0.910006 0.565475
0.995508 0.918295 0.624834
0.617706 0.997024 0.721572
0.649599 0.998142 0.732641
0.672783 0.998203 0.726395
0.698046 0.999048 0.714451
0.741142 0.999969 0.704323
0.797899 0.999903 0.690510
0.866963 0.998394 0.674545
0.933457 0.997986 0.657533
0.993103 0.998047 0.633392
0.000950 0.412277 0.646057
0.001928 0.406805 0.650031
0.104768 0.393366 0.658121
0.372019 0.411435 0.682911
0.590214 0.497753 0.735550
0.745911 0.581307 0.782126
0.818819 0.597308 0.769604
0.884251 0.664597 0.784791
0.993648 0.734791 0.832920
0.001414 0.495136 0.711803
0.026978 0.502150 0.719526
0.234583 0.483733 0.725698
0.427337 0.485418 0.747095
0.632175 0.555871 0.779206
0.767929 0.621922 0.804089
0.839224 0.639532 0.796071
0.900929 0.693790 0.800992
0.996419 0.757917 0.850999
0.098485 0.561462 0.718642
0.236378 0.596145 0.758896
0.365499 0.593640 0.769881
0.484196 0.574127 0.774304
0.657640 0.628097 0.802649
0.779486 0.681963 0.817090
0.846025 0.690618 0.811302
0.908086 0.733806 0.816877
0.996983 0.771705 0.852337
0.130388 0.613703 0.704490
0.247379 0.652549 0.739742
0.403751 0.661852 0.757987
0.554430 0.680995 0.790803
0.668486 0.696510 0.807166
0.785812 0.745676 0.827546
0.848051 0.753992 0.822639
0.907111 0.764219 0.823536
0.995444 0.774719 0.830487
0.264883 0.691650 0.722012
0.342587 0.733216 0.760433
0.427035 0.732476 0.761196
0.542149 0.730912 0.762442
0.667353 0.750534 0.793651
0.784894 0.794960 0.829218
0.846249 0.800564 0.828905
0.892859 0.761586 0.789232
0.983560 0.760225 0.787754
0.380187 0.780398 0.749114
0.444221 0.816905 0.784340
0.505650 0.816634 0.787336
0.590008 0.818518 0.794164
0.682788 0.822635 0.802268
0.770850 0.827636 0.815497
0.834826 0.814547 0.798570
0.893452 0.796551 0.774888
0.979867 0.819056 0.788307
0.495256 0.865355 0.766289
0.536125 0.896156 0.790527
0.569820 0.892927 0.789671
0.623023 0.886028 0.789551
0.678838 0.872546 0.783158
0.722752 0.837868 0.752940
0.809265 0.840925 0.736477
0.902656 0.865217 0.771140
0.970623 0.899758 0.818428
0.520193 0.930881 0.759213
0.555723 0.952992 0.778154
0.580645 0.950467 0.779577
0.622913 0.945920 0.772836
0.678143 0.929402 0.763733
0.714067 0.902386 0.726846
0.798157 0.906427 0.706647
0.899822 0.913475 0.701376
0.975527 0.926001 0.750271
0.608375 0.998524 0.799984
0.637856 0.999182 0.805552
0.666984 0.998282 0.808188
0.703901 0.999155 0.808259
0.740945 0.998772 0.796684
0.784046 0.999050 0.777824
0.848993 0.999540 0.762431
0.918457 0.998644 0.749199
0.982880 0.999046 0.736683
0.010307 0.527466 0.760040
0.063806 0.522900 0.762044
0.229784 0.515774 0.765614
0.371184 0.507654 0.777251
0.555031 0.561035 0.803849
0.713000 0.638863 0.839506
0.824547 0.704490 0.867140
0.877357 0.707854 0.855809
0.970573 0.800538 0.912300
0.146495 0.590660 0.810709
0.211195 0.595195 0.819436
0.309667 0.585502 0.820339
0.430615 0.573140 0.831262
0.594163 0.612873 0.848255
0.740201 0.680629 0.869834
0.839340 0.731286 0.885160
0.892129 0.733341 0.878061
0.991668 0.826425 0.930454
0.263256 0.643309 0.819370
0.335203 0.671786 0.849783
0.406331 0.664839 0.853205
0.497111 0.652575 0.855623
0.624713 0.669854 0.869930
0.754630 0.727289 0.880793
0.845061 0.768838 0.890607
0.894968 0.767193 0.880924
0.987167 0.849111 0.931162
0.267172 0.679779 0.801977
0.341920 0.718608 0.837414
0.451349 0.727300 0.849040
0.561914 0.735800 0.867247
0.643943 0.729137 0.870048
0.764937 0.775886 0.890280
0.850988 0.809034 0.897856
0.895545 0.807292 0.890765
0.976334 0.871221 0.934979
0.282463 0.725979 0.790592
0.347166 0.765199 0.828410
0.420406 0.762977 0.826883
0.538995 0.771108 0.840333
0.668733 0.792835 0.868059
0.763796 0.810717 0.882832
0.853157 0.848339 0.899670
0.890071 0.847549 0.896027
0.965652 0.887115 0.928585
0.367457 0.794827 0.811270
0.427213 0.830863 0.847291
0.476492 0.830005 0.845003
0.555050 0.826805 0.847765
0.639974 0.825437 0.845552
0.751981 0.842839 0.870630
0.854761 0.881262 0.905549
0.897164 0.884245 0.905354
0.952194 0.877215 0.893792
0.464886 0.874283 0.839527
0.512810 0.904779 0.866809
0.558044 0.901498 0.871851
0.618416 0.902654 0.872063
0.694572 0.901769 0.878503
0.769296 0.901713 0.882513
0.840696 0.903516 0.890735
0.886897 0.891816 0.874356
0.949427 0.893982 0.873787
0.582815 0.947832 0.865220
0.622163 0.972677 0.887503
0.645755 0.972615 0.887877
0.688765 0.969763 0.888785
0.734322 0.963391 0.888018
0.775312 0.950740 0.876352
0.805171 0.923221 0.843580
0.882202 0.926769 0.836045
0.956529 0.947995 0.875915
0.650451 0.999237 0.891633
0.671098 0.998180 0.890327
0.686220 0.998526 0.888268
0.713437 0.999762 0.888935
0.746692 0.998100 0.882023
0.794572 0.999763 0.883059
0.835392 0.999786 0.858912
0.895867 0.998584 0.841926
0.958382 1.000000 0.839447
0.292709 0.649082 0.863293
0.310562 0.648470 0.857760
0.377212 0.641906 0.859526
0.455566 0.633249 0.866481
0.562939 0.644232 0.872704
0.694562 0.695697 0.898038
0.802049 0.753377 0.908212
0.874126 0.792821 0.920002
0.949509 0.829800 0.950447
0.342835 0.690694 0.891612
0.374020 0.693341 0.897903
0.424521 0.690795 0.902209
0.498806 0.684262 0.905633
0.592380 0.684914 0.909484
0.716986 0.730485 0.915861
0.821859 0.778165 0.925651
0.888520 0.813345 0.936676
0.964548 0.852613 0.969756
0.408494 0.735489 0.898683
0.445152 0.750039 0.917126
0.484592 0.744931 0.916935
0.546543 0.734800 0.919570
0.621077 0.729417 0.921108
0.736541 0.762576 0.931034
0.833847 0.807594 0.938921
0.890601 0.834700 0.941725
0.966175 0.873437 0.974677
0.399205 0.758285 0.890536
0.451279 0.788098 0.913137
0.524147 0.797323 0.922532
0.595358 0.797154 0.927632
0.658556 0.785792 0.929384
0.745568 0.802281 0.935485
0.840386 0.839897 0.941551
0.893013 0.862743 0.944992
0.956075 0.890340 0.966296
0.360729 0.786692 0.873709
0.409164 0.818151 0.901291
0.476652 0.817252 0.904551
0.585769 0.827826 0.915224
0.683884 0.837913 0.932266
0.748576 0.832102 0.928541
0.840793 0.867220 0.943626
0.895031 0.890905 0.948067
0.945277 0.906447 0.964859
0.398642 0.831748 0.877746
0.443700 0.866221 0.910090
0.484537 0.862991 0.908171
0.548033 0.857853 0.905046
0.639902 0.859033 0.909853
0.759330 0.876331 0.930950
0.836520 0.892152 0.939628
0.895986 0.918387 0.952278
0.933394 0.928546 0.960605
0.467352 0.892722 0.896336
0.514696 0.923434 0.927005
0.546307 0.922233 0.922254
0.600781 0.919069 0.926253
0.669390 0.914423 0.923888
0.735952 0.907101 0.918787
0.831736 0.917003 0.935565
0.901521 0.945309 0.958678
0.928717 0.948168 0.959993
0.565004 0.957318 0.919660
0.601114 0.979288 0.944679
0.628419 0.981622 0.949739
0.672432 0.975382 0.945368
0.723374 0.971794 0.942542
0.781602 0.967246 0.945426
0.844423 0.961970 0.945018
0.895214 0.967897 0.953673
0.933403 0.960601 0.945429
0.683323 0.996075 0.945530
0.707653 0.999603 0.948867
0.723890 0.999256 0.953384
0.751237 0.999163 0.948956
0.780579 0.997351 0.948286
0.817532 0.999159 0.947748
0.851615 0.999238 0.943712
0.889554 0.999613 0.941073
0.942730 1.000000 0.932934
0.501953 0.772552 0.933319
0.505890 0.769596 0.940674
0.537246 0.764709 0.940186
0.572994 0.764709 0.938793
0.634354 0.756866 0.941178
0.717189 0.780907 0.949063
0.805679 0.813728 0.958290
0.871525 0.854500 0.961285
0.929413 0.890198 0.992157
0.527290 0.798030 0.964733
0.536980 0.800536 0.964711
0.558569 0.797432 0.964941
0.605509 0.788682 0.964491
0.654469 0.785810 0.968992
0.737468 0.802178 0.968256
0.816302 0.832547 0.967683
0.880887 0.867983 0.974028
0.939014 0.906662 0.997360
0.554802 0.824768 0.960823
0.573951 0.835940 0.974088
0.594015 0.830368 0.971306
0.626042 0.825870 0.968804
0.677036 0.816567 0.972923
0.750126 0.826596 0.978456
0.826908 0.854550 0.979260
0.883953 0.880213 0.977279
0.935616 0.915329 0.994423
0.547260 0.841377 0.958114
0.578406 0.864422 0.975427
0.626837 0.868474 0.980475
0.662544 0.861288 0.978579
0.705229 0.854725 0.976612
0.755179 0.848581 0.977478
0.834738 0.872796 0.980291
0.889568 0.896621 0.983588
0.932713 0.925854 0.991116
0.475464 0.851792 0.945908
0.511270 0.872244 0.971806
0.569504 0.874447 0.968002
0.660446 0.888706 0.977989
0.728912 0.891686 0.982353
0.771351 0.880757 0.977793
0.832936 0.895462 0.978634
0.890316 0.914534 0.982592
0.929535 0.941299 0.990326
0.457535 0.882992 0.945339
0.486151 0.908828 0.967704
0.521929 0.904399 0.967432
0.592006 0.901056 0.964315
0.690895 0.907597 0.971950
0.787850 0.916042 0.985661
0.831547 0.913955 0.977469
0.893244 0.934088 0.985373
0.925449 0.954380 0.993595
0.508514 0.921906 0.951538
0.540969 0.946949 0.974191
0.564062 0.944649 0.972458
0.610111 0.941945 0.973116
0.671470 0.938275 0.972828
0.741247 0.935728 0.972672
0.844918 0.945185 0.987896
0.888773 0.954649 0.986185
0.924057 0.974281 0.995529
0.577099 0.969849 0.969753
0.609236 0.985769 0.981949
0.631655 0.983895 0.985016
0.666218 0.982630 0.985009
0.715273 0.979811 0.983507
0.773222 0.976722 0.986312
0.830395 0.976405 0.982344
0.887804 0.980781 0.989966
0.928024 0.988758 0.997780
0.662750 1.000000 0.988220
0.682343 0.996113 0.984455
0.699020 1.000000 0.990417
0.725498 0.999050 0.990223
0.765656 1.000000 0.992157
0.810272 0.998493 0.994598
0.855118 0.997047 0.992699
0.898529 0.999508 0.996063
0.921570 1.000000 0.996063
