public/LUTs/C-8920-STD.cube
# Copyright: (C) Copyright 2010-2021 by IWLTBAP SAS
# Cannot be resold, shared or otherwise redistributed
# Website: https://luts.iwltbap.com
TITLE "IWLTBAP 8920 (Rec.709, sRGB, DCI-P3)"
LUT_3D_SIZE 9
0.072388 0.049011 0.047089
0.175804 0.066223 0.056426
0.310558 0.077005 0.071914
0.377149 0.087107 0.080604
0.427997 0.102898 0.094267
0.489444 0.124958 0.110851
0.574368 0.153495 0.112762
0.693310 0.227660 0.083335
0.821686 0.291687 0.085205
0.056904 0.124359 0.080186
0.215867 0.125517 0.076534
0.333586 0.152943 0.091690
0.406265 0.185389 0.104861
0.472223 0.196243 0.118805
0.535506 0.200460 0.127700
0.617611 0.247465 0.133809
0.739729 0.324766 0.121338
0.851760 0.365682 0.129386
0.048649 0.249262 0.120287
0.152676 0.251666 0.110504
0.363165 0.268407 0.097222
0.428781 0.294923 0.105931
0.485148 0.331330 0.122790
0.563332 0.349433 0.139172
0.656467 0.362478 0.135946
0.787486 0.400589 0.135944
0.866099 0.427036 0.173262
0.079276 0.337543 0.184632
0.150399 0.347870 0.141571
0.375462 0.357467 0.114943
0.455140 0.369503 0.110267
0.511279 0.393431 0.125625
0.586425 0.434422 0.132847
0.700441 0.455561 0.126334
0.826810 0.465520 0.137080
0.874309 0.480133 0.191627
0.097489 0.413900 0.292400
0.177114 0.417911 0.215361
0.332030 0.436623 0.160629
0.475054 0.446547 0.119113
0.543646 0.462037 0.117121
0.620993 0.497336 0.117690
0.733544 0.530696 0.113504
0.854446 0.526333 0.128146
0.880645 0.524435 0.200939
0.120770 0.489200 0.400163
0.214672 0.492242 0.295122
0.347083 0.528439 0.221435
0.446388 0.551803 0.159526
0.559523 0.548495 0.126570
0.661649 0.562405 0.108914
0.776961 0.575703 0.107950
0.866019 0.594436 0.131687
0.888711 0.579562 0.209068
0.180852 0.545960 0.461392
0.229363 0.574773 0.446622
0.380737 0.617502 0.250540
0.468697 0.640392 0.190297
0.545232 0.645222 0.163585
0.679477 0.635294 0.136494
0.808564 0.616929 0.121782
0.880264 0.641231 0.150388
0.895172 0.646810 0.233169
0.218004 0.614069 0.505922
0.256836 0.638413 0.582281
0.361443 0.652076 0.423469
0.466108 0.682141 0.307502
0.547914 0.698279 0.218385
0.670996 0.694864 0.195309
0.793934 0.690480 0.180477
0.884857 0.687376 0.185968
0.901448 0.701692 0.261853
0.271362 0.696289 0.662231
0.328653 0.720627 0.682640
0.396069 0.726910 0.623692
0.479021 0.712346 0.512814
0.592185 0.714271 0.444915
0.698989 0.735185 0.317568
0.825887 0.733879 0.225673
0.894346 0.736618 0.220387
0.912140 0.741058 0.276123
0.066896 0.080259 0.128368
0.153916 0.084185 0.137451
0.307921 0.096487 0.147444
0.390891 0.114248 0.155352
0.451347 0.136452 0.163206
0.505423 0.162879 0.181008
0.571134 0.192981 0.199451
0.682517 0.245476 0.173013
0.812885 0.307553 0.170145
0.036717 0.139284 0.189647
0.123246 0.172786 0.219465
0.342933 0.210246 0.187090
0.435765 0.239962 0.206721
0.505296 0.250524 0.232018
0.557517 0.255615 0.250100
0.617259 0.298931 0.285163
0.722514 0.347250 0.290327
0.820655 0.388032 0.290134
0.040638 0.241575 0.291427
0.112552 0.297410 0.301169
0.380322 0.314191 0.181013
0.455801 0.339699 0.203128
0.510811 0.369967 0.248817
0.576884 0.387997 0.294837
0.644853 0.394970 0.322824
0.743487 0.419670 0.348407
0.822262 0.445247 0.366560
0.066859 0.349688 0.369467
0.123957 0.391809 0.378209
0.330119 0.382741 0.301468
0.475707 0.405477 0.205875
0.533284 0.426368 0.241110
0.591983 0.460139 0.299658
0.673484 0.467461 0.349911
0.766609 0.471222 0.365878
0.832956 0.484509 0.385130
0.094268 0.459498 0.437126
0.149092 0.456527 0.467824
0.298537 0.462149 0.345238
0.472463 0.467228 0.308376
0.553219 0.485890 0.236590
0.614471 0.504235 0.298231
0.693607 0.521640 0.349621
0.790406 0.515946 0.362701
0.848421 0.524464 0.391287
0.145433 0.519593 0.464741
0.192951 0.544169 0.548237
0.311939 0.549678 0.426268
0.432971 0.547464 0.356672
0.569500 0.560290 0.290355
0.652735 0.571729 0.269950
0.730594 0.573179 0.333551
0.814210 0.579842 0.356754
0.865593 0.568262 0.400221
0.200548 0.574814 0.500920
0.245732 0.619078 0.608782
0.355027 0.631709 0.481330
0.454575 0.628115 0.422739
0.529569 0.631303 0.403851
0.652103 0.639268 0.349486
0.760517 0.656225 0.306558
0.828276 0.656917 0.358235
0.875151 0.652906 0.408424
0.232499 0.644811 0.588704
0.302724 0.683613 0.676770
0.401112 0.695922 0.581038
0.496277 0.688213 0.475162
0.573758 0.696097 0.434209
0.664111 0.712147 0.405522
0.751979 0.729816 0.368385
0.833444 0.722536 0.367655
0.889222 0.713020 0.410645
0.278880 0.709646 0.701886
0.349516 0.736045 0.738429
0.413742 0.764502 0.739252
0.492021 0.750540 0.655351
0.586485 0.743065 0.538511
0.673265 0.751902 0.454636
0.765257 0.772384 0.409159
0.847289 0.788890 0.368387
0.903477 0.772098 0.399717
0.057773 0.112513 0.266717
0.096908 0.114354 0.338183
0.249805 0.130128 0.293120
0.388255 0.164975 0.242850
0.448049 0.183794 0.227638
0.490016 0.185553 0.214869
0.584939 0.236942 0.248395
0.679145 0.277949 0.276141
0.779024 0.338757 0.298892
0.041537 0.171218 0.281009
0.087724 0.185871 0.350831
0.291261 0.259736 0.321842
0.435225 0.282451 0.303766
0.508163 0.301726 0.322536
0.573803 0.313931 0.327433
0.639471 0.338709 0.351212
0.725541 0.367135 0.376622
0.808841 0.404628 0.384875
0.042460 0.205909 0.333457
0.092448 0.258088 0.389697
0.284020 0.326568 0.391626
0.449221 0.376517 0.355937
0.522865 0.403297 0.363888
0.600265 0.423309 0.383465
0.680883 0.422494 0.400407
0.761936 0.438488 0.429478
0.831423 0.452841 0.434036
0.072688 0.272816 0.396341
0.129094 0.347327 0.445293
0.314300 0.434609 0.437715
0.485309 0.436948 0.345096
0.550431 0.459211 0.361598
0.616788 0.487055 0.393783
0.701575 0.482122 0.420513
0.778082 0.481859 0.444967
0.842167 0.491080 0.462829
0.103537 0.401987 0.477760
0.160617 0.451079 0.512886
0.296921 0.498346 0.506844
0.465798 0.501283 0.424454
0.573928 0.512228 0.367809
0.644226 0.525642 0.393318
0.716295 0.537832 0.429788
0.794143 0.526524 0.457739
0.857341 0.535186 0.474651
0.162063 0.524794 0.529836
0.208865 0.542377 0.576926
0.308558 0.596481 0.584622
0.429491 0.580752 0.449368
0.560707 0.578267 0.438479
0.667859 0.578974 0.399943
0.740008 0.588888 0.435175
0.809654 0.596343 0.464124
0.877188 0.588583 0.480361
0.212558 0.598127 0.566628
0.261340 0.608970 0.637231
0.355369 0.677063 0.659617
0.454795 0.660137 0.525325
0.537229 0.653017 0.485049
0.661081 0.652461 0.446205
0.753711 0.659175 0.434223
0.821189 0.673637 0.466336
0.891111 0.677141 0.483828
0.244210 0.665626 0.645654
0.318653 0.670742 0.703308
0.413518 0.726789 0.720624
0.504344 0.717955 0.592113
0.587246 0.716688 0.540200
0.663307 0.724631 0.518776
0.747694 0.738710 0.487634
0.834639 0.744117 0.456739
0.903151 0.744006 0.490954
0.300569 0.701527 0.724717
0.372161 0.733100 0.763758
0.452604 0.764675 0.784921
0.525906 0.781491 0.743947
0.617959 0.769015 0.607563
0.689866 0.777745 0.543071
0.772809 0.802899 0.498859
0.841019 0.820103 0.469678
0.908446 0.805807 0.500014
0.068775 0.115187 0.371958
0.118298 0.109821 0.444267
0.191316 0.116142 0.456351
0.332988 0.136056 0.386923
0.449172 0.187961 0.314816
0.507705 0.217491 0.278015
0.548797 0.226373 0.258779
0.678817 0.303667 0.329000
0.775313 0.361394 0.380389
0.049905 0.176872 0.369698
0.126300 0.215318 0.432813
0.297441 0.236875 0.457458
0.434851 0.278210 0.391828
0.510399 0.335652 0.399440
0.570466 0.361358 0.411532
0.654431 0.371680 0.409884
0.741835 0.391479 0.432530
0.816860 0.419820 0.443061
0.060063 0.221261 0.417538
0.119970 0.275936 0.465794
0.244456 0.335251 0.497935
0.435970 0.401735 0.451495
0.524233 0.425454 0.444461
0.611282 0.447258 0.442765
0.697928 0.445775 0.454626
0.773329 0.448679 0.479787
0.841330 0.459662 0.480655
0.084007 0.289453 0.449617
0.142096 0.336550 0.496320
0.260815 0.410828 0.518497
0.442395 0.463447 0.488479
0.553755 0.490935 0.455262
0.638205 0.504927 0.457889
0.723350 0.495458 0.477677
0.796793 0.492823 0.499816
0.860048 0.504229 0.517958
0.112927 0.375855 0.499978
0.167732 0.423998 0.540980
0.282367 0.488728 0.566890
0.450985 0.545695 0.526185
0.585480 0.540675 0.445521
0.664227 0.546961 0.460029
0.737286 0.553468 0.491265
0.813371 0.539103 0.514594
0.873955 0.553896 0.543361
0.168649 0.468391 0.552016
0.217363 0.520042 0.596029
0.307080 0.575057 0.627605
0.423421 0.619584 0.587182
0.561078 0.604628 0.516544
0.678392 0.607500 0.469658
0.754663 0.614458 0.496751
0.822300 0.621264 0.533853
0.894437 0.610398 0.562094
0.219927 0.560823 0.608813
0.273427 0.598813 0.656864
0.366013 0.651661 0.693871
0.460105 0.694691 0.660771
0.550021 0.676178 0.549500
0.668122 0.675246 0.524452
0.762881 0.684800 0.502545
0.832382 0.696998 0.545462
0.906361 0.699825 0.574363
0.257390 0.653412 0.673654
0.333350 0.666267 0.722515
0.421295 0.700228 0.750191
0.505656 0.748259 0.739594
0.598054 0.742318 0.621517
0.669198 0.744523 0.599710
0.756312 0.759796 0.563039
0.847956 0.766621 0.537326
0.918673 0.772498 0.577079
0.322675 0.702249 0.745171
0.392338 0.730538 0.786799
0.470035 0.750490 0.804477
0.542335 0.772982 0.807862
0.630021 0.800399 0.715473
0.708432 0.804728 0.642201
0.781634 0.827243 0.614200
0.852126 0.842152 0.576063
0.924036 0.833252 0.584045
0.091612 0.115707 0.463247
0.174695 0.123857 0.516822
0.255282 0.128975 0.522211
0.328056 0.135827 0.499947
0.426772 0.161158 0.438559
0.513763 0.214259 0.377538
0.576648 0.259261 0.351300
0.635585 0.290408 0.356567
0.771932 0.372968 0.433720
0.064568 0.199317 0.461014
0.166326 0.238520 0.509699
0.290269 0.221273 0.568465
0.375402 0.227384 0.555999
0.498086 0.296064 0.492305
0.576815 0.380351 0.477100
0.623737 0.370700 0.444524
0.730297 0.396034 0.465981
0.830405 0.433333 0.492188
0.088846 0.262033 0.491214
0.154157 0.295780 0.535019
0.311193 0.386144 0.562374
0.433512 0.410144 0.555419
0.532965 0.434639 0.509223
0.616353 0.461748 0.518428
0.699760 0.467234 0.515992
0.784112 0.464209 0.527375
0.852212 0.474216 0.532782
0.106930 0.326164 0.510722
0.168075 0.354644 0.561703
0.292856 0.427716 0.581732
0.408663 0.473766 0.594688
0.541936 0.510025 0.547497
0.645062 0.514452 0.536820
0.735248 0.512028 0.533225
0.809026 0.506749 0.551906
0.870458 0.519555 0.575180
0.131858 0.384880 0.528979
0.182916 0.421031 0.569517
0.284502 0.474193 0.602768
0.404841 0.531955 0.609376
0.546088 0.564096 0.581897
0.669994 0.578423 0.545934
0.757936 0.576101 0.557406
0.834077 0.558700 0.579157
0.892084 0.580259 0.614604
0.184443 0.458683 0.573801
0.227091 0.496197 0.616647
0.312810 0.553176 0.653994
0.417054 0.594259 0.660284
0.554195 0.636967 0.622172
0.686646 0.640334 0.543836
0.766591 0.648473 0.568519
0.839498 0.651875 0.607490
0.912068 0.637985 0.641846
0.229306 0.530205 0.629095
0.277378 0.579538 0.672150
0.370363 0.637241 0.711697
0.457558 0.661070 0.716821
0.553346 0.705493 0.677658
0.672832 0.704527 0.620191
0.772849 0.716386 0.580434
0.850173 0.724151 0.625263
0.920551 0.725603 0.669982
0.271309 0.611892 0.693146
0.347388 0.667875 0.740287
0.433842 0.693646 0.766827
0.504525 0.710553 0.777468
0.598874 0.770986 0.770729
0.685477 0.772507 0.674335
0.769941 0.786322 0.644348
0.858884 0.791089 0.633777
0.927216 0.798976 0.681239
0.343251 0.701014 0.766587
0.411105 0.735208 0.806532
0.482332 0.743861 0.824284
0.543760 0.754615 0.835945
0.625813 0.801560 0.843479
0.718516 0.837598 0.750727
0.783769 0.849378 0.723238
0.854279 0.860285 0.699896
0.935783 0.858030 0.683697
0.140174 0.145969 0.549219
0.249348 0.148427 0.586798
0.322317 0.151803 0.591988
0.375997 0.163043 0.576331
0.451883 0.184148 0.533655
0.525997 0.217489 0.487116
0.595133 0.275588 0.466867
0.662932 0.316055 0.472720
0.734114 0.368874 0.503414
0.096799 0.245233 0.544062
0.231697 0.264977 0.586757
0.349111 0.270823 0.643693
0.402262 0.263283 0.655269
0.461136 0.292259 0.640904
0.565056 0.349766 0.574195
0.649343 0.397136 0.536060
0.713007 0.409232 0.528949
0.791887 0.428253 0.533255
0.120325 0.319483 0.562239
0.196203 0.340502 0.608141
0.348181 0.408146 0.643202
0.424625 0.393158 0.695516
0.491402 0.393706 0.675407
0.613879 0.440178 0.602091
0.701811 0.477189 0.592299
0.747757 0.463249 0.560316
0.850816 0.487089 0.582496
0.139946 0.375469 0.568962
0.199500 0.400667 0.620270
0.334347 0.450823 0.654602
0.449623 0.506487 0.664156
0.547610 0.498641 0.673191
0.656556 0.511948 0.616745
0.739554 0.532924 0.626404
0.810542 0.526604 0.615081
0.879520 0.546569 0.635051
0.168788 0.417088 0.579388
0.217640 0.446839 0.631393
0.319764 0.489751 0.669140
0.428507 0.536368 0.683541
0.530495 0.580782 0.682593
0.655068 0.608535 0.653480
0.762707 0.601741 0.646677
0.843965 0.591426 0.646364
0.903830 0.602453 0.677221
0.206494 0.456358 0.603862
0.250001 0.497275 0.646664
0.337725 0.542152 0.685108
0.428229 0.579004 0.712985
0.521940 0.620968 0.717643
0.653658 0.669315 0.701043
0.774217 0.690585 0.664908
0.860192 0.684477 0.690035
0.928515 0.672147 0.719861
0.244005 0.513332 0.655443
0.298153 0.566872 0.698667
0.383903 0.605568 0.731020
0.462781 0.635949 0.753606
0.544255 0.670000 0.765344
0.675041 0.730383 0.741256
0.785595 0.755750 0.674777
0.868437 0.757419 0.712427
0.936633 0.759894 0.759046
0.286740 0.577289 0.715779
0.357831 0.642282 0.760912
0.437606 0.678525 0.789738
0.510355 0.697806 0.804587
0.585820 0.726806 0.825139
0.685119 0.792405 0.809813
0.779110 0.819266 0.754864
0.870031 0.824776 0.724870
0.939550 0.830575 0.774898
0.361993 0.670721 0.790527
0.433330 0.726232 0.828866
0.499909 0.742136 0.846024
0.556311 0.746663 0.861494
0.619980 0.773282 0.890096
0.707687 0.828480 0.887437
0.791949 0.881301 0.829683
0.868715 0.885291 0.789094
0.948496 0.880675 0.782901
0.199384 0.197597 0.655524
0.323787 0.186363 0.673493
0.382743 0.190865 0.679389
0.425797 0.208659 0.669130
0.480803 0.228991 0.644796
0.556544 0.262243 0.597850
0.624213 0.300413 0.560725
0.693805 0.346728 0.558898
0.760010 0.395078 0.603466
0.149917 0.309791 0.644201
0.322749 0.334944 0.692906
0.409220 0.325377 0.736249
0.465290 0.316765 0.754810
0.517047 0.337487 0.748119
0.607684 0.369338 0.684959
0.679189 0.399006 0.644255
0.743968 0.429581 0.632477
0.800735 0.439743 0.638846
0.164204 0.363837 0.652615
0.260474 0.401377 0.707353
0.394811 0.409943 0.755865
0.476035 0.407289 0.801759
0.527684 0.400085 0.812059
0.614884 0.408340 0.775521
0.709725 0.435241 0.710782
0.775535 0.468815 0.675250
0.831945 0.480185 0.665815
0.181420 0.412075 0.652885
0.244164 0.435066 0.702111
0.372878 0.488533 0.761268
0.466248 0.475030 0.816634
0.549516 0.457670 0.872304
0.634261 0.439610 0.836506
0.744920 0.482852 0.752737
0.808281 0.514328 0.718256
0.853289 0.527073 0.682488
0.209117 0.445177 0.661089
0.254952 0.478457 0.706818
0.360465 0.519975 0.741674
0.459900 0.564330 0.775553
0.554631 0.599998 0.802515
0.658191 0.563176 0.843857
0.765286 0.589762 0.758923
0.836540 0.630308 0.749066
0.891935 0.604610 0.723808
0.236762 0.477007 0.683263
0.288322 0.522387 0.722476
0.387188 0.568131 0.759391
0.464267 0.595531 0.794207
0.547049 0.640020 0.812747
0.649380 0.698063 0.814194
0.755492 0.720592 0.792104
0.864123 0.714620 0.777853
0.935342 0.710877 0.787800
0.264001 0.515477 0.716401
0.330653 0.572329 0.749550
0.419913 0.618744 0.786845
0.489866 0.645889 0.819918
0.559815 0.675114 0.852761
0.646133 0.724069 0.870579
0.755897 0.784349 0.852413
0.877217 0.801583 0.809423
0.949527 0.797336 0.838786
0.313576 0.575020 0.769368
0.397324 0.639538 0.801885
0.471296 0.676192 0.836196
0.529798 0.701037 0.864937
0.593396 0.730733 0.895871
0.669373 0.765854 0.917034
0.781521 0.827255 0.877555
0.881813 0.862098 0.817764
0.954133 0.860890 0.858408
0.397846 0.661816 0.828811
0.465527 0.708940 0.856658
0.518402 0.733454 0.880975
0.568936 0.758015 0.903534
0.634790 0.787165 0.929806
0.712703 0.822731 0.945180
0.804098 0.879982 0.918157
0.879187 0.915177 0.888829
0.959748 0.907843 0.871794
0.276288 0.269013 0.764993
0.399028 0.233265 0.775363
0.463108 0.243962 0.784438
0.501576 0.255402 0.788422
0.539024 0.270489 0.784335
0.597448 0.299241 0.738177
0.671693 0.340910 0.674262
0.725016 0.373158 0.655303
0.789413 0.404174 0.680563
0.217860 0.378102 0.787610
0.403337 0.394434 0.815147
0.486742 0.356733 0.836866
0.541257 0.340635 0.854332
0.581572 0.350537 0.865792
0.647328 0.382465 0.812039
0.722112 0.402413 0.760378
0.769742 0.416913 0.741247
0.825486 0.427810 0.745136
0.217357 0.405880 0.777155
0.355957 0.475637 0.835846
0.474085 0.454492 0.876302
0.551299 0.435337 0.886994
0.608312 0.418628 0.901711
0.678769 0.428815 0.869283
0.761126 0.428747 0.830330
0.804435 0.442866 0.814630
0.852797 0.465511 0.818297
0.231471 0.437866 0.759898
0.334303 0.491045 0.807265
0.448382 0.547921 0.863129
0.532207 0.508535 0.914777
0.620160 0.496556 0.933698
0.699371 0.476112 0.920809
0.780968 0.471088 0.892290
0.831291 0.483143 0.868912
0.878892 0.516544 0.862050
0.250043 0.476223 0.759825
0.330711 0.520484 0.795885
0.433136 0.568784 0.832960
0.513155 0.614549 0.872666
0.596045 0.606552 0.912795
0.702156 0.584078 0.939849
0.791580 0.555045 0.919624
0.851169 0.584218 0.882315
0.905406 0.605373 0.862451
0.273465 0.509491 0.776153
0.352226 0.565529 0.808371
0.441366 0.606619 0.835596
0.507125 0.636693 0.866306
0.592485 0.688004 0.890333
0.687656 0.732379 0.895410
0.799004 0.707167 0.888104
0.871983 0.710072 0.870022
0.931189 0.738233 0.871475
0.307819 0.551893 0.804375
0.395958 0.614636 0.833339
0.476497 0.652987 0.860254
0.535549 0.678224 0.887042
0.601784 0.712674 0.911624
0.686640 0.765848 0.927657
0.782035 0.820115 0.915969
0.866025 0.825346 0.906396
0.953525 0.822463 0.904454
0.359437 0.605780 0.843339
0.448586 0.666129 0.865830
0.511407 0.698022 0.889390
0.563115 0.723228 0.910652
0.624485 0.753322 0.931769
0.696104 0.789367 0.953242
0.778077 0.838954 0.955140
0.866757 0.886021 0.937921
0.962920 0.889202 0.924692
0.447215 0.688353 0.888449
0.508935 0.724036 0.909742
0.557411 0.749552 0.927471
0.604514 0.774642 0.941242
0.664223 0.805175 0.954948
0.730222 0.837227 0.971250
0.807077 0.876834 0.970687
0.892391 0.920686 0.951142
0.968025 0.938418 0.936374
0.374481 0.348969 0.864594
0.483637 0.275517 0.850978
0.543707 0.281716 0.858762
0.586055 0.292518 0.870218
0.619623 0.304671 0.880021
0.658404 0.326771 0.863888
0.712252 0.370560 0.812447
0.772571 0.400694 0.785373
0.827698 0.414398 0.796295
0.336732 0.472097 0.895265
0.470921 0.442690 0.902272
0.555442 0.384160 0.910992
0.612596 0.365349 0.922358
0.659157 0.369069 0.925454
0.711639 0.388619 0.896985
0.761288 0.418233 0.853024
0.808578 0.431382 0.843561
0.852144 0.437350 0.857294
0.319548 0.485743 0.890188
0.454111 0.549574 0.907855
0.539887 0.507985 0.936224
0.614033 0.473056 0.939605
0.678067 0.447671 0.946913
0.744440 0.444343 0.923985
0.802280 0.458081 0.900316
0.839944 0.471572 0.904607
0.877926 0.489803 0.900669
0.314643 0.499976 0.869175
0.441985 0.572982 0.887048
0.523914 0.615323 0.908951
0.603572 0.583533 0.941721
0.682556 0.541951 0.961621
0.758508 0.513856 0.954088
0.829504 0.510289 0.937113
0.869992 0.522579 0.932002
0.905022 0.550802 0.919612
0.325541 0.521019 0.859673
0.438458 0.588846 0.873815
0.513247 0.634493 0.894794
0.582579 0.672997 0.909672
0.666922 0.671064 0.932860
0.766199 0.627016 0.950320
0.845109 0.601681 0.944499
0.894334 0.617301 0.930722
0.930930 0.637808 0.921361
0.348624 0.566326 0.862766
0.452692 0.617454 0.883188
0.516101 0.653893 0.904304
0.569572 0.689284 0.919572
0.648195 0.734571 0.929861
0.733420 0.758386 0.931349
0.845080 0.727502 0.928822
0.901839 0.719082 0.926193
0.941398 0.739199 0.923761
0.382893 0.609135 0.885452
0.472499 0.658212 0.904315
0.531698 0.689219 0.921212
0.580752 0.715952 0.936560
0.638443 0.750632 0.950449
0.720715 0.799910 0.960517
0.817990 0.844229 0.943999
0.900916 0.813703 0.942831
0.955203 0.815150 0.945413
0.434718 0.658754 0.912282
0.507711 0.701948 0.926075
0.557288 0.729910 0.940411
0.605378 0.756343 0.952324
0.663058 0.787748 0.962928
0.730197 0.820895 0.975168
0.812115 0.868372 0.973838
0.885708 0.908598 0.966880
0.948917 0.903542 0.967616
0.497803 0.712036 0.935608
0.551421 0.742758 0.950364
0.598998 0.770099 0.958283
0.644206 0.796520 0.965777
0.698356 0.826666 0.973351
0.759089 0.857996 0.982879
0.829986 0.894393 0.983589
0.894018 0.926898 0.981679
0.951935 0.957062 0.982574
