public/LUTs/C-8920-STD.cube
# Copyright: (C) Copyright 2010-2021 by IWLTBAP SAS
# Cannot be resold, shared or otherwise redistributed
# Website: https://luts.iwltbap.com
TITLE "IWLTBAP 8920 (Rec.709, sRGB, DCI-P3)"
LUT_3D_SIZE 33
0.072388 0.049011 0.047089
0.088026 0.052181 0.048420
0.110953 0.056476 0.050256
0.140705 0.061053 0.052717
0.175804 0.066223 0.056426
0.209818 0.071151 0.061273
0.244776 0.074958 0.066335
0.279992 0.076197 0.069637
0.310558 0.077005 0.071914
0.331956 0.078552 0.073569
0.348814 0.080844 0.075486
0.363766 0.083720 0.077863
0.377149 0.087107 0.080604
0.389809 0.090578 0.083434
0.402344 0.094166 0.086557
0.414982 0.098253 0.090242
0.427997 0.102898 0.094267
0.441825 0.107891 0.098206
0.456970 0.113172 0.102025
0.473041 0.118877 0.106202
0.489444 0.124958 0.110851
0.507409 0.130831 0.114180
0.527949 0.136317 0.114888
0.550211 0.143344 0.114799
0.574368 0.153495 0.112762
0.600488 0.165658 0.107936
0.629172 0.182370 0.099235
0.659824 0.203869 0.090573
0.693310 0.227660 0.083335
0.728901 0.246523 0.079307
0.761031 0.265228 0.078309
0.797288 0.277934 0.080239
0.821686 0.291687 0.085205
0.071960 0.058683 0.051291
0.099324 0.058129 0.049419
0.122571 0.062630 0.051472
0.151584 0.068183 0.054837
0.184471 0.074418 0.059199
0.216135 0.080508 0.064593
0.247249 0.085991 0.070065
0.279152 0.090188 0.074359
0.311743 0.092398 0.077409
0.338579 0.092912 0.079184
0.359007 0.094162 0.081056
0.374715 0.096769 0.083466
0.387986 0.099911 0.086250
0.400573 0.103205 0.089148
0.413230 0.106430 0.092084
0.426409 0.109833 0.095139
0.440146 0.113828 0.098420
0.454330 0.118570 0.102000
0.469300 0.124109 0.105827
0.485203 0.130398 0.109763
0.501880 0.137227 0.113909
0.520163 0.144227 0.117172
0.540802 0.151122 0.118150
0.562305 0.158937 0.119128
0.584191 0.169718 0.119843
0.609158 0.182974 0.116069
0.637980 0.201605 0.106142
0.668681 0.224987 0.096602
0.700555 0.252728 0.089011
0.736655 0.271916 0.084154
0.774190 0.286669 0.083024
0.809881 0.297892 0.085619
0.833138 0.310101 0.090648
0.069973 0.075140 0.058455
0.096297 0.073422 0.057870
0.135333 0.074193 0.054578
0.165428 0.080219 0.058022
0.196899 0.086849 0.063296
0.226810 0.094150 0.069330
0.256142 0.101009 0.075270
0.285473 0.106775 0.080079
0.313618 0.112141 0.083974
0.339124 0.114920 0.086238
0.362813 0.115926 0.087987
0.383208 0.117221 0.090305
0.399540 0.119837 0.093301
0.413106 0.123192 0.096314
0.425933 0.125629 0.098892
0.439186 0.127730 0.101424
0.452981 0.130709 0.104278
0.467175 0.134254 0.107320
0.482006 0.138470 0.110596
0.497768 0.144161 0.114095
0.514467 0.151152 0.117543
0.532745 0.158733 0.120175
0.553121 0.167168 0.121546
0.574306 0.177961 0.123714
0.595759 0.191796 0.126368
0.619212 0.207594 0.126481
0.647726 0.228147 0.120151
0.680091 0.250789 0.110522
0.713642 0.276604 0.102800
0.748944 0.295537 0.095984
0.785419 0.309231 0.093384
0.818968 0.318222 0.094526
0.841223 0.329037 0.098716
0.064884 0.096752 0.067626
0.089062 0.093485 0.069653
0.128705 0.092393 0.068111
0.174176 0.097104 0.064488
0.208626 0.103739 0.068570
0.240673 0.110353 0.073969
0.270139 0.117960 0.079698
0.297290 0.125117 0.084193
0.322986 0.132030 0.088155
0.344913 0.139215 0.091598
0.365462 0.144694 0.094696
0.385945 0.147127 0.097568
0.405236 0.148140 0.100678
0.422334 0.149155 0.103713
0.437118 0.150759 0.106333
0.450612 0.153446 0.108732
0.464269 0.156303 0.111167
0.478451 0.159091 0.113842
0.493089 0.162849 0.116860
0.508810 0.167117 0.119614
0.525778 0.172367 0.122072
0.543838 0.180637 0.124581
0.563547 0.190803 0.126416
0.584915 0.202874 0.128351
0.607993 0.219038 0.129489
0.632415 0.236681 0.129024
0.660894 0.258438 0.124268
0.693499 0.279985 0.116654
0.727802 0.301210 0.110700
0.762053 0.317561 0.106898
0.795923 0.330658 0.105937
0.827128 0.338903 0.108279
0.847444 0.346936 0.111847
0.056904 0.124359 0.080186
0.080240 0.122058 0.080852
0.116406 0.117122 0.084033
0.164967 0.119478 0.079911
0.215867 0.125517 0.076534
0.251975 0.131451 0.079944
0.283515 0.137505 0.084618
0.310071 0.144803 0.088444
0.333586 0.152943 0.091690
0.353741 0.161690 0.094614
0.371996 0.170436 0.097885
0.389235 0.178806 0.101420
0.406265 0.185389 0.104861
0.423643 0.189094 0.108294
0.440819 0.191643 0.112104
0.457057 0.194429 0.115836
0.472223 0.196243 0.118805
0.487047 0.196096 0.121194
0.502284 0.195937 0.123755
0.518339 0.197531 0.126125
0.535506 0.200460 0.127700
0.553814 0.206259 0.129078
0.573286 0.216555 0.130732
0.594098 0.230050 0.133036
0.617611 0.247465 0.133809
0.643571 0.266342 0.132219
0.672776 0.287231 0.127934
0.705492 0.306612 0.123992
0.739729 0.324766 0.121338
0.772532 0.338052 0.122704
0.804794 0.350299 0.123977
0.832156 0.358823 0.126677
0.851760 0.365682 0.129386
0.048629 0.155693 0.093305
0.068438 0.154276 0.090089
0.099014 0.150082 0.093609
0.150639 0.147662 0.094832
0.206238 0.152012 0.091873
0.257658 0.159535 0.086164
0.293022 0.166159 0.087959
0.319533 0.171369 0.090982
0.342375 0.178426 0.093805
0.361806 0.187090 0.096291
0.379168 0.196143 0.099156
0.395228 0.206254 0.102689
0.410296 0.216888 0.106441
0.425412 0.225860 0.110370
0.441673 0.231461 0.114591
0.459135 0.234531 0.118628
0.476444 0.236698 0.122426
0.492595 0.237754 0.125972
0.508345 0.237247 0.129048
0.525036 0.237066 0.131322
0.542788 0.239092 0.132606
0.561516 0.243682 0.132967
0.581594 0.252061 0.133135
0.602738 0.264872 0.134822
0.627063 0.281576 0.134870
0.653819 0.299075 0.132946
0.684120 0.316631 0.129090
0.717189 0.333400 0.126644
0.752334 0.346986 0.127143
0.784466 0.358343 0.130557
0.814960 0.368019 0.135021
0.839428 0.376298 0.139166
0.855504 0.383137 0.145024
0.043929 0.187783 0.103087
0.057878 0.189336 0.097965
0.080442 0.186417 0.099908
0.130960 0.183743 0.102708
0.194724 0.182427 0.103842
0.254185 0.189052 0.096418
0.298895 0.196176 0.092346
0.327684 0.200921 0.093244
0.350221 0.206483 0.095383
0.369229 0.214249 0.097435
0.386190 0.223362 0.099745
0.401623 0.233452 0.102636
0.415938 0.244526 0.105947
0.429879 0.255551 0.109727
0.444399 0.265060 0.113986
0.460392 0.271902 0.118149
0.477520 0.276193 0.122603
0.494703 0.279346 0.127900
0.511878 0.281214 0.132740
0.529737 0.281341 0.135591
0.548454 0.281436 0.136893
0.568099 0.283572 0.137105
0.588909 0.289056 0.136310
0.611163 0.298208 0.136235
0.636520 0.312511 0.135385
0.665006 0.327761 0.132739
0.696164 0.342496 0.129268
0.729140 0.355498 0.128563
0.764288 0.366727 0.130402
0.795547 0.375785 0.136004
0.824590 0.384204 0.141841
0.845346 0.391750 0.148529
0.859410 0.398760 0.157260
0.045304 0.219645 0.111529
0.055298 0.223059 0.102694
0.073489 0.222254 0.103251
0.108041 0.220047 0.106225
0.170993 0.217418 0.108647
0.246191 0.220440 0.106826
0.297836 0.226776 0.102152
0.333042 0.233255 0.095899
0.357271 0.238652 0.095618
0.376085 0.244712 0.097533
0.392742 0.252183 0.099841
0.407956 0.261368 0.102622
0.422160 0.271521 0.105740
0.435943 0.281800 0.109381
0.449862 0.291874 0.113671
0.464484 0.301252 0.118017
0.479978 0.308901 0.122798
0.496571 0.314097 0.128621
0.514974 0.317398 0.134108
0.535212 0.319143 0.137383
0.555822 0.318873 0.138804
0.576066 0.318746 0.139312
0.597130 0.321792 0.138704
0.620083 0.327771 0.137716
0.646508 0.338112 0.135744
0.676220 0.351086 0.132826
0.708919 0.363289 0.129792
0.741717 0.374363 0.130153
0.776115 0.383973 0.133432
0.806541 0.391924 0.140172
0.834285 0.399590 0.147153
0.851402 0.406404 0.156027
0.863470 0.413146 0.166423
0.048649 0.249262 0.120287
0.058587 0.252387 0.109835
0.072826 0.254776 0.107456
0.098711 0.253653 0.109189
0.152676 0.251666 0.110504
0.233621 0.252927 0.111059
0.296005 0.256837 0.109275
0.335704 0.263105 0.101715
0.363165 0.268407 0.097222
0.382723 0.273584 0.097780
0.399211 0.279323 0.100093
0.414451 0.286354 0.102890
0.428781 0.294923 0.105931
0.442590 0.303948 0.109456
0.456385 0.312959 0.113622
0.470613 0.322245 0.117920
0.485148 0.331330 0.122790
0.500435 0.338937 0.128735
0.518426 0.344166 0.134348
0.540226 0.347604 0.137722
0.563332 0.349433 0.139172
0.584862 0.349837 0.139916
0.606006 0.351595 0.139689
0.629259 0.355567 0.138586
0.656467 0.362478 0.135946
0.687077 0.372079 0.132764
0.720632 0.382520 0.130381
0.753631 0.392182 0.131697
0.787486 0.400589 0.135944
0.816213 0.408289 0.143807
0.841745 0.415461 0.151656
0.856743 0.422009 0.161451
0.866099 0.427036 0.173262
0.055875 0.274401 0.132423
0.066108 0.277003 0.121042
0.078649 0.280830 0.116326
0.100119 0.282178 0.113798
0.148916 0.281192 0.112679
0.225552 0.282066 0.111361
0.292928 0.284423 0.111007
0.338744 0.289060 0.106298
0.368813 0.293917 0.101069
0.388943 0.298034 0.099556
0.405433 0.302570 0.101090
0.420787 0.308197 0.103784
0.435424 0.315037 0.106697
0.449364 0.322900 0.110122
0.463088 0.331182 0.114192
0.477195 0.339806 0.118368
0.491506 0.348774 0.123103
0.506103 0.357628 0.128949
0.523004 0.365455 0.134510
0.544498 0.371334 0.137737
0.569150 0.375155 0.138961
0.593030 0.377531 0.139560
0.615524 0.379292 0.139180
0.639600 0.381635 0.137702
0.667576 0.386055 0.134658
0.698844 0.392000 0.131859
0.732585 0.400528 0.130413
0.764845 0.409724 0.132810
0.797765 0.417819 0.137787
0.823479 0.425660 0.147769
0.847554 0.432498 0.156092
0.860419 0.438248 0.166293
0.868459 0.441846 0.178812
0.064508 0.296906 0.147211
0.074824 0.299093 0.135401
0.087366 0.302648 0.129017
0.105602 0.306255 0.122254
0.151267 0.306909 0.118052
0.221161 0.307728 0.113655
0.287848 0.309794 0.111857
0.339124 0.312935 0.109741
0.373598 0.316755 0.105970
0.394801 0.320207 0.103461
0.411461 0.323735 0.103064
0.426952 0.328443 0.104906
0.441794 0.334199 0.107652
0.455845 0.340607 0.111127
0.469496 0.347827 0.115304
0.483508 0.355868 0.119491
0.498137 0.364447 0.123674
0.513137 0.373399 0.128689
0.529639 0.382696 0.133795
0.549940 0.391420 0.136660
0.574220 0.397777 0.137532
0.600138 0.401990 0.138072
0.625383 0.405225 0.137576
0.650593 0.406924 0.135764
0.678992 0.409464 0.132489
0.710627 0.412860 0.130189
0.744801 0.418255 0.130056
0.776474 0.426765 0.133153
0.807930 0.434831 0.138764
0.831191 0.442604 0.150164
0.852587 0.449110 0.159764
0.863726 0.454027 0.170543
0.870998 0.456788 0.183597
0.072312 0.317823 0.164751
0.082914 0.319657 0.153576
0.095972 0.322228 0.144912
0.113007 0.326246 0.135866
0.150513 0.329033 0.127910
0.214310 0.330425 0.121501
0.282196 0.332390 0.116122
0.336914 0.334882 0.113504
0.376382 0.337812 0.110416
0.400519 0.340894 0.107798
0.417950 0.343980 0.106384
0.433468 0.347375 0.106700
0.448305 0.352066 0.108691
0.462342 0.357561 0.112150
0.475878 0.363654 0.116544
0.489762 0.370850 0.120861
0.504609 0.379066 0.124629
0.520331 0.387883 0.128497
0.537292 0.397527 0.132540
0.556854 0.408045 0.134902
0.579781 0.417381 0.135420
0.605927 0.424083 0.135901
0.633861 0.429219 0.135517
0.661381 0.432015 0.133615
0.689900 0.433351 0.130225
0.721566 0.434722 0.128173
0.756466 0.437080 0.128933
0.788109 0.443291 0.132804
0.818038 0.450930 0.138521
0.839047 0.457812 0.150385
0.856648 0.463519 0.161620
0.866788 0.467684 0.173063
0.872857 0.469361 0.188156
0.079276 0.337543 0.184632
0.090486 0.339370 0.175563
0.104073 0.340753 0.163830
0.121309 0.343792 0.152500
0.150399 0.347870 0.141571
0.203598 0.350725 0.133383
0.272724 0.352983 0.124919
0.332864 0.355064 0.119239
0.375462 0.357467 0.114943
0.404349 0.360431 0.111910
0.424451 0.363575 0.110052
0.440493 0.366399 0.109376
0.455140 0.369503 0.110267
0.468965 0.373915 0.113306
0.482391 0.379396 0.117759
0.496276 0.385793 0.122118
0.511279 0.393431 0.125625
0.527450 0.402107 0.128671
0.544976 0.411767 0.131551
0.564518 0.422861 0.133013
0.586425 0.434422 0.132847
0.611472 0.444062 0.132707
0.640373 0.450842 0.132076
0.670684 0.454740 0.129881
0.700441 0.455561 0.126334
0.732127 0.455603 0.124463
0.767161 0.456089 0.125811
0.798093 0.459088 0.131062
0.826810 0.465520 0.137080
0.844998 0.470729 0.149179
0.860458 0.475729 0.161347
0.869072 0.479129 0.174312
0.874309 0.480133 0.191627
0.085288 0.356958 0.207548
0.096800 0.359018 0.200443
0.110915 0.359451 0.186453
0.128476 0.360992 0.171299
0.154969 0.365125 0.158804
0.194659 0.369594 0.148583
0.258720 0.372720 0.138104
0.324504 0.374429 0.128632
0.371942 0.376266 0.121064
0.404674 0.379081 0.116825
0.429222 0.382804 0.113596
0.447534 0.386053 0.111720
0.462457 0.388437 0.111758
0.476190 0.391280 0.113743
0.489688 0.395872 0.117438
0.503761 0.401899 0.121469
0.519046 0.408989 0.124457
0.535554 0.417284 0.126714
0.553360 0.426864 0.128775
0.572906 0.437951 0.129711
0.594252 0.450272 0.129265
0.617976 0.461926 0.128717
0.645887 0.470466 0.127976
0.677931 0.474981 0.125768
0.710506 0.475741 0.122499
0.742896 0.475344 0.120944
0.777722 0.474808 0.122999
0.807654 0.475554 0.129201
0.834794 0.479459 0.136134
0.850489 0.483202 0.148430
0.864136 0.487380 0.160883
0.871143 0.489959 0.175317
0.875942 0.490630 0.193732
0.089865 0.376384 0.234623
0.101645 0.378801 0.227797
0.116636 0.379056 0.213660
0.134759 0.379004 0.192545
0.161436 0.382443 0.178321
0.193113 0.387695 0.166652
0.245425 0.392094 0.154325
0.309419 0.394038 0.142457
0.364310 0.394981 0.130168
0.402345 0.397063 0.123121
0.430597 0.401181 0.117968
0.452807 0.405617 0.113861
0.469738 0.408627 0.112621
0.483888 0.410771 0.113744
0.497564 0.413906 0.116153
0.511872 0.419086 0.119230
0.527453 0.425846 0.121629
0.544309 0.433635 0.123117
0.562381 0.442863 0.124490
0.581915 0.453819 0.125264
0.602959 0.466013 0.125028
0.625801 0.478317 0.124676
0.651979 0.488523 0.124305
0.683740 0.494181 0.122661
0.719107 0.495069 0.119949
0.753397 0.494555 0.118909
0.787989 0.493398 0.121334
0.817195 0.492886 0.127603
0.842266 0.493889 0.135396
0.855862 0.496192 0.148722
0.867060 0.499317 0.161530
0.873336 0.501501 0.176483
0.877613 0.501194 0.195789
0.093831 0.395281 0.263441
0.106539 0.398206 0.255222
0.122330 0.398745 0.241550
0.142159 0.397574 0.213585
0.168674 0.400187 0.197141
0.198742 0.405470 0.184853
0.239191 0.411114 0.171275
0.292417 0.414259 0.158195
0.349433 0.414825 0.142564
0.395522 0.415388 0.131340
0.428430 0.418811 0.123578
0.454133 0.424043 0.117267
0.474905 0.428492 0.114049
0.491176 0.431379 0.114157
0.505327 0.433784 0.115727
0.519710 0.437453 0.117660
0.535415 0.443274 0.119246
0.552565 0.450643 0.120150
0.571066 0.459345 0.120810
0.590866 0.469924 0.121146
0.611967 0.481775 0.120892
0.634807 0.493676 0.120494
0.660141 0.504626 0.120087
0.690365 0.512030 0.118993
0.726271 0.513710 0.116793
0.762016 0.513133 0.116014
0.796201 0.511690 0.118311
0.825230 0.510396 0.124011
0.848942 0.509642 0.132171
0.859988 0.509787 0.148322
0.869472 0.512037 0.162112
0.875220 0.513882 0.177970
0.879151 0.512386 0.198226
0.097489 0.413900 0.292400
0.111475 0.417125 0.282706
0.127703 0.417867 0.268934
0.150573 0.416122 0.234788
0.177114 0.417911 0.215361
0.207451 0.422837 0.202890
0.242255 0.428893 0.189270
0.282165 0.434386 0.176384
0.332030 0.436623 0.160629
0.382160 0.436316 0.146493
0.421425 0.437285 0.134084
0.450728 0.441270 0.124577
0.475054 0.446547 0.119113
0.496033 0.451487 0.116170
0.513019 0.455063 0.115614
0.527967 0.458058 0.116501
0.543646 0.462037 0.117121
0.560882 0.468065 0.117343
0.579662 0.476202 0.117612
0.599666 0.486122 0.117896
0.620993 0.497336 0.117690
0.644622 0.508312 0.116577
0.670531 0.518672 0.115310
0.699437 0.527362 0.114639
0.733544 0.530696 0.113504
0.768880 0.530549 0.112934
0.802109 0.529178 0.115042
0.831039 0.527685 0.120179
0.854446 0.526333 0.128146
0.863570 0.524748 0.146663
0.871852 0.525487 0.162248
0.876962 0.526713 0.179573
0.880645 0.524435 0.200939
0.100442 0.433202 0.322691
0.115354 0.436273 0.312743
0.132343 0.437173 0.297929
0.158276 0.434964 0.259214
0.186326 0.435852 0.234551
0.217111 0.440308 0.221605
0.250549 0.446004 0.208762
0.282651 0.453395 0.196755
0.320874 0.459137 0.182963
0.365814 0.460456 0.168879
0.407827 0.459383 0.152205
0.442193 0.460075 0.137341
0.470122 0.463825 0.128555
0.495639 0.470113 0.121909
0.518238 0.476229 0.116909
0.536536 0.480520 0.115160
0.552961 0.483473 0.114721
0.570118 0.487197 0.114183
0.588803 0.493772 0.114118
0.608810 0.502955 0.114749
0.630291 0.513239 0.115125
0.654716 0.523113 0.113703
0.681798 0.532166 0.111402
0.710573 0.540624 0.110718
0.742500 0.545514 0.110910
0.775572 0.546825 0.111211
0.807343 0.545886 0.113367
0.835168 0.544858 0.118749
0.858395 0.543613 0.126302
0.866980 0.541779 0.144669
0.874212 0.540133 0.162223
0.878950 0.540106 0.180824
0.882215 0.536781 0.203973
0.103502 0.453375 0.353675
0.118567 0.455920 0.345868
0.136878 0.456907 0.329026
0.165542 0.454415 0.285295
0.196217 0.454528 0.253398
0.228581 0.459229 0.238411
0.261357 0.464826 0.225790
0.291854 0.473126 0.213208
0.322009 0.481733 0.200651
0.356206 0.486563 0.187818
0.393282 0.486908 0.170218
0.430162 0.485469 0.151489
0.462344 0.485315 0.139256
0.490465 0.489184 0.130630
0.517130 0.496065 0.122390
0.541133 0.502394 0.116617
0.561494 0.506332 0.113578
0.579792 0.508906 0.111914
0.598364 0.512940 0.111316
0.618342 0.520282 0.111769
0.640120 0.529435 0.112561
0.665343 0.537711 0.111566
0.693626 0.545051 0.108800
0.722886 0.552383 0.107599
0.753311 0.557867 0.108453
0.783497 0.561413 0.109735
0.813002 0.562079 0.112289
0.839010 0.561957 0.118546
0.861289 0.561507 0.126307
0.869806 0.560280 0.143291
0.876612 0.557202 0.161590
0.881112 0.554545 0.181697
0.884065 0.549834 0.206443
0.109943 0.472363 0.379898
0.123182 0.474909 0.378829
0.141569 0.476254 0.362722
0.173193 0.474064 0.312177
0.206009 0.473338 0.272426
0.241065 0.478901 0.253662
0.274423 0.485023 0.239875
0.305007 0.494685 0.225316
0.333293 0.505092 0.211463
0.359843 0.512883 0.198719
0.387845 0.517405 0.182127
0.420286 0.518200 0.163328
0.453306 0.515977 0.149421
0.482630 0.514494 0.140259
0.509995 0.517027 0.132027
0.537624 0.522669 0.123825
0.564464 0.528088 0.116414
0.587980 0.531762 0.111561
0.608362 0.534597 0.109819
0.628446 0.538857 0.109754
0.650547 0.545546 0.110289
0.676749 0.551736 0.109680
0.706364 0.556447 0.107310
0.735904 0.562378 0.106103
0.765046 0.567609 0.107309
0.792926 0.572685 0.109191
0.819217 0.575982 0.112434
0.843066 0.577626 0.119564
0.863807 0.578664 0.127951
0.872257 0.578501 0.143656
0.879029 0.575778 0.161181
0.883377 0.570813 0.182371
0.886304 0.563955 0.207947
0.120770 0.489200 0.400163
0.130857 0.492680 0.407665
0.146537 0.495196 0.398718
0.179907 0.493706 0.344170
0.214672 0.492242 0.295122
0.252242 0.498242 0.270491
0.287361 0.505179 0.254334
0.318803 0.516136 0.237676
0.347083 0.528439 0.221435
0.371978 0.537917 0.207361
0.394173 0.545617 0.191487
0.418768 0.550960 0.173794
0.446388 0.551803 0.159526
0.473782 0.547788 0.150501
0.500738 0.543784 0.143612
0.528785 0.544182 0.136053
0.559523 0.548495 0.126570
0.590441 0.553570 0.117154
0.616963 0.557077 0.111154
0.639307 0.559337 0.109019
0.661649 0.562405 0.108914
0.688309 0.565676 0.108338
0.718956 0.567530 0.106701
0.748906 0.571195 0.106237
0.776961 0.575703 0.107950
0.802906 0.580893 0.110590
0.826371 0.586118 0.114669
0.847014 0.591185 0.122892
0.866019 0.594436 0.131687
0.874452 0.595928 0.145832
0.881260 0.594123 0.162266
0.885692 0.589154 0.182948
0.888711 0.579562 0.209068
0.133659 0.505043 0.419757
0.141196 0.509796 0.432926
0.153430 0.513780 0.433088
0.183342 0.514140 0.387658
0.219856 0.512941 0.328500
0.260939 0.518972 0.288005
0.298687 0.526875 0.266780
0.332408 0.538840 0.247700
0.361864 0.552737 0.228983
0.386413 0.563024 0.213530
0.406948 0.570212 0.198392
0.426534 0.577224 0.182020
0.447237 0.581773 0.167984
0.469467 0.580407 0.158733
0.493833 0.574578 0.152715
0.521052 0.569854 0.147236
0.551977 0.569853 0.140186
0.586420 0.573382 0.129552
0.620344 0.576613 0.117781
0.648970 0.577965 0.111157
0.673732 0.578612 0.109855
0.700359 0.578532 0.108886
0.730425 0.578317 0.107515
0.760580 0.579944 0.107625
0.788233 0.583323 0.109538
0.812917 0.588182 0.112751
0.834684 0.594263 0.117596
0.852223 0.602681 0.126964
0.868763 0.608563 0.136559
0.876816 0.611901 0.149399
0.883279 0.611166 0.165310
0.887848 0.607181 0.185013
0.890966 0.597038 0.210869
0.149164 0.519118 0.437902
0.154085 0.525562 0.455198
0.163946 0.531176 0.461154
0.186016 0.534753 0.436238
0.220131 0.535371 0.377232
0.265164 0.540551 0.309611
0.306796 0.549755 0.278109
0.343737 0.563096 0.254961
0.376232 0.578769 0.232714
0.401591 0.589372 0.216013
0.420897 0.594859 0.202262
0.438596 0.599872 0.187763
0.456569 0.604727 0.173976
0.474417 0.605911 0.164013
0.493762 0.602798 0.157428
0.517459 0.598548 0.152050
0.547037 0.595676 0.147254
0.581423 0.595107 0.139650
0.617804 0.595593 0.127781
0.652561 0.595247 0.118568
0.683540 0.593915 0.115072
0.712074 0.591540 0.112637
0.740448 0.589510 0.110933
0.769758 0.589856 0.110986
0.797326 0.592020 0.112700
0.822049 0.596120 0.115901
0.842965 0.602346 0.121000
0.858784 0.611845 0.130437
0.872739 0.619770 0.141091
0.879386 0.624681 0.154704
0.885079 0.625239 0.171017
0.889698 0.622267 0.190620
0.892953 0.613644 0.215219
0.165287 0.532729 0.452744
0.169422 0.539910 0.473435
0.177083 0.547537 0.483809
0.194777 0.552639 0.467121
0.222368 0.556504 0.421217
0.265844 0.560041 0.336322
0.310920 0.570477 0.293937
0.349294 0.584160 0.266001
0.383259 0.600789 0.240113
0.410776 0.612537 0.221156
0.431301 0.617888 0.207298
0.448546 0.621202 0.194259
0.466210 0.625363 0.181156
0.483827 0.627575 0.171098
0.500237 0.626720 0.164210
0.518658 0.625244 0.157875
0.544246 0.623827 0.152812
0.576736 0.621777 0.147811
0.611876 0.619739 0.139411
0.647759 0.617803 0.130987
0.684212 0.613779 0.124860
0.718392 0.608018 0.118643
0.747789 0.604397 0.115730
0.776113 0.602764 0.115468
0.803920 0.603274 0.116850
0.829489 0.606072 0.119985
0.850572 0.611604 0.125044
0.864816 0.621436 0.134039
0.876753 0.630142 0.145295
0.881634 0.636518 0.160635
0.886455 0.637931 0.178546
0.891046 0.635999 0.198900
0.894548 0.629419 0.222435
0.180852 0.545960 0.461392
0.184934 0.553854 0.489398
0.191853 0.562484 0.503404
0.204449 0.569196 0.490073
0.229363 0.574773 0.446622
0.268284 0.578484 0.357339
0.311638 0.588327 0.312669
0.348806 0.601398 0.280368
0.380737 0.617502 0.250540
0.407841 0.628775 0.230280
0.430174 0.633490 0.216354
0.449390 0.635873 0.203631
0.468697 0.640392 0.190297
0.488063 0.643783 0.180452
0.505906 0.644019 0.174499
0.523201 0.644182 0.168483
0.545232 0.645222 0.163585
0.574183 0.645258 0.159093
0.606914 0.643782 0.151490
0.641858 0.641059 0.143714
0.679477 0.635294 0.136494
0.716977 0.627392 0.127761
0.749850 0.622572 0.122715
0.779656 0.619367 0.121336
0.808564 0.616929 0.121782
0.834447 0.618617 0.124912
0.856394 0.622673 0.130141
0.870536 0.632076 0.138688
0.880264 0.641231 0.150388
0.883894 0.648704 0.166870
0.887023 0.651613 0.187396
0.891131 0.651111 0.209296
0.895172 0.646810 0.233169
0.193724 0.560720 0.468997
0.198481 0.568650 0.501140
0.206380 0.577131 0.521304
0.216090 0.584695 0.513044
0.237221 0.591788 0.473783
0.271074 0.595785 0.390153
0.311326 0.604087 0.338238
0.348333 0.616891 0.302446
0.378930 0.632744 0.268809
0.403791 0.643464 0.245274
0.425682 0.648067 0.228895
0.446220 0.649985 0.214544
0.467327 0.654324 0.199961
0.487891 0.657999 0.189327
0.507119 0.658860 0.184007
0.526181 0.659794 0.179585
0.548635 0.661714 0.175827
0.575230 0.662988 0.171742
0.604826 0.662675 0.164178
0.638629 0.660267 0.156347
0.675959 0.654205 0.149658
0.712986 0.646097 0.141655
0.746829 0.640852 0.135467
0.778345 0.636717 0.131598
0.808036 0.633742 0.130975
0.833553 0.634631 0.133721
0.855802 0.638095 0.138475
0.872230 0.645852 0.145261
0.882093 0.654481 0.157016
0.885208 0.662366 0.174204
0.887661 0.665725 0.196338
0.890663 0.666657 0.220734
0.895183 0.663718 0.244626
0.203068 0.577304 0.475910
0.209513 0.583884 0.509521
0.218023 0.591741 0.534807
0.227583 0.598916 0.540284
0.245581 0.606898 0.512515
0.269228 0.612443 0.455986
0.304755 0.615231 0.388703
0.343090 0.627254 0.341928
0.376893 0.644184 0.302864
0.402462 0.654726 0.276396
0.423578 0.659544 0.254309
0.443546 0.662283 0.233052
0.464657 0.667447 0.214263
0.485283 0.671234 0.201386
0.504259 0.671967 0.194375
0.523654 0.673017 0.189468
0.547042 0.675064 0.186319
0.574172 0.676355 0.183053
0.603217 0.676439 0.176423
0.636679 0.675103 0.169417
0.674568 0.670136 0.163408
0.710266 0.662873 0.156561
0.741410 0.658484 0.151378
