public/LUTs/C-8920-STD.cube
# Copyright: (C) Copyright 2010-2021 by IWLTBAP SAS
# Cannot be resold, shared or otherwise redistributed
# Website: https://luts.iwltbap.com
TITLE "IWLTBAP 8920 (Rec.709, sRGB, DCI-P3)"
LUT_3D_SIZE 5
0.072388 0.049011 0.047089
0.310558 0.077005 0.071914
0.427997 0.102898 0.094267
0.574368 0.153495 0.112762
0.821686 0.291687 0.085205
0.048649 0.249262 0.120287
0.363165 0.268407 0.097222
0.485148 0.331330 0.122790
0.656467 0.362478 0.135946
0.866099 0.427036 0.173262
0.097489 0.413900 0.292400
0.332030 0.436623 0.160629
0.543646 0.462037 0.117121
0.733544 0.530696 0.113504
0.880645 0.524435 0.200939
0.180852 0.545960 0.461392
0.380737 0.617502 0.250540
0.545232 0.645222 0.163585
0.808564 0.616929 0.121782
0.895172 0.646810 0.233169
0.271362 0.696289 0.662231
0.396069 0.726910 0.623692
0.592185 0.714271 0.444915
0.825887 0.733879 0.225673
0.912140 0.741058 0.276123
0.057773 0.112513 0.266717
0.249805 0.130128 0.293120
0.448049 0.183794 0.227638
0.584939 0.236942 0.248395
0.779024 0.338757 0.298892
0.042460 0.205909 0.333457
0.284020 0.326568 0.391626
0.522865 0.403297 0.363888
0.680883 0.422494 0.400407
0.831423 0.452841 0.434036
0.103537 0.401987 0.477760
0.296921 0.498346 0.506844
0.573928 0.512228 0.367809
0.716295 0.537832 0.429788
0.857341 0.535186 0.474651
0.212558 0.598127 0.566628
0.355369 0.677063 0.659617
0.537229 0.653017 0.485049
0.753711 0.659175 0.434223
0.891111 0.677141 0.483828
0.300569 0.701527 0.724717
0.452604 0.764675 0.784921
0.617959 0.769015 0.607563
0.772809 0.802899 0.498859
0.908446 0.805807 0.500014
0.091612 0.115707 0.463247
0.255282 0.128975 0.522211
0.426772 0.161158 0.438559
0.576648 0.259261 0.351300
0.771932 0.372968 0.433720
0.088846 0.262033 0.491214
0.311193 0.386144 0.562374
0.532965 0.434639 0.509223
0.699760 0.467234 0.515992
0.852212 0.474216 0.532782
0.131858 0.384880 0.528979
0.284502 0.474193 0.602768
0.546088 0.564096 0.581897
0.757936 0.576101 0.557406
0.892084 0.580259 0.614604
0.229306 0.530205 0.629095
0.370363 0.637241 0.711697
0.553346 0.705493 0.677658
0.772849 0.716386 0.580434
0.920551 0.725603 0.669982
0.343251 0.701014 0.766587
0.482332 0.743861 0.824284
0.625813 0.801560 0.843479
0.783769 0.849378 0.723238
0.935783 0.858030 0.683697
0.199384 0.197597 0.655524
0.382743 0.190865 0.679389
0.480803 0.228991 0.644796
0.624213 0.300413 0.560725
0.760010 0.395078 0.603466
0.164204 0.363837 0.652615
0.394811 0.409943 0.755865
0.527684 0.400085 0.812059
0.709725 0.435241 0.710782
0.831945 0.480185 0.665815
0.209117 0.445177 0.661089
0.360465 0.519975 0.741674
0.554631 0.599998 0.802515
0.765286 0.589762 0.758923
0.891935 0.604610 0.723808
0.264001 0.515477 0.716401
0.419913 0.618744 0.786845
0.559815 0.675114 0.852761
0.755897 0.784349 0.852413
0.949527 0.797336 0.838786
0.397846 0.661816 0.828811
0.518402 0.733454 0.880975
0.634790 0.787165 0.929806
0.804098 0.879982 0.918157
0.959748 0.907843 0.871794
0.374481 0.348969 0.864594
0.543707 0.281716 0.858762
0.619623 0.304671 0.880021
0.712252 0.370560 0.812447
0.827698 0.414398 0.796295
0.319548 0.485743 0.890188
0.539887 0.507985 0.936224
0.678067 0.447671 0.946913
0.802280 0.458081 0.900316
0.877926 0.489803 0.900669
0.325541 0.521019 0.859673
0.513247 0.634493 0.894794
0.666922 0.671064 0.932860
0.845109 0.601681 0.944499
0.930930 0.637808 0.921361
0.382893 0.609135 0.885452
0.531698 0.689219 0.921212
0.638443 0.750632 0.950449
0.817990 0.844229 0.943999
0.955203 0.815150 0.945413
0.497803 0.712036 0.935608
0.598998 0.770099 0.958283
0.698356 0.826666 0.973351
0.829986 0.894393 0.983589
0.951935 0.957062 0.982574
