public/LUTs/C-9020-STD.cube
# Copyright: (C) Copyright 2010-2021 by IWLTBAP SAS
# Cannot be resold, shared or otherwise redistributed
# Website: https://luts.iwltbap.com
TITLE "IWLTBAP 9020 (Rec.709, sRGB, DCI-P3)"
LUT_3D_SIZE 33
0.072113 0.063843 0.082184
0.093079 0.067219 0.083770
0.116012 0.065661 0.084140
0.138651 0.063654 0.082820
0.160298 0.062489 0.081481
0.180712 0.062090 0.080723
0.200441 0.061973 0.080170
0.219567 0.061976 0.079728
0.237952 0.062073 0.079400
0.255701 0.062260 0.079188
0.272772 0.062533 0.079064
0.289301 0.062900 0.079024
0.305550 0.063270 0.079033
0.321764 0.063672 0.079033
0.338224 0.064066 0.078968
0.355197 0.064389 0.078807
0.372953 0.064613 0.078460
0.391867 0.064652 0.077831
0.412304 0.064447 0.076836
0.434402 0.063998 0.075450
0.458218 0.063264 0.073698
0.483821 0.062242 0.071501
0.511142 0.060993 0.068861
0.540194 0.059447 0.065852
0.570912 0.057581 0.062460
0.603093 0.055512 0.058562
0.636842 0.053281 0.054340
0.672074 0.051589 0.050541
0.708498 0.050916 0.047572
0.746306 0.050037 0.044388
0.785203 0.049219 0.041008
0.825074 0.048171 0.037225
0.863434 0.047150 0.033264
0.074469 0.083410 0.084722
0.094509 0.082876 0.082945
0.116626 0.082979 0.082922
0.138430 0.083093 0.082507
0.159562 0.083604 0.082330
0.179999 0.084039 0.082153
0.199860 0.084593 0.082117
0.219071 0.085218 0.082203
0.237563 0.085894 0.082277
0.255415 0.086584 0.082467
0.272598 0.087369 0.082731
0.289244 0.088160 0.083078
0.305611 0.088978 0.083447
0.321928 0.089826 0.083773
0.338488 0.090636 0.084029
0.355557 0.091317 0.084151
0.373410 0.091903 0.084123
0.392420 0.092383 0.083889
0.412952 0.092756 0.083421
0.435199 0.093026 0.082731
0.459183 0.093226 0.081826
0.484907 0.093400 0.080702
0.512395 0.093313 0.079227
0.541614 0.093071 0.077433
0.572457 0.092638 0.075330
0.604799 0.092105 0.072969
0.638727 0.091514 0.070346
0.674122 0.090809 0.067445
0.710723 0.089946 0.064394
0.748610 0.088953 0.061049
0.787642 0.087933 0.057521
0.827588 0.086896 0.053702
0.865333 0.085748 0.049810
0.077926 0.101729 0.086872
0.096465 0.101841 0.086990
0.115579 0.102451 0.085516
0.137791 0.103671 0.084191
0.159489 0.104634 0.083375
0.180413 0.105365 0.082857
0.200477 0.106171 0.082782
0.219787 0.107020 0.082973
0.238426 0.107974 0.083234
0.256346 0.108917 0.083606
0.273610 0.109936 0.084049
0.290368 0.110997 0.084556
0.306841 0.112049 0.085103
0.323264 0.113100 0.085642
0.339905 0.114112 0.086126
0.357050 0.115086 0.086535
0.374983 0.116008 0.086813
0.394095 0.116780 0.086858
0.414747 0.117430 0.086630
0.437075 0.117941 0.086115
0.461141 0.118238 0.085276
0.486999 0.118370 0.084130
0.514619 0.118313 0.082670
0.543945 0.118159 0.080871
0.574895 0.117843 0.078758
0.607361 0.117357 0.076378
0.641427 0.116671 0.073623
0.676932 0.115815 0.070611
0.713658 0.114882 0.067324
0.751681 0.113818 0.063734
0.790790 0.112525 0.059920
0.830863 0.111198 0.055743
0.867689 0.109799 0.051422
0.081401 0.119685 0.089784
0.099255 0.120141 0.089808
0.117191 0.120695 0.089654
0.135800 0.121584 0.088836
0.157445 0.123975 0.087554
0.178999 0.125728 0.086241
0.199789 0.126965 0.085188
0.219846 0.127940 0.084331
0.239101 0.128820 0.083770
0.257375 0.129765 0.083764
0.274842 0.130806 0.084059
0.291748 0.131883 0.084462
0.308293 0.132957 0.084972
0.324763 0.133983 0.085518
0.341482 0.134988 0.086003
0.358733 0.135974 0.086417
0.376767 0.136934 0.086700
0.395945 0.137756 0.086754
0.416677 0.138396 0.086523
0.439122 0.138924 0.085999
0.463301 0.139290 0.085162
0.489270 0.139466 0.083972
0.516980 0.139477 0.082489
0.546420 0.139322 0.080703
0.577496 0.138956 0.078575
0.610069 0.138511 0.076144
0.644215 0.137956 0.073384
0.679850 0.137116 0.070325
0.716639 0.136238 0.066979
0.754788 0.135168 0.063345
0.793960 0.133859 0.059470
0.834047 0.132695 0.055316
0.869973 0.131168 0.050962
0.084266 0.137595 0.092537
0.102176 0.138210 0.092537
0.119998 0.138815 0.092536
0.137658 0.139455 0.092433
0.155700 0.140441 0.092146
0.176629 0.143327 0.091065
0.197689 0.145793 0.089858
0.217978 0.147616 0.088865
0.237536 0.149043 0.087903
0.256294 0.150253 0.087187
0.274423 0.151344 0.086584
0.291918 0.152387 0.086182
0.308908 0.153430 0.086070
0.325795 0.154436 0.086072
0.342855 0.155414 0.086094
0.360311 0.156353 0.086235
0.378459 0.157256 0.086438
0.397736 0.158077 0.086473
0.418554 0.158761 0.086215
0.441071 0.159301 0.085672
0.465347 0.159642 0.084822
0.491412 0.159814 0.083629
0.519238 0.159864 0.082112
0.548770 0.159688 0.080280
0.579892 0.159411 0.078151
0.612564 0.158997 0.075688
0.646819 0.158398 0.072909
0.682552 0.157594 0.069845
0.719432 0.156714 0.066495
0.757619 0.155678 0.062829
0.796913 0.154481 0.058974
0.837025 0.153275 0.054818
0.872140 0.151998 0.050392
0.087031 0.155108 0.095248
0.105016 0.155840 0.095248
0.122887 0.156576 0.095248
0.140507 0.157245 0.095247
0.157783 0.157926 0.095225
0.175383 0.159105 0.095060
0.195376 0.162076 0.094664
0.215744 0.165035 0.093736
0.235458 0.167380 0.092748
0.254398 0.169280 0.091953
0.272745 0.170877 0.091149
0.290474 0.172292 0.090504
0.307789 0.173557 0.089999
0.325023 0.174710 0.089519
0.342504 0.175715 0.088976
0.360531 0.176587 0.088318
0.379191 0.177422 0.087725
0.398849 0.178179 0.087148
0.420082 0.178755 0.086317
0.442918 0.179210 0.085397
0.467288 0.179561 0.084489
0.493428 0.179743 0.083296
0.521328 0.179780 0.081780
0.550960 0.179619 0.079923
0.582178 0.179375 0.077757
0.614934 0.178948 0.075273
0.649275 0.178402 0.072481
0.685049 0.177545 0.069394
0.722024 0.176673 0.066019
0.760269 0.175709 0.062373
0.799606 0.174565 0.058470
0.839724 0.173378 0.054248
0.874104 0.171981 0.049882
0.089853 0.172314 0.097979
0.107894 0.173138 0.097979
0.125797 0.173972 0.097979
0.143424 0.174766 0.097979
0.160634 0.175514 0.097979
0.177495 0.176265 0.097978
0.194722 0.177545 0.097998
0.213709 0.180384 0.098252
0.233275 0.183584 0.097636
0.252349 0.186358 0.096827
0.270779 0.188640 0.096032
0.288581 0.190586 0.095361
0.306087 0.192267 0.094722
0.323583 0.193730 0.094005
0.341256 0.195050 0.093275
0.359327 0.196226 0.092601
0.378201 0.197234 0.091750
0.398392 0.198036 0.090474
0.420172 0.198612 0.088870
0.443489 0.199010 0.087172
0.468416 0.199227 0.085360
0.495060 0.199277 0.083390
0.523236 0.199254 0.081516
0.553008 0.199119 0.079607
0.584315 0.198840 0.077409
0.617156 0.198434 0.074929
0.651550 0.197837 0.072092
0.687401 0.197031 0.068945
0.724431 0.196124 0.065606
0.762727 0.195198 0.061948
0.802104 0.193957 0.058026
0.842082 0.192767 0.053772
0.875922 0.191359 0.049423
0.092693 0.189155 0.100731
0.110772 0.190064 0.100731
0.128723 0.190999 0.100731
0.146338 0.191858 0.100731
0.163534 0.192725 0.100731
0.180351 0.193521 0.100731
0.196797 0.194327 0.100749
0.213531 0.195636 0.100994
0.231454 0.198278 0.101842
0.250183 0.201571 0.101663
0.268742 0.204625 0.100851
0.286701 0.207211 0.100089
0.304281 0.209420 0.099444
0.321802 0.211358 0.098813
0.339576 0.213081 0.098059
0.357785 0.214578 0.097282
0.376865 0.215856 0.096255
0.397258 0.216896 0.094790
0.419124 0.217709 0.093088
0.442681 0.218311 0.091102
0.468054 0.218630 0.088704
0.495178 0.218680 0.085954
0.524016 0.218544 0.083010
0.554402 0.218259 0.080129
0.586182 0.217852 0.077267
0.619224 0.217372 0.074560
0.653698 0.216799 0.071706
0.689603 0.216018 0.068582
0.726679 0.215101 0.065216
0.765052 0.214202 0.061529
0.804464 0.213060 0.057608
0.844292 0.211806 0.053353
0.877635 0.210362 0.048949
0.095520 0.205480 0.103476
0.113652 0.206518 0.103476
0.131611 0.207550 0.103476
0.149215 0.208501 0.103476
0.166399 0.209445 0.103476
0.183210 0.210350 0.103476
0.199609 0.211164 0.103476
0.215663 0.212007 0.103517
0.231777 0.213295 0.103977
0.248912 0.215823 0.105095
0.266777 0.219044 0.105385
0.284727 0.222255 0.104844
0.302431 0.225093 0.104176
0.320017 0.227540 0.103523
0.337825 0.229709 0.102790
0.356198 0.231618 0.101904
0.375431 0.233254 0.100755
0.395808 0.234610 0.099366
0.417727 0.235744 0.097688
0.441460 0.236644 0.095578
0.467017 0.237202 0.093009
0.494442 0.237464 0.089936
0.523729 0.237460 0.086425
0.554643 0.237208 0.082670
0.586940 0.236771 0.078898
0.620671 0.236093 0.075051
0.655563 0.235434 0.071567
0.691648 0.234607 0.068255
0.728779 0.233746 0.064836
0.767207 0.232779 0.061149
0.806615 0.231732 0.057185
0.846333 0.230545 0.052959
0.879221 0.229125 0.048538
0.098305 0.221384 0.106206
0.116490 0.222498 0.106206
0.134435 0.223624 0.106206
0.152055 0.224685 0.106206
0.169230 0.225689 0.106206
0.186051 0.226663 0.106206
0.202441 0.227561 0.106206
0.218405 0.228442 0.106206
0.233912 0.229282 0.106262
0.249484 0.230564 0.106827
0.265943 0.232981 0.108161
0.283053 0.236077 0.108988
0.300499 0.239302 0.108824
0.318127 0.242303 0.108191
0.336048 0.244979 0.107398
0.354549 0.247360 0.106456
0.373888 0.249435 0.105263
0.394314 0.251198 0.103894
0.416303 0.252702 0.102216
0.440178 0.253946 0.100013
0.465867 0.254852 0.097376
0.493366 0.255453 0.094296
0.522729 0.255799 0.090790
0.553965 0.255765 0.086718
0.586665 0.255418 0.082396
0.620884 0.254808 0.077778
0.656629 0.254005 0.072884
0.693338 0.253086 0.068415
0.730688 0.252215 0.064660
0.769234 0.251281 0.060779
0.808701 0.250239 0.056823
0.848265 0.249054 0.052562
0.880730 0.247749 0.048154
0.101114 0.236853 0.108936
0.119320 0.238086 0.108936
0.137287 0.239287 0.108936
0.154887 0.240457 0.108936
0.172001 0.241541 0.108936
0.188797 0.242579 0.108936
0.205200 0.243554 0.108936
0.221129 0.244496 0.108936
0.236571 0.245384 0.108936
0.251609 0.246230 0.109000
0.266735 0.247529 0.109641
0.282561 0.249814 0.111195
0.298977 0.252686 0.112602
0.316199 0.255886 0.112753
0.334194 0.259085 0.111996
0.352820 0.262001 0.110992
0.372214 0.264579 0.109819
0.392803 0.266840 0.108340
0.414909 0.268796 0.106603
0.438764 0.270456 0.104501
0.464556 0.271779 0.101824
0.492118 0.272743 0.098763
0.521577 0.273460 0.095247
0.552951 0.273789 0.091134
0.585755 0.273717 0.086763
0.620127 0.273386 0.081993
0.656144 0.272744 0.076700
0.693521 0.271901 0.071183
0.731644 0.270962 0.066062
0.770981 0.269857 0.060845
0.810684 0.268788 0.056550
0.850122 0.267646 0.052197
0.882180 0.266439 0.047759
0.103931 0.252022 0.111650
0.122158 0.253381 0.111650
0.140112 0.254665 0.111650
0.157662 0.255889 0.111650
0.174766 0.257072 0.111650
0.191563 0.258193 0.111650
0.207924 0.259250 0.111650
0.223797 0.260231 0.111650
0.239214 0.261178 0.111650
0.254193 0.262050 0.111650
0.268833 0.262927 0.111720
0.283536 0.264211 0.112425
0.298917 0.266362 0.114185
0.315136 0.269141 0.115867
0.332476 0.272351 0.116263
0.350966 0.275709 0.115588
0.370387 0.278848 0.114458
0.391119 0.281663 0.112882
0.413420 0.284132 0.111003
0.437345 0.286267 0.108894
0.463150 0.288070 0.106300
0.490776 0.289479 0.103284
0.520387 0.290577 0.099663
0.551787 0.291320 0.095601
0.584604 0.291660 0.091334
0.619101 0.291681 0.086488
0.655317 0.291374 0.081061
0.692860 0.290811 0.075416
0.731333 0.290045 0.069733
0.771361 0.288927 0.063387
0.811786 0.287831 0.057743
0.851817 0.286579 0.052047
0.883605 0.285391 0.047392
0.106720 0.267074 0.114334
0.124969 0.268552 0.114334
0.142913 0.269918 0.114334
0.160437 0.271204 0.114334
0.177527 0.272456 0.114334
0.194289 0.273649 0.114334
0.210586 0.274766 0.114334
0.226441 0.275803 0.114334
0.241840 0.276797 0.114334
0.256779 0.277728 0.114334
0.271345 0.278612 0.114334
0.285607 0.279485 0.114412
0.300094 0.280788 0.115145
0.315395 0.282903 0.117000
0.331746 0.285664 0.118866
0.349501 0.288935 0.119479
0.368646 0.292421 0.118916
0.389295 0.295762 0.117546
0.411675 0.298823 0.115649
0.435771 0.301518 0.113447
0.461639 0.303834 0.110886
0.489342 0.305782 0.107869
0.519076 0.307368 0.104194
0.550457 0.308578 0.100241
0.583413 0.309397 0.095930
0.618059 0.309878 0.091042
0.654299 0.309945 0.085692
0.691755 0.309846 0.080277
0.730442 0.309350 0.074393
0.770704 0.308548 0.067777
0.811574 0.307546 0.061311
0.852485 0.306328 0.054153
0.884486 0.305230 0.048414
0.109525 0.282254 0.117026
0.127774 0.283799 0.117026
0.145692 0.285248 0.117026
0.163187 0.286635 0.117026
0.180248 0.287939 0.117026
0.196962 0.289179 0.117026
0.213199 0.290351 0.117026
0.229070 0.291463 0.117026
0.244442 0.292504 0.117026
0.259341 0.293481 0.117026
0.273858 0.294404 0.117026
0.288072 0.295276 0.117026
0.302164 0.296167 0.117109
0.316671 0.297508 0.117871
0.332203 0.299651 0.119740
0.349029 0.302490 0.121699
0.367313 0.305783 0.122612
0.387488 0.309348 0.122126
0.409781 0.312962 0.120473
0.433956 0.316309 0.118270
0.459901 0.319241 0.115722
0.487777 0.321829 0.112596
0.517585 0.324012 0.108931
0.549040 0.325770 0.104995
0.582107 0.327136 0.100677
0.616921 0.328135 0.095715
0.653203 0.328725 0.090456
0.690717 0.329043 0.085068
0.729424 0.328927 0.079263
0.769689 0.328613 0.072786
0.810791 0.327932 0.066101
0.851878 0.327080 0.058757
0.884468 0.326103 0.051829
0.112339 0.297805 0.119713
0.130598 0.299415 0.119720
0.148459 0.300950 0.119720
0.165919 0.302416 0.119720
0.182966 0.303783 0.119720
0.199621 0.305076 0.119720
0.215844 0.306311 0.119720
0.231681 0.307471 0.119720
0.247036 0.308565 0.119720
0.261877 0.309579 0.119720
0.276338 0.310542 0.119720
0.290553 0.311458 0.119720
0.304634 0.312340 0.119720
0.318771 0.313266 0.119807
0.333544 0.314654 0.120577
0.349560 0.316866 0.122456
0.367001 0.319761 0.124577
0.386193 0.323074 0.125772
0.407860 0.326872 0.125264
0.432029 0.330888 0.123229
0.458131 0.334557 0.120595
0.486088 0.337821 0.117499
0.515918 0.340647 0.113916
0.547537 0.343050 0.109905
0.580657 0.345038 0.105636
0.615406 0.346626 0.100859
0.651718 0.347796 0.095685
0.689543 0.348597 0.090051
0.728295 0.349033 0.084331
0.768371 0.349250 0.078207
0.809741 0.349017 0.071344
0.850853 0.348605 0.064217
0.883945 0.347952 0.056794
0.115181 0.313988 0.122412
0.133427 0.315662 0.122418
0.151264 0.317284 0.122418
0.168665 0.318813 0.122418
0.185693 0.320260 0.122418
0.202330 0.321612 0.122418
0.218531 0.322898 0.122418
0.234303 0.324110 0.122418
0.249609 0.325251 0.122418
0.264393 0.326299 0.122418
0.278836 0.327299 0.122418
0.293062 0.328261 0.122418
0.307162 0.329188 0.122418
0.321306 0.330097 0.122418
0.335696 0.331068 0.122510
0.350949 0.332514 0.123284
0.367689 0.334824 0.125161
0.386122 0.337806 0.127461
0.406732 0.341316 0.128759
0.430180 0.345452 0.128035
0.456232 0.349812 0.125665
0.484202 0.353829 0.122682
0.514039 0.357394 0.119207
0.545783 0.360565 0.115200
0.579026 0.363247 0.110898
0.613822 0.365494 0.106186
0.650012 0.367316 0.101255
0.687970 0.368736 0.095622
0.727025 0.369705 0.089666
0.766980 0.370531 0.083793
0.808652 0.370866 0.076685
0.849546 0.371044 0.070187
0.883026 0.370897 0.062715
0.118019 0.331029 0.125107
0.136251 0.332787 0.125107
0.154077 0.334490 0.125107
0.171452 0.336089 0.125107
0.188446 0.337598 0.125107
0.205057 0.339015 0.125107
0.221207 0.340368 0.125107
0.236925 0.341628 0.125107
0.252153 0.342811 0.125107
0.266909 0.343899 0.125107
0.281372 0.344936 0.125107
0.295620 0.345935 0.125107
0.309736 0.346901 0.125107
0.323921 0.347857 0.125107
0.338340 0.348811 0.125107
0.353210 0.349821 0.125195
0.369193 0.351348 0.125964
0.387038 0.353839 0.127844
0.406926 0.357050 0.130181
0.429189 0.360807 0.131456
0.454348 0.365254 0.130663
0.482078 0.369937 0.128220
0.511943 0.374373 0.124858
0.543787 0.378405 0.120863
0.577232 0.381907 0.116455
0.612097 0.384912 0.111784
0.648306 0.387476 0.106952
0.686283 0.389639 0.101432
0.725380 0.391288 0.095571
0.765622 0.392692 0.089459
0.807239 0.393735 0.082582
0.848050 0.394570 0.076471
0.881847 0.394900 0.069178
0.120836 0.349297 0.127751
0.139053 0.351157 0.127765
0.156858 0.352935 0.127765
0.174244 0.354608 0.127765
0.191212 0.356167 0.127765
0.207771 0.357647 0.127765
0.223884 0.359059 0.127765
0.239535 0.360362 0.127765
0.254712 0.361596 0.127765
0.269434 0.362727 0.127765
0.283913 0.363810 0.127765
0.298169 0.364843 0.127765
0.312321 0.365860 0.127765
0.326546 0.366852 0.127765
0.341066 0.367843 0.127765
0.356005 0.368832 0.127765
0.371615 0.369914 0.127854
0.388685 0.371600 0.128613
0.407969 0.374314 0.130497
0.429505 0.377801 0.132831
0.453388 0.381857 0.134196
0.480108 0.386600 0.133561
0.509665 0.391704 0.130874
0.541599 0.396701 0.126889
0.575066 0.401129 0.122597
0.609951 0.404983 0.118026
0.646385 0.408387 0.113075
0.684283 0.411324 0.107748
0.723496 0.413849 0.101917
0.763847 0.415906 0.095797
0.805191 0.417655 0.089413
0.846464 0.419123 0.083010
0.880516 0.420071 0.076043
0.123695 0.369226 0.130391
0.141881 0.371174 0.130408
0.159647 0.373014 0.130409
0.177018 0.374745 0.130409
0.193983 0.376383 0.130409
0.210501 0.377925 0.130409
0.226596 0.379360 0.130409
0.242202 0.380718 0.130409
0.257323 0.381991 0.130409
0.272030 0.383180 0.130409
0.286490 0.384309 0.130409
0.300739 0.385388 0.130409
0.314930 0.386448 0.130409
0.329227 0.387477 0.130409
0.343844 0.388504 0.130409
0.358925 0.389550 0.130409
0.374631 0.390617 0.130409
0.391309 0.391790 0.130497
0.409767 0.393605 0.131248
0.430647 0.396562 0.133150
0.453808 0.400376 0.135557
0.479253 0.404726 0.137122
0.507622 0.409791 0.136516
0.539084 0.415444 0.133434
0.572511 0.420885 0.129351
0.607533 0.425696 0.124753
0.644054 0.430028 0.119857
0.681928 0.433775 0.114684
0.721319 0.437156 0.108764
0.761560 0.440055 0.102903
0.803077 0.442512 0.096455
0.844589 0.444698 0.090082
0.879084 0.446355 0.083227
0.126600 0.390974 0.133070
0.144763 0.393004 0.133065
0.162505 0.394922 0.133065
0.179823 0.396709 0.133065
0.196773 0.398411 0.133065
0.213254 0.400017 0.133065
0.229312 0.401501 0.133065
0.244913 0.402903 0.133065
0.260001 0.404209 0.133065
0.274716 0.405454 0.133065
0.289137 0.406630 0.133065
0.303388 0.407749 0.133065
0.317611 0.408841 0.133065
0.331987 0.409906 0.133065
0.346707 0.410978 0.133065
0.361917 0.412073 0.133065
0.377790 0.413189 0.133065
0.394596 0.414332 0.133065
0.412648 0.415586 0.133150
0.432598 0.417545 0.133899
0.455098 0.420800 0.135796
0.479896 0.424943 0.138264
0.506902 0.429570 0.139982
0.536881 0.435007 0.139422
0.569743 0.441025 0.136441
0.604807 0.446917 0.131980
0.641335 0.452235 0.127210
0.679512 0.456958 0.121810
0.718618 0.461201 0.116346
0.758932 0.464934 0.110513
0.800664 0.468246 0.103954
0.842363 0.471094 0.097634
0.877501 0.473518 0.090716
0.129494 0.414570 0.135726
0.147662 0.416685 0.135716
0.165391 0.418701 0.135716
0.182671 0.420562 0.135716
0.199569 0.422307 0.135716
0.216032 0.423966 0.135716
0.232044 0.425523 0.135716
0.247626 0.426971 0.135716
0.262709 0.428321 0.135716
0.277388 0.429601 0.135716
0.291809 0.430816 0.135716
0.306079 0.431972 0.135716
0.320343 0.433106 0.135716
0.334789 0.434206 0.135716
0.349609 0.435326 0.135716
0.364962 0.436463 0.135716
0.381028 0.437614 0.135716
0.398065 0.438802 0.135716
0.416246 0.440035 0.135716
0.435733 0.441394 0.135796
0.457203 0.443527 0.136515
0.481339 0.447098 0.138408
0.507799 0.451551 0.140888
0.536321 0.456454 0.142793
0.567509 0.462065 0.142628
0.601800 0.468434 0.139610
0.638421 0.474818 0.134901
0.676622 0.480589 0.129580
0.715593 0.485746 0.124390
0.755986 0.490371 0.118609
0.797595 0.494574 0.112284
0.839626 0.498113 0.105811
0.875429 0.501392 0.099045
0.132409 0.440119 0.138336
0.150587 0.442312 0.138333
0.168230 0.444394 0.138333
0.185550 0.446320 0.138333
0.202402 0.448141 0.138333
0.218833 0.449855 0.138333
0.234839 0.451450 0.138333
0.250366 0.452928 0.138333
0.265400 0.454323 0.138333
0.280054 0.455642 0.138333
0.294481 0.456896 0.138333
0.308783 0.458097 0.138333
0.323118 0.459266 0.138333
0.337644 0.460401 0.138333
0.352569 0.461558 0.138333
0.368063 0.462737 0.138333
0.384331 0.463924 0.138333
0.401596 0.465153 0.138333
0.420001 0.466437 0.138333
0.439632 0.467764 0.138333
0.460610 0.469218 0.138408
0.483570 0.471481 0.139110
0.509320 0.475327 0.141027
0.537387 0.480116 0.143551
0.567234 0.485163 0.145653
0.599643 0.490934 0.145804
0.635367 0.497715 0.142733
0.673084 0.504374 0.138225
0.712249 0.510559 0.132879
0.752893 0.516246 0.126937
0.794499 0.521256 0.120686
0.836516 0.525726 0.114367
0.873097 0.529618 0.107820
0.135386 0.467635 0.140956
0.153496 0.469888 0.140960
0.171114 0.472033 0.140960
0.188442 0.474018 0.140960
0.205265 0.475900 0.140960
0.221662 0.477669 0.140960
0.237639 0.479291 0.140960
0.253103 0.480788 0.140960
0.268120 0.482218 0.140960
0.282789 0.483562 0.140960
0.297208 0.484857 0.140960
0.311534 0.486098 0.140960
0.325926 0.487297 0.140960
0.340528 0.488472 0.140960
0.355581 0.489658 0.140960
0.371251 0.490866 0.140960
0.387695 0.492094 0.140960
0.405161 0.493363 0.140960
0.423820 0.494688 0.140960
0.443704 0.496049 0.140960
0.464818 0.497443 0.140960
0.487234 0.498970 0.141027
0.511631 0.501348 0.141706
0.538975 0.505468 0.143635
0.568496 0.510465 0.146141
0.599662 0.515713 0.148379
0.633222 0.521660 0.148876
0.669690 0.528383 0.146591
0.708712 0.535471 0.141681
0.749371 0.542233 0.135775
0.790920 0.548137 0.129657
0.832920 0.553481 0.123452
0.870569 0.558079 0.116858
0.138336 0.497039 0.143579
0.156419 0.499371 0.143573
0.174072 0.501574 0.143573
0.191322 0.503616 0.143573
0.208116 0.505549 0.143573
0.224481 0.507363 0.143573
0.240437 0.509012 0.143573
0.255886 0.510561 0.143573
0.270885 0.512001 0.143573
0.285532 0.513381 0.143573
0.299964 0.514691 0.143573
0.314331 0.515950 0.143573
0.328773 0.517183 0.143573
0.343472 0.518399 0.143573
0.358640 0.519608 0.143573
0.374464 0.520845 0.143573
0.391096 0.522107 0.143573
0.408783 0.523398 0.143573
0.427677 0.524754 0.143573
0.447796 0.526156 0.143573
0.469172 0.527573 0.143573
0.491739 0.529030 0.143573
0.515558 0.530606 0.143635
0.541335 0.533017 0.144271
0.570102 0.537337 0.146194
0.601018 0.542549 0.148708
0.633456 0.547895 0.151080
0.667827 0.553690 0.152309
0.705240 0.560622 0.150118
0.745169 0.568008 0.145360
0.786709 0.574973 0.139338
0.828542 0.581114 0.133371
0.867298 0.586255 0.126724
0.141298 0.528265 0.146147
0.159328 0.530654 0.146141
0.177009 0.532872 0.146141
0.194194 0.534991 0.146141
0.210998 0.536954 0.146141
0.227345 0.538769 0.146141
0.243236 0.540459 0.146141
0.258641 0.542031 0.146141
0.273627 0.543509 0.146141
0.288251 0.544900 0.146141
0.302673 0.546230 0.146141
0.317087 0.547512 0.146141
0.331618 0.548781 0.146141
0.346439 0.550009 0.146141
0.361741 0.551238 0.146141
0.377678 0.552514 0.146141
0.394482 0.553795 0.146141
0.412408 0.555103 0.146141
0.431551 0.556479 0.146141
0.451933 0.557891 0.146141
0.473532 0.559322 0.146141
0.496285 0.560775 0.146141
0.520249 0.562259 0.146141
0.545448 0.563824 0.146194
0.572454 0.566209 0.146797
0.602609 0.570709 0.148752
0.634894 0.576056 0.151216
0.668500 0.581525 0.153676
0.703508 0.587253 0.155420
0.741330 0.594063 0.154141
0.782143 0.601522 0.149244
0.824019 0.608214 0.142903
0.863582 0.613546 0.136491
0.144249 0.561199 0.148720
0.162273 0.563672 0.148708
0.179894 0.565946 0.148708
0.197078 0.568079 0.148708
0.213859 0.570054 0.148708
0.230187 0.571895 0.148708
0.246026 0.573601 0.148708
0.261368 0.575181 0.148708
0.276345 0.576669 0.148708
0.290983 0.578080 0.148708
0.305430 0.579415 0.148708
0.319841 0.580716 0.148708
0.334447 0.581993 0.148708
0.349396 0.583243 0.148708
0.364815 0.584475 0.148708
0.380902 0.585744 0.148708
0.397914 0.587039 0.148708
0.416045 0.588359 0.148708
0.435418 0.589739 0.148708
0.456077 0.591158 0.148708
0.477898 0.592584 0.148708
0.500835 0.594020 0.148708
0.525013 0.595493 0.148708
0.550312 0.596960 0.148708
0.576691 0.598476 0.148752
0.604883 0.600780 0.149299
0.636401 0.605453 0.151251
0.669902 0.610969 0.153738
0.704412 0.616451 0.156234
0.740077 0.621826 0.158327
0.778023 0.627690 0.157589
0.818123 0.633882 0.153177
0.859210 0.639879 0.146452
0.147202 0.595934 0.151206
0.165246 0.598424 0.151216
0.182792 0.600734 0.151216
0.200007 0.602873 0.151216
0.216710 0.604847 0.151216
0.233029 0.606725 0.151216
0.248779 0.608432 0.151216
0.264092 0.610018 0.151216
0.279049 0.611491 0.151216
0.293677 0.612897 0.151216
0.308147 0.614233 0.151216
0.322618 0.615535 0.151216
0.337262 0.616800 0.151216
0.352281 0.618043 0.151216
0.367835 0.619283 0.151216
0.384132 0.620545 0.151216
0.401354 0.621844 0.151216
0.419712 0.623176 0.151216
0.439337 0.624545 0.151216
0.460188 0.625947 0.151216
0.482213 0.627362 0.151216
0.505433 0.628782 0.151216
0.529819 0.630202 0.151216
