public/LUTs/C-9020-STD.cube
# Copyright: (C) Copyright 2010-2021 by IWLTBAP SAS
# Cannot be resold, shared or otherwise redistributed
# Website: https://luts.iwltbap.com
TITLE "IWLTBAP 9020 (Rec.709, sRGB, DCI-P3)"
LUT_3D_SIZE 5
0.072113 0.063843 0.082184
0.237952 0.062073 0.079400
0.372953 0.064613 0.078460
0.570912 0.057581 0.062460
0.863434 0.047150 0.033264
0.095520 0.205480 0.103476
0.231777 0.213295 0.103977
0.375431 0.233254 0.100755
0.586940 0.236771 0.078898
0.879221 0.229125 0.048538
0.118019 0.331029 0.125107
0.252153 0.342811 0.125107
0.369193 0.351348 0.125964
0.577232 0.381907 0.116455
0.881847 0.394900 0.069178
0.141298 0.528265 0.146147
0.273627 0.543509 0.146141
0.394482 0.553795 0.146141
0.572454 0.566209 0.146797
0.863582 0.613546 0.136491
0.164703 0.831635 0.165985
0.294433 0.844423 0.166016
0.420018 0.848267 0.166016
0.606123 0.848267 0.166016
0.848267 0.848267 0.166016
0.055488 0.062186 0.267586
0.220359 0.095055 0.243698
0.346086 0.109955 0.262722
0.560126 0.081785 0.251601
0.866617 0.034220 0.196310
0.071994 0.209159 0.259067
0.244836 0.228690 0.267828
0.390662 0.231775 0.264266
0.611068 0.223008 0.238277
0.902385 0.211396 0.201984
0.089560 0.344047 0.264183
0.267755 0.363709 0.280748
0.388224 0.373003 0.281323
0.616947 0.395237 0.256123
0.912926 0.399273 0.213462
0.130254 0.537939 0.275747
0.288927 0.580065 0.294629
0.414818 0.590810 0.295041
0.604687 0.602396 0.295460
0.892966 0.641671 0.270284
0.165093 0.836763 0.295138
0.307764 0.875292 0.307764
0.439140 0.876091 0.308174
0.635644 0.876091 0.308174
0.876091 0.876091 0.308174
0.053619 0.073159 0.415974
0.220880 0.083286 0.399203
0.343043 0.123316 0.374791
0.526506 0.137716 0.396364
0.845128 0.084453 0.380104
0.071340 0.228928 0.410207
0.229279 0.225168 0.418568
0.376122 0.260510 0.396725
0.593826 0.254034 0.408164
0.903737 0.205689 0.362651
0.076500 0.341931 0.400182
0.249703 0.368853 0.410556
0.404298 0.393230 0.421098
0.645466 0.396008 0.404418
0.933371 0.397744 0.379136
0.090875 0.553414 0.396977
0.273253 0.590674 0.413753
0.435625 0.626490 0.438382
0.636580 0.636499 0.439846
0.922700 0.665793 0.413529
0.140244 0.848813 0.408613
0.308088 0.876110 0.439089
0.459232 0.900318 0.459233
0.666498 0.901337 0.460135
0.901337 0.901337 0.460135
0.040850 0.081782 0.623889
0.173469 0.049389 0.621189
0.347206 0.103054 0.589712
0.522775 0.155611 0.558038
0.794469 0.171310 0.595769
0.060122 0.246132 0.622352
0.207923 0.226622 0.640392
0.361048 0.231609 0.629401
0.572939 0.294323 0.591505
0.866732 0.289560 0.625734
0.065286 0.364760 0.610303
0.233021 0.394232 0.636335
0.384795 0.396073 0.657386
0.620189 0.440354 0.627002
0.915048 0.425591 0.646249
0.071517 0.557385 0.598713
0.242584 0.601501 0.621372
0.407643 0.640330 0.645081
0.665917 0.666222 0.666494
0.945698 0.665770 0.654433
0.077587 0.866692 0.594969
0.251097 0.889136 0.622909
0.432292 0.908260 0.656162
0.697364 0.925999 0.697364
0.926802 0.926802 0.698410
0.007751 0.086456 0.901215
0.109417 0.013420 0.900976
0.288575 0.044189 0.891261
0.549551 0.133493 0.853084
0.788025 0.193359 0.816132
0.031117 0.250049 0.900214
0.179552 0.231483 0.918725
0.297520 0.187639 0.919125
0.592668 0.267599 0.884872
0.847784 0.331848 0.855412
0.036248 0.393445 0.896164
0.203039 0.415623 0.918246
0.364523 0.408906 0.935178
0.623700 0.415670 0.918333
0.885819 0.483205 0.885819
0.044816 0.587658 0.880781
0.213419 0.633663 0.903800
0.387403 0.672208 0.927510
0.650285 0.678496 0.945698
0.917990 0.711121 0.917990
0.050110 0.873077 0.873077
0.217386 0.894891 0.894891
0.389754 0.916558 0.916558
0.659878 0.935452 0.935452
0.952545 0.952545 0.952545
