public/LUTs/C-9020-STD.cube
# Copyright: (C) Copyright 2010-2021 by IWLTBAP SAS
# Cannot be resold, shared or otherwise redistributed
# Website: https://luts.iwltbap.com
TITLE "IWLTBAP 9020 (Rec.709, sRGB, DCI-P3)"
LUT_3D_SIZE 9
0.072113 0.063843 0.082184
0.160298 0.062489 0.081481
0.237952 0.062073 0.079400
0.305550 0.063270 0.079033
0.372953 0.064613 0.078460
0.458218 0.063264 0.073698
0.570912 0.057581 0.062460
0.708498 0.050916 0.047572
0.863434 0.047150 0.033264
0.084266 0.137595 0.092537
0.155700 0.140441 0.092146
0.237536 0.149043 0.087903
0.308908 0.153430 0.086070
0.378459 0.157256 0.086438
0.465347 0.159642 0.084822
0.579892 0.159411 0.078151
0.719432 0.156714 0.066495
0.872140 0.151998 0.050392
0.095520 0.205480 0.103476
0.166399 0.209445 0.103476
0.231777 0.213295 0.103977
0.302431 0.225093 0.104176
0.375431 0.233254 0.100755
0.467017 0.237202 0.093009
0.586940 0.236771 0.078898
0.728779 0.233746 0.064836
0.879221 0.229125 0.048538
0.106720 0.267074 0.114334
0.177527 0.272456 0.114334
0.241840 0.276797 0.114334
0.300094 0.280788 0.115145
0.368646 0.292421 0.118916
0.461639 0.303834 0.110886
0.583413 0.309397 0.095930
0.730442 0.309350 0.074393
0.884486 0.305230 0.048414
0.118019 0.331029 0.125107
0.188446 0.337598 0.125107
0.252153 0.342811 0.125107
0.309736 0.346901 0.125107
0.369193 0.351348 0.125964
0.454348 0.365254 0.130663
0.577232 0.381907 0.116455
0.725380 0.391288 0.095571
0.881847 0.394900 0.069178
0.129494 0.414570 0.135726
0.199569 0.422307 0.135716
0.262709 0.428321 0.135716
0.320343 0.433106 0.135716
0.381028 0.437614 0.135716
0.457203 0.443527 0.136515
0.567509 0.462065 0.142628
0.715593 0.485746 0.124390
0.875429 0.501392 0.099045
0.141298 0.528265 0.146147
0.210998 0.536954 0.146141
0.273627 0.543509 0.146141
0.331618 0.548781 0.146141
0.394482 0.553795 0.146141
0.473532 0.559322 0.146141
0.572454 0.566209 0.146797
0.703508 0.587253 0.155420
0.863582 0.613546 0.136491
0.153141 0.669909 0.156278
0.222383 0.678767 0.156250
0.284407 0.685231 0.156250
0.342883 0.690390 0.156250
0.408089 0.695269 0.156250
0.490704 0.700466 0.156250
0.591429 0.705121 0.156250
0.706608 0.706608 0.156647
0.848267 0.722401 0.166016
0.164703 0.831635 0.165985
0.233308 0.839236 0.166016
0.294433 0.844423 0.166016
0.353285 0.848050 0.166016
0.420018 0.848267 0.166016
0.504495 0.848267 0.166016
0.606123 0.848267 0.166016
0.722401 0.848267 0.166016
0.848267 0.848267 0.166016
0.059331 0.058504 0.180153
0.150251 0.079914 0.166826
0.221141 0.088567 0.177746
0.293296 0.084205 0.183393
0.365121 0.079494 0.182367
0.455607 0.070519 0.173450
0.572784 0.058257 0.157111
0.710832 0.048131 0.139234
0.865242 0.033861 0.116191
0.071325 0.139416 0.176000
0.162079 0.147935 0.181367
0.240568 0.153284 0.184386
0.312057 0.151157 0.181211
0.382872 0.152020 0.178405
0.473744 0.150664 0.171421
0.592136 0.145866 0.158720
0.734899 0.138008 0.140923
0.884371 0.133150 0.124455
0.079680 0.211786 0.180573
0.174330 0.218981 0.189237
0.241975 0.222609 0.188321
0.313261 0.229083 0.185312
0.386130 0.232647 0.183065
0.478612 0.234525 0.178902
0.598591 0.234132 0.170219
0.742785 0.231398 0.157022
0.890673 0.226499 0.139970
0.093938 0.273332 0.186386
0.186679 0.281347 0.199103
0.250386 0.285870 0.199541
0.308348 0.289997 0.199725
0.381358 0.300873 0.197260
0.478257 0.307170 0.187687
0.603305 0.308290 0.172221
0.750107 0.306671 0.155888
0.896211 0.303603 0.138673
0.110315 0.336179 0.195940
0.197616 0.348210 0.208325
0.260474 0.353585 0.208672
0.317632 0.357645 0.208672
0.378532 0.362212 0.209346
0.470630 0.377283 0.207396
0.597372 0.389905 0.191528
0.748438 0.395582 0.169880
0.899217 0.396449 0.143415
0.128483 0.417894 0.207962
0.208642 0.437037 0.217183
0.270906 0.443324 0.217529
0.328368 0.447978 0.217529
0.390753 0.452507 0.217529
0.470199 0.458528 0.218201
0.586419 0.478431 0.218741
0.738134 0.499441 0.198107
0.892186 0.511639 0.172168
0.141621 0.531501 0.217550
0.219902 0.555682 0.225770
0.281650 0.562528 0.226085
0.339654 0.567559 0.226085
0.404549 0.572477 0.226085
0.486778 0.577879 0.226085
0.588570 0.584475 0.226611
0.722963 0.605683 0.231893
0.878391 0.627758 0.208209
0.153438 0.673259 0.226112
0.231053 0.700426 0.234006
0.292205 0.707065 0.234354
0.350882 0.711803 0.234354
0.418358 0.716379 0.234354
0.503871 0.720861 0.234354
0.606130 0.722266 0.234354
0.722901 0.722901 0.234666
0.863224 0.738660 0.242176
0.164948 0.834587 0.234474
0.241433 0.859645 0.241843
0.301631 0.863031 0.242176
0.360323 0.863224 0.242176
0.429356 0.863224 0.242176
0.516574 0.863224 0.242176
0.620688 0.863224 0.242176
0.738660 0.863224 0.242176
0.863224 0.863224 0.242176
0.055488 0.062186 0.267586
0.149113 0.071004 0.258384
0.220359 0.095055 0.243698
0.279108 0.106422 0.252634
0.346086 0.109955 0.262722
0.438570 0.099482 0.264109
0.560126 0.081785 0.251601
0.707144 0.057742 0.226094
0.866617 0.034220 0.196310
0.068957 0.150053 0.264934
0.152736 0.144474 0.268711
0.234642 0.165612 0.255725
0.295697 0.176711 0.263649
0.370483 0.172672 0.268067
0.468129 0.162128 0.259280
0.593202 0.147277 0.239055
0.737234 0.136488 0.217756
0.886194 0.123797 0.193129
0.071994 0.209159 0.259067
0.164493 0.221244 0.265242
0.244836 0.228690 0.267828
0.313710 0.236052 0.269968
0.390662 0.231775 0.264266
0.487684 0.228059 0.253326
0.611068 0.223008 0.238277
0.757731 0.216200 0.219711
0.902385 0.211396 0.201984
0.081247 0.278033 0.263925
0.173720 0.287493 0.267991
0.255603 0.294763 0.273299
0.317484 0.298008 0.271890
0.392810 0.303607 0.266713
0.491215 0.306398 0.258895
0.616293 0.307297 0.247797
0.764410 0.306203 0.232726
0.907759 0.303339 0.214530
0.089560 0.344047 0.264183
0.186963 0.354307 0.270746
0.267755 0.363709 0.280748
0.325320 0.368198 0.281301
0.388224 0.373003 0.281323
0.486827 0.387022 0.273421
0.616947 0.395237 0.256123
0.769801 0.398331 0.234540
0.912926 0.399273 0.213462
0.107785 0.426895 0.267329
0.205344 0.441191 0.279222
0.278303 0.457260 0.287809
0.336239 0.462667 0.288242
0.400596 0.467228 0.288242
0.483291 0.473329 0.288770
0.605470 0.494064 0.283690
0.759869 0.511778 0.261376
0.907773 0.520468 0.235334
0.130254 0.537939 0.275747
0.220589 0.558632 0.288241
0.288927 0.580065 0.294629
0.347646 0.585959 0.295041
0.414818 0.590810 0.295041
0.500176 0.596065 0.295041
0.604687 0.602396 0.295460
0.742219 0.622728 0.296164
0.892966 0.641671 0.270284
0.153180 0.675990 0.288022
0.231698 0.703396 0.295076
0.299185 0.726800 0.301250
0.358803 0.732381 0.301664
0.428739 0.736499 0.301664
0.516518 0.738611 0.301664
0.620747 0.738671 0.301664
0.739313 0.739313 0.301920
0.876403 0.755618 0.307486
0.165093 0.836763 0.295138
0.241931 0.861648 0.301680
0.307764 0.875292 0.307764
0.367482 0.876091 0.308174
0.439140 0.876091 0.308174
0.529106 0.876091 0.308174
0.635644 0.876091 0.308174
0.755341 0.876091 0.308174
0.876091 0.876091 0.308174
0.054398 0.067547 0.342800
0.138250 0.062972 0.338410
0.225912 0.091435 0.320609
0.281721 0.109247 0.310052
0.339985 0.120293 0.317566
0.421645 0.126535 0.327890
0.544296 0.108702 0.328466
0.693322 0.083685 0.312067
0.860360 0.053524 0.283157
0.068747 0.158950 0.341438
0.146886 0.145083 0.342675
0.233664 0.159290 0.333233
0.296673 0.180759 0.320166
0.357829 0.192134 0.327724
0.452015 0.187572 0.334584
0.580128 0.169488 0.324273
0.732963 0.146032 0.298852
0.887244 0.124587 0.269258
0.071227 0.219168 0.335296
0.163540 0.230104 0.340101
0.236989 0.225601 0.342351
0.309899 0.245347 0.330631
0.376551 0.254403 0.337145
0.479424 0.243519 0.334361
0.610819 0.226821 0.314468
0.760208 0.213822 0.291744
0.904242 0.201383 0.268078
0.074139 0.273563 0.330471
0.167345 0.285621 0.334630
0.248069 0.296943 0.339399
0.319304 0.304229 0.341019
0.396201 0.309423 0.340561
0.500504 0.303406 0.328419
0.628691 0.300093 0.313703
0.778895 0.295238 0.295846
0.918697 0.292905 0.279863
0.083729 0.346696 0.334456
0.175363 0.358965 0.336690
0.256255 0.369728 0.339864
0.330764 0.378774 0.345680
0.398912 0.383596 0.345100
0.502469 0.393254 0.335169
0.633925 0.398502 0.321236
0.785948 0.401615 0.306029
0.924086 0.402969 0.289239
0.089570 0.433496 0.330388
0.187624 0.448759 0.334874
0.272626 0.462142 0.343710
0.343577 0.476511 0.352827
0.410779 0.482130 0.353380
0.496799 0.488354 0.353738
0.624689 0.508751 0.345025
0.781281 0.522621 0.323520
0.922668 0.525960 0.298586
0.111016 0.545954 0.330576
0.208991 0.564829 0.341008
0.289506 0.583012 0.353177
0.355120 0.603059 0.359787
0.425378 0.609106 0.360336
0.513815 0.614193 0.360336
0.620808 0.619946 0.360785
0.761506 0.638677 0.358220
0.907468 0.654853 0.333350
0.136178 0.683837 0.338278
0.231142 0.705594 0.352907
0.299943 0.729653 0.360291
0.366291 0.751232 0.366969
0.439082 0.755138 0.367547
0.529182 0.755353 0.367547
0.635671 0.755353 0.367547
0.756010 0.756010 0.367832
0.889821 0.773242 0.372489
0.162240 0.839851 0.351711
0.242108 0.862669 0.360295
0.308174 0.876091 0.367482
0.374386 0.887686 0.374386
0.449336 0.888652 0.374984
0.542112 0.888652 0.374984
0.650896 0.888652 0.374984
0.772233 0.888652 0.374984
0.888652 0.888652 0.374984
0.053619 0.073159 0.415974
0.125545 0.056587 0.415214
0.220880 0.083286 0.399203
0.289038 0.109192 0.382689
0.343043 0.123316 0.374791
0.416867 0.135262 0.383693
0.526506 0.137716 0.396364
0.676035 0.113711 0.396271
0.845128 0.084453 0.380104
0.068955 0.165434 0.414824
0.143580 0.148470 0.416931
0.221789 0.151525 0.412551
0.300483 0.176610 0.396473
0.360289 0.195287 0.385587
0.439295 0.207476 0.395366
0.562112 0.198236 0.404478
0.715891 0.174934 0.395075
0.878711 0.146891 0.371602
0.071340 0.228928 0.410207
0.162770 0.237166 0.415357
0.229279 0.225168 0.418568
0.306812 0.237599 0.410342
0.376122 0.260510 0.396725
0.462091 0.269907 0.406848
0.593826 0.254034 0.408164
0.750602 0.231107 0.390250
0.903737 0.205689 0.362651
0.073633 0.282191 0.404144
0.165836 0.294992 0.410037
0.245100 0.304945 0.416315
0.310958 0.301387 0.420538
0.390914 0.321534 0.408754
0.486975 0.326363 0.416240
0.623961 0.310000 0.405913
0.780743 0.293295 0.383765
0.920563 0.281758 0.363255
0.076500 0.341931 0.400182
0.169603 0.355751 0.404920
0.249703 0.368853 0.410556
0.322316 0.381963 0.417146
0.404298 0.393230 0.421098
0.511720 0.396539 0.416720
0.645466 0.396008 0.404418
0.798635 0.396574 0.391298
0.933371 0.397744 0.379136
0.083225 0.436687 0.402738
0.174494 0.453949 0.405895
0.255057 0.469324 0.410581
0.332312 0.483467 0.417710
0.420022 0.496764 0.428391
0.511160 0.504001 0.429354
0.644835 0.520894 0.419229
0.802487 0.528603 0.401858
0.934841 0.527231 0.386179
0.090875 0.553414 0.396977
0.189005 0.573035 0.403651
0.273253 0.590674 0.413753
0.352704 0.607458 0.427608
0.435625 0.626490 0.438382
0.527832 0.632587 0.439219
0.636580 0.636499 0.439846
0.781598 0.654157 0.435279
0.922700 0.665793 0.413529
0.114824 0.692400 0.398782
0.211805 0.714236 0.411112
0.294833 0.733465 0.426435
0.367189 0.753891 0.439138
0.448599 0.770853 0.448599
0.542136 0.772221 0.449464
0.650924 0.772221 0.449464
0.772888 0.772888 0.449870
0.904607 0.791873 0.453162
0.140244 0.848813 0.408613
0.234841 0.865083 0.425378
0.308088 0.876110 0.439089
0.374984 0.888652 0.449336
0.459232 0.900318 0.459233
0.555462 0.901337 0.460135
0.666498 0.901337 0.460135
0.789269 0.901337 0.460135
0.901337 0.901337 0.460135
0.049749 0.078058 0.506661
0.111988 0.051898 0.506513
0.204176 0.069882 0.496497
0.284009 0.095660 0.480826
0.352483 0.123103 0.463339
0.420614 0.138538 0.454951
0.518361 0.152165 0.467707
0.653054 0.151727 0.484563
0.823116 0.123649 0.488006
0.066037 0.170381 0.505472
0.138148 0.152177 0.511138
0.201975 0.141506 0.510993
0.288407 0.162892 0.498026
0.367582 0.190770 0.480145
0.442425 0.210995 0.468758
0.545449 0.224785 0.482576
0.692656 0.212589 0.496459
0.862246 0.185456 0.492254
0.068154 0.238364 0.503091
0.158665 0.241600 0.509865
0.219544 0.225256 0.516471
0.286938 0.224030 0.514575
0.379228 0.251794 0.497044
0.462456 0.276703 0.482751
0.571756 0.288078 0.497494
0.727136 0.268741 0.505620
0.888172 0.242359 0.494888
0.070588 0.293002 0.497069
0.161527 0.304962 0.506648
0.239191 0.311212 0.515292
0.298642 0.299512 0.522435
0.386539 0.310622 0.514413
0.481784 0.340047 0.497361
0.599695 0.347004 0.511820
0.760073 0.326419 0.511503
0.912534 0.301864 0.493828
0.073066 0.350355 0.490405
0.164896 0.366358 0.499651
0.243245 0.380672 0.509635
0.315883 0.393506 0.520065
0.394681 0.392359 0.527250
0.502223 0.416458 0.513419
0.631671 0.417871 0.522388
0.794531 0.401014 0.508783
0.934093 0.386256 0.488450
0.076104 0.433037 0.486937
0.168962 0.451786 0.494857
0.248228 0.468875 0.503521
0.321744 0.485464 0.512873
0.408605 0.502567 0.522175
0.522354 0.517979 0.529470
0.659354 0.523366 0.522932
0.813238 0.525422 0.515067
0.940846 0.521458 0.505152
0.077398 0.558722 0.488142
0.169014 0.580469 0.494660
0.249487 0.599820 0.502856
0.327679 0.617705 0.512698
0.423888 0.634375 0.525266
0.540690 0.649308 0.541047
0.652120 0.652023 0.542763
0.803477 0.666515 0.534305
0.938433 0.670144 0.516698
0.088163 0.701907 0.483609
0.185107 0.724593 0.493929
0.267570 0.744502 0.506364
0.347969 0.761660 0.521225
0.445445 0.773727 0.540045
0.554477 0.787983 0.554477
0.666478 0.789300 0.555528
0.789974 0.789973 0.556060
0.920616 0.810341 0.555405
0.111728 0.858901 0.488313
0.205790 0.872133 0.502768
0.285612 0.881561 0.518861
0.365630 0.891040 0.537173
0.459880 0.901405 0.555314
0.568145 0.913086 0.568145
0.682293 0.914059 0.569246
0.806573 0.914059 0.569246
0.914059 0.914059 0.569246
0.040850 0.081782 0.623889
0.091495 0.043292 0.623731
0.173469 0.049389 0.621189
0.262436 0.074747 0.606786
0.347206 0.103054 0.589712
0.434914 0.139266 0.566736
0.522775 0.155611 0.558038
0.642456 0.170872 0.574561
0.794469 0.171310 0.595769
0.058236 0.174062 0.622662
0.129147 0.155589 0.631671
0.180043 0.132616 0.632001
0.259735 0.142724 0.626787
0.356399 0.171016 0.609473
0.455595 0.208265 0.585613
0.549063 0.228405 0.574696
0.673134 0.244169 0.592283
0.835341 0.233137 0.611499
0.060122 0.246132 0.622352
0.150061 0.244644 0.630602
0.207923 0.226622 0.640392
0.262297 0.211543 0.641049
0.361048 0.231609 0.629401
0.473567 0.270396 0.604603
0.572939 0.294323 0.591505
0.701091 0.309231 0.609949
0.866732 0.289560 0.625734
0.062590 0.303687 0.617115
0.152581 0.314066 0.629813
0.229223 0.315270 0.639590
0.286560 0.300811 0.649504
0.362509 0.293490 0.648259
0.489498 0.331180 0.624510
0.595977 0.359529 0.608657
0.730267 0.371697 0.627957
0.891157 0.348922 0.638091
0.065286 0.364760 0.610303
0.156122 0.380355 0.622990
0.233021 0.394232 0.636335
0.306361 0.404131 0.648664
0.384795 0.396073 0.657386
0.501390 0.406686 0.646300
0.620189 0.440354 0.627002
0.763998 0.446704 0.645501
0.915048 0.425591 0.646249
0.068552 0.441456 0.601345
0.160332 0.462248 0.613448
0.238213 0.481374 0.626338
0.312136 0.499794 0.639666
0.402213 0.518476 0.653038
0.515805 0.524473 0.662360
0.645904 0.546223 0.647231
0.797403 0.540979 0.657090
0.935970 0.520864 0.645042
0.071517 0.557385 0.598713
0.164085 0.580634 0.609690
0.242584 0.601501 0.621372
0.316997 0.621186 0.633394
0.407643 0.640330 0.645081
0.525849 0.656081 0.656168
0.665917 0.666222 0.666494
0.818666 0.667134 0.661608
0.945698 0.665770 0.654433
0.066175 0.709651 0.597995
0.157801 0.733824 0.607841
0.237788 0.754542 0.619150
0.316037 0.771478 0.631789
0.413017 0.784172 0.645389
0.539641 0.794918 0.661515
0.681101 0.805483 0.681214
0.807224 0.807193 0.682897
0.937361 0.824543 0.676282
0.077587 0.866692 0.594969
0.172133 0.878843 0.608303
0.251097 0.889136 0.622909
0.330582 0.899166 0.638504
0.432292 0.908260 0.656162
0.563063 0.915685 0.679148
0.697364 0.925999 0.697364
0.823787 0.926802 0.698410
0.926802 0.926802 0.698410
0.026859 0.084500 0.763700
0.063211 0.029617 0.763521
0.142008 0.031788 0.763344
0.225612 0.046369 0.756309
0.324452 0.076753 0.739181
0.433767 0.114491 0.716583
0.542954 0.160888 0.687217
0.647067 0.174117 0.680389
0.784100 0.190811 0.700477
0.045821 0.176563 0.762428
0.116778 0.158611 0.774128
0.152177 0.120392 0.774540
0.225730 0.123042 0.774273
0.328012 0.145356 0.761519
0.450337 0.184046 0.737736
0.568779 0.231793 0.707038
0.676952 0.247145 0.699328
0.816780 0.264112 0.720041
0.047825 0.248614 0.762269
0.137431 0.246721 0.773219
0.194969 0.229242 0.785268
0.235578 0.198948 0.786079
0.328334 0.207202 0.782653
0.463563 0.245852 0.758959
0.591906 0.294936 0.727285
0.703638 0.313036 0.718120
0.845418 0.330088 0.739581
0.049897 0.314232 0.760165
0.139971 0.318658 0.773009
0.215628 0.318706 0.784704
0.273681 0.303799 0.796623
0.337193 0.279929 0.797470
0.473400 0.308272 0.780870
0.613726 0.358440 0.748396
0.729138 0.379727 0.737262
0.868433 0.397471 0.759409
0.052856 0.379157 0.753188
0.143262 0.394354 0.768595
0.219212 0.406686 0.783757
0.294079 0.412359 0.796288
0.374438 0.401533 0.806355
0.477066 0.389346 0.803390
0.634689 0.437767 0.772036
0.755380 0.463759 0.757496
0.888910 0.477350 0.780350
0.056447 0.461618 0.743850
0.147705 0.482206 0.758749
0.224459 0.500980 0.774082
0.299491 0.519100 0.789711
0.393518 0.536019 0.804743
0.507947 0.532202 0.813515
0.648290 0.538049 0.799452
0.778943 0.567885 0.778945
0.909553 0.572300 0.800759
0.060448 0.563288 0.732468
0.152526 0.587406 0.746696
0.229954 0.609543 0.761504
0.305480 0.631001 0.776756
0.399447 0.652003 0.791957
0.519330 0.669118 0.807585
0.659086 0.672762 0.818814
0.801429 0.689119 0.801517
0.932320 0.684051 0.814857
0.062523 0.710658 0.731504
0.155021 0.735722 0.744908
0.232664 0.757387 0.758923
0.307382 0.773399 0.773399
0.400039 0.787315 0.787315
0.520119 0.800298 0.800298
0.663829 0.812371 0.812374
0.823371 0.823562 0.823728
0.949221 0.825314 0.819677
0.050198 0.872310 0.729255
0.141582 0.883795 0.742665
0.218144 0.894815 0.757102
0.295478 0.905570 0.771755
0.396033 0.915470 0.786170
0.525628 0.924150 0.800792
0.679877 0.931455 0.818067
0.840103 0.939169 0.840194
0.939629 0.939629 0.840806
0.007751 0.086456 0.901215
0.027822 0.012027 0.901089
0.109417 0.013420 0.900976
0.183498 0.015599 0.900879
0.288575 0.044189 0.891261
0.416429 0.085745 0.874788
0.549551 0.133493 0.853084
0.672307 0.189264 0.817519
0.788025 0.193359 0.816132
0.028779 0.178432 0.900334
0.101414 0.160843 0.909686
0.120128 0.106183 0.910041
0.194828 0.107675 0.909890
0.288786 0.115942 0.907348
0.428681 0.155580 0.890914
0.572575 0.205156 0.869047
0.701780 0.260652 0.838119
0.819868 0.266227 0.836289
0.031117 0.250049 0.900214
0.121564 0.247987 0.909133
0.179552 0.231483 0.918725
0.205630 0.184717 0.919344
0.297520 0.187639 0.919125
0.437812 0.217752 0.906839
0.592668 0.267599 0.884872
0.728116 0.324498 0.857508
0.847784 0.331848 0.855412
0.033112 0.321271 0.900135
0.124217 0.321487 0.909000
0.199436 0.321939 0.918453
0.260142 0.307775 0.927602
0.311665 0.267390 0.928225
0.443157 0.282699 0.922885
0.610437 0.332845 0.900602
0.753317 0.389891 0.874097
0.869229 0.399649 0.870922
0.036248 0.393445 0.896164
0.127150 0.407989 0.907991
0.203039 0.415623 0.918246
0.279831 0.420119 0.927484
0.364523 0.408906 0.935178
0.451777 0.376748 0.935466
0.623700 0.415670 0.918333
0.778067 0.471983 0.891397
0.885819 0.483205 0.885819
0.040352 0.481610 0.889385
0.131760 0.501628 0.901000
0.207921 0.520052 0.912936
0.284708 0.537790 0.924906
0.383323 0.550119 0.935035
0.500492 0.540831 0.940870
0.621950 0.517432 0.937688
0.796039 0.568403 0.911552
0.901524 0.587565 0.901524
0.044816 0.587658 0.880781
0.136718 0.611619 0.892074
0.213419 0.633663 0.903800
0.290425 0.654489 0.915575
0.387403 0.672208 0.927510
0.510795 0.686731 0.939270
0.650285 0.678496 0.945698
0.805979 0.681116 0.933842
0.917990 0.711121 0.917990
0.048739 0.715512 0.873108
0.141075 0.739293 0.883804
0.217373 0.757098 0.894921
0.293119 0.772779 0.906305
0.389473 0.789747 0.917836
0.512856 0.808339 0.929383
0.658801 0.826669 0.940803
0.817981 0.831894 0.949299
0.935093 0.847116 0.935093
0.050110 0.873077 0.873077
0.141565 0.883800 0.883800
0.217386 0.894891 0.894891
0.293188 0.905968 0.905968
0.389754 0.916558 0.916558
0.513483 0.926335 0.926335
0.659878 0.935452 0.935452
0.821578 0.944134 0.944134
0.952545 0.952545 0.952545
