public/LUTs/Dozoran.cube
# Copyright: (C) Copyright 2010-2018 by IWLTBAP SAS
# Cannot be resold, shared or otherwise redistributed
# Website: https://luts.iwltbap.com
TITLE "IWLTBAP Dozoran (Rec.709, sRGB, DCI-P3)"
LUT_3D_SIZE 9
0.000000 0.000000 0.000000
0.130280 0.047638 0.036041
0.261932 0.087372 0.066986
0.389618 0.118378 0.091095
0.516815 0.142365 0.109619
0.645935 0.159912 0.123199
0.772369 0.171478 0.132080
0.898865 0.176849 0.136230
1.000000 0.176544 0.135986
0.058136 0.097107 0.056824
0.127808 0.092712 0.049500
0.241302 0.125244 0.064789
0.377075 0.162170 0.081940
0.508209 0.191925 0.098938
0.637299 0.215668 0.114502
0.768219 0.233246 0.125824
0.896851 0.244812 0.131653
1.000000 0.250763 0.132141
0.113342 0.197540 0.114655
0.186218 0.189850 0.102997
0.246124 0.181976 0.079987
0.361389 0.218292 0.090759
0.494843 0.253784 0.102478
0.630005 0.282013 0.107971
0.765259 0.304230 0.112457
0.895996 0.321350 0.116577
1.000000 0.332977 0.118744
0.174225 0.303192 0.175354
0.219513 0.294891 0.138306
0.327148 0.273682 0.159729
0.369324 0.283936 0.100006
0.487244 0.323578 0.104095
0.620544 0.357666 0.114838
0.758514 0.383942 0.117432
0.893188 0.404266 0.115295
1.000000 0.418671 0.110260
0.236877 0.416565 0.240540
0.252930 0.399200 0.175140
0.411163 0.414062 0.231110
0.448944 0.358307 0.189728
0.496094 0.398651 0.111847
0.619049 0.440674 0.105652
0.755585 0.472534 0.114441
0.890900 0.496277 0.114777
1.000000 0.514099 0.109863
0.308044 0.540527 0.311920
0.304047 0.520874 0.230103
0.453796 0.539368 0.267487
0.575562 0.501129 0.301605
0.570251 0.459259 0.211670
0.627045 0.524200 0.115387
0.756622 0.568420 0.096191
0.890869 0.596344 0.101532
1.000000 0.616882 0.098969
0.386749 0.677429 0.390900
0.377808 0.661743 0.302460
0.486145 0.667938 0.300476
0.672577 0.675323 0.381165
0.711945 0.580780 0.344147
0.697388 0.575592 0.227234
0.763214 0.659088 0.110413
0.892303 0.705505 0.076080
1.000000 0.727722 0.076355
0.474213 0.830017 0.479004
0.466766 0.821503 0.388306
0.533630 0.820496 0.349762
0.737732 0.832092 0.430603
0.859924 0.776337 0.463226
0.844086 0.683258 0.368927
0.829498 0.704681 0.235748
0.897522 0.801697 0.096222
1.000000 0.849823 0.044586
0.570984 1.000000 0.579315
0.567841 0.999969 0.486053
0.603973 1.000000 0.418213
0.797119 1.000000 0.475586
0.985107 0.990082 0.565674
0.999969 0.855469 0.525482
0.978851 0.801331 0.387695
0.966187 0.843414 0.235962
1.000000 0.947754 0.070953
0.058136 0.119751 0.123993
0.184662 0.096710 0.090027
0.287781 0.106659 0.103027
0.409851 0.134827 0.137909
0.531342 0.155426 0.164215
0.655457 0.170624 0.183746
0.777618 0.179840 0.198273
0.901001 0.183411 0.208344
1.000000 0.181702 0.214233
0.064209 0.116364 0.109711
0.125580 0.122711 0.110779
0.261047 0.136475 0.118896
0.391663 0.168579 0.142883
0.519257 0.196686 0.165833
0.647949 0.218719 0.184113
0.773438 0.235107 0.197632
0.899200 0.245667 0.206665
1.000000 0.250885 0.211456
0.118591 0.196350 0.166290
0.141144 0.203400 0.135071
0.246155 0.193390 0.123352
0.369659 0.217865 0.136505
0.505951 0.254303 0.158783
0.638336 0.283752 0.178467
0.769928 0.306183 0.194641
0.897827 0.322479 0.206329
1.000000 0.333008 0.212982
0.187531 0.303436 0.244659
0.183136 0.303558 0.182434
0.297211 0.300598 0.175568
0.368042 0.282074 0.144379
0.488464 0.315796 0.154205
0.625610 0.349609 0.168915
0.763702 0.378723 0.181793
0.895874 0.401520 0.192139
1.000000 0.417633 0.198792
0.258789 0.419617 0.322754
0.235352 0.414886 0.241028
0.327789 0.421234 0.219604
0.443634 0.378784 0.214233
0.493652 0.391754 0.164734
0.617645 0.432861 0.171234
0.756317 0.461792 0.179657
0.892090 0.486115 0.185028
1.000000 0.506042 0.188324
0.331787 0.545502 0.402679
0.300812 0.536621 0.306824
0.354279 0.537994 0.258423
0.538086 0.532318 0.301239
0.570251 0.464844 0.237030
0.624725 0.515259 0.178192
0.755219 0.562744 0.179138
0.890594 0.588348 0.184265
1.000000 0.607452 0.183777
0.413177 0.682434 0.487671
0.377228 0.672577 0.381836
0.405579 0.670258 0.315430
0.579437 0.681396 0.350983
0.710571 0.610382 0.354156
0.697754 0.573212 0.258179
0.761688 0.649567 0.184204
0.891571 0.701447 0.175018
1.000000 0.723145 0.177094
0.502075 0.833038 0.583008
0.465576 0.826630 0.468781
0.476471 0.823090 0.385040
0.611694 0.830048 0.394196
0.826172 0.805756 0.453094
0.846741 0.699951 0.381378
0.830261 0.699005 0.275543
0.897003 0.792847 0.182709
1.000000 0.846832 0.158569
0.599792 1.000000 0.685089
0.564941 1.000000 0.570251
0.559998 1.000000 0.466553
0.678772 1.000000 0.459229
0.897339 0.997009 0.526642
0.999237 0.890381 0.519623
0.981689 0.811432 0.409515
0.967621 0.836121 0.285950
1.000000 0.939514 0.170074
0.099670 0.228760 0.237335
0.249908 0.246521 0.250977
0.339294 0.155914 0.141998
0.426392 0.155792 0.167175
0.543671 0.170502 0.202942
0.662537 0.182922 0.236603
0.781830 0.188568 0.262146
0.902740 0.188354 0.279877
1.000000 0.185394 0.291870
0.100098 0.208160 0.208344
0.139404 0.222778 0.233246
0.306305 0.184143 0.187531
0.412415 0.184082 0.190613
0.532379 0.208313 0.220764
0.656006 0.227234 0.245239
0.777954 0.240112 0.264526
0.901093 0.249542 0.279205
1.000000 0.253693 0.289917
0.109344 0.209259 0.198151
0.118591 0.216949 0.201874
0.234009 0.237183 0.225006
0.382385 0.244537 0.228455
0.514954 0.267303 0.242737
0.646179 0.288513 0.258484
0.773132 0.308350 0.275299
0.899323 0.324005 0.289429
0.999969 0.334290 0.299286
0.175171 0.298004 0.261505
0.179321 0.301239 0.248077
0.239502 0.324341 0.231262
0.372803 0.310211 0.224762
0.497192 0.328064 0.234924
0.633636 0.361176 0.256775
0.768402 0.386444 0.273651
0.897614 0.405090 0.286621
0.999969 0.419067 0.296967
0.255890 0.413635 0.352722
0.247894 0.415649 0.322540
0.278503 0.429321 0.271271
0.418243 0.427826 0.265747
0.496094 0.397705 0.234894
0.620178 0.430450 0.246582
0.760254 0.463257 0.263641
0.894562 0.489471 0.277344
1.000000 0.509155 0.287018
0.333252 0.538361 0.450317
0.317810 0.540649 0.402863
0.323669 0.541718 0.324341
0.451721 0.559326 0.312042
0.572266 0.505646 0.299103
0.624695 0.513306 0.257233
0.754761 0.554779 0.263519
0.891144 0.582733 0.273315
1.000000 0.604797 0.280273
0.418823 0.676575 0.556183
0.396729 0.679382 0.487274
0.388794 0.677094 0.395172
0.484833 0.683258 0.362000
0.672516 0.673370 0.398346
0.701935 0.594391 0.320679
0.761230 0.645447 0.275818
0.890778 0.692932 0.274109
1.000000 0.715668 0.277924
0.512573 0.830566 0.663422
0.485260 0.832153 0.581879
0.470154 0.830750 0.482544
0.520966 0.829590 0.415558
0.727722 0.835632 0.461487
0.848145 0.762543 0.447235
0.833710 0.706787 0.340302
0.897003 0.787140 0.284943
1.000000 0.839478 0.273621
0.614685 0.999939 0.775940
0.584381 1.000000 0.685394
0.558929 1.000000 0.578308
0.591553 1.000000 0.494049
0.758911 0.999939 0.508942
0.986786 0.973511 0.571106
0.987213 0.848114 0.464569
0.971283 0.835632 0.354675
1.000000 0.931396 0.280457
0.136475 0.334259 0.346649
0.205200 0.378937 0.404327
0.462830 0.283966 0.270874
0.477753 0.215149 0.196564
0.559998 0.204163 0.234924
0.669434 0.202789 0.269806
0.785370 0.205597 0.308441
0.904236 0.203522 0.340149
1.000000 0.195953 0.364685
0.139954 0.315430 0.317383
0.152893 0.333923 0.349945
0.368378 0.332642 0.356049
0.470062 0.226196 0.215149
0.553925 0.225067 0.246094
0.666260 0.242584 0.288300
0.783234 0.254974 0.321838
0.903015 0.261719 0.348511
0.999969 0.262299 0.368225
0.140564 0.298889 0.297272
0.141144 0.307281 0.307770
0.225250 0.320953 0.338013
0.415314 0.287872 0.303772
0.528259 0.282410 0.299835
0.654388 0.300232 0.323364
0.777710 0.316162 0.345367
0.901093 0.328247 0.364380
0.999969 0.335480 0.378967
0.155823 0.303894 0.287994
0.155548 0.305725 0.287872
0.191803 0.327362 0.304260
0.349518 0.354126 0.340790
0.505798 0.360809 0.346893
0.639954 0.379639 0.357361
0.771332 0.395172 0.367432
0.898743 0.408661 0.377625
0.999969 0.421204 0.389130
0.227356 0.404480 0.359741
0.229431 0.405609 0.351807
0.256348 0.419922 0.346649
0.351227 0.450073 0.342468
0.499329 0.433624 0.340637
0.626373 0.446686 0.347656
0.764618 0.476410 0.366608
0.896454 0.498566 0.381500
1.000000 0.514252 0.392120
0.322754 0.534912 0.463745
0.318756 0.536621 0.446167
0.332428 0.543854 0.422729
0.379425 0.563202 0.370453
0.550232 0.560730 0.374176
0.627991 0.520966 0.339905
0.756134 0.552704 0.353943
0.892639 0.584442 0.372101
1.000000 0.608154 0.385681
0.416626 0.674988 0.578033
0.405304 0.675415 0.552185
0.406982 0.678497 0.506683
0.438202 0.689392 0.431793
0.573975 0.702026 0.409027
0.708466 0.643188 0.398376
0.761658 0.638458 0.359131
0.890228 0.682678 0.370483
1.000000 0.710266 0.381592
0.513580 0.828735 0.700989
0.499725 0.829285 0.665497
0.486877 0.829681 0.594879
0.500732 0.831635 0.502075
0.607574 0.841339 0.456940
0.808929 0.821289 0.495972
0.843933 0.731750 0.416687
0.897278 0.776154 0.380280
1.000000 0.827026 0.382935
0.620605 0.999969 0.836578
0.601624 1.000000 0.783813
0.576874 1.000000 0.694672
0.578064 1.000000 0.584259
0.680023 1.000000 0.541260
0.868439 0.998657 0.565247
0.989685 0.911163 0.545746
0.977844 0.850311 0.439484
1.000000 0.919556 0.391022
0.177277 0.441650 0.457825
0.176086 0.469543 0.510590
0.503540 0.486542 0.492157
0.594727 0.304291 0.279999
0.602905 0.271423 0.248535
0.683807 0.250854 0.302490
0.790863 0.235260 0.341125
0.905975 0.226807 0.383270
1.000000 0.217285 0.421753
0.181335 0.423279 0.428040
0.176575 0.440399 0.461212
0.332550 0.469147 0.511444
0.578369 0.369995 0.379486
0.600067 0.267914 0.242615
0.679688 0.263977 0.299744
0.789642 0.273071 0.353699
0.905487 0.278229 0.396423
0.999969 0.278351 0.431152
0.184906 0.410217 0.409973
0.179077 0.417053 0.420990
0.222229 0.434570 0.456421
0.471161 0.424194 0.466339
0.580902 0.317749 0.321960
0.670166 0.311554 0.344513
0.784332 0.330261 0.389832
0.903473 0.342804 0.424561
0.999969 0.349182 0.451233
0.185577 0.394379 0.390381
0.179565 0.398254 0.394714
0.197418 0.411957 0.411713
0.325409 0.430267 0.449036
0.529266 0.399811 0.422211
0.648712 0.392151 0.419250
0.775238 0.405975 0.438873
0.900665 0.416046 0.455170
1.000000 0.425476 0.472198
0.201263 0.404236 0.383545
0.199036 0.403961 0.382263
0.211731 0.416290 0.388824
0.282104 0.445465 0.416565
0.470062 0.478363 0.466400
0.631165 0.481018 0.468597
0.768097 0.496948 0.477081
0.897949 0.510437 0.485229
1.000000 0.520905 0.493134
0.284973 0.519562 0.465851
0.284821 0.520630 0.460175
0.304077 0.527710 0.461334
0.343567 0.551361 0.457672
0.469208 0.580383 0.463593
0.628387 0.560516 0.464722
0.759521 0.570526 0.468933
0.894379 0.597534 0.485260
1.000000 0.616577 0.498291
0.394257 0.667816 0.587921
0.395538 0.671570 0.575470
0.405304 0.674408 0.564484
0.422943 0.684662 0.530548
0.492706 0.701660 0.484131
0.676727 0.699249 0.492950
0.764679 0.648895 0.455688
0.890564 0.678955 0.469910
1.000000 0.709412 0.488068
0.506226 0.827301 0.716064
0.498352 0.828461 0.695679
0.496552 0.829346 0.668396
0.514648 0.833557 0.626526
0.548676 0.841370 0.541840
0.721283 0.846741 0.537018
0.851776 0.786865 0.513275
0.898682 0.768768 0.471558
1.000000 0.813965 0.486877
0.618225 1.000000 0.854980
0.606171 1.000000 0.828400
0.595490 1.000000 0.791107
0.605377 1.000000 0.725647
0.638641 1.000000 0.630493
0.728729 1.000000 0.560577
0.967010 0.977509 0.610840
0.986816 0.879639 0.528503
1.000000 0.899841 0.486450
0.222412 0.555481 0.577820
0.196594 0.569305 0.617950
0.404236 0.619293 0.656250
0.709686 0.481750 0.467651
0.709534 0.340393 0.307892
0.719818 0.324249 0.297150
0.801331 0.294617 0.367615
0.909424 0.269165 0.416504
1.000000 0.247528 0.460571
0.225769 0.538116 0.548279
0.212311 0.552490 0.580750
0.288452 0.570404 0.621033
0.621857 0.570465 0.616547
0.708160 0.376434 0.358643
0.717987 0.312042 0.275146
0.798401 0.302338 0.353851
0.908539 0.302216 0.418976
0.999969 0.300171 0.472015
0.231659 0.528381 0.531616
0.219910 0.532684 0.542969
0.246002 0.552124 0.579590
0.434174 0.565796 0.615082
0.681030 0.461426 0.489716
0.713257 0.344879 0.331879
0.795990 0.341797 0.389099
0.907440 0.355896 0.451599
0.999969 0.364075 0.501923
0.233704 0.515228 0.516785
0.230804 0.521393 0.523407
0.236023 0.530792 0.539398
0.316620 0.539551 0.573273
0.586273 0.525238 0.591217
0.687378 0.423920 0.445160
0.784424 0.414124 0.460052
0.903381 0.428802 0.503510
1.000000 0.439758 0.537781
0.235382 0.501404 0.493835
0.223480 0.501465 0.494141
0.234863 0.512482 0.508759
0.273438 0.526367 0.528320
0.436493 0.549957 0.571045
0.650970 0.518890 0.546143
0.771179 0.506775 0.543945
0.899109 0.519836 0.563263
1.000000 0.527588 0.578247
0.256195 0.516602 0.490662
0.254517 0.516052 0.489380
0.258789 0.521454 0.490662
0.285767 0.542053 0.505981
0.387024 0.571472 0.540894
0.594086 0.605408 0.596741
0.761047 0.604950 0.595764
0.895782 0.617065 0.601807
1.000000 0.628845 0.608429
0.350708 0.649689 0.588470
0.349121 0.650665 0.584442
0.359985 0.653687 0.583435
0.391785 0.669342 0.587555
0.451782 0.693024 0.586182
0.594849 0.714386 0.595520
0.763092 0.690002 0.595795
0.891632 0.697601 0.597565
1.000000 0.722321 0.611908
0.475311 0.818512 0.726105
0.477478 0.822266 0.715851
0.484436 0.824463 0.707031
0.507141 0.828979 0.698151
0.520599 0.837036 0.646637
0.619171 0.848267 0.612915
0.804443 0.842102 0.621826
0.901093 0.781647 0.583649
1.000000 0.808136 0.595062
0.604858 0.998840 0.872681
0.601685 0.999878 0.852936
0.593475 1.000000 0.831177
0.611206 1.000000 0.809753
0.619232 1.000000 0.740967
0.664459 0.999969 0.660614
0.873138 0.998657 0.672668
0.989014 0.936066 0.637939
1.000000 0.885468 0.582367
0.286194 0.680573 0.706543
0.266541 0.689972 0.744110
0.339752 0.713287 0.769958
0.790924 0.749878 0.750885
0.822357 0.466644 0.440247
0.817871 0.382477 0.344696
0.830688 0.374451 0.343536
0.914581 0.336090 0.429688
0.999969 0.303497 0.493805
0.284973 0.664978 0.678558
0.273041 0.677917 0.710663
0.311340 0.689087 0.743317
0.547119 0.690704 0.760651
0.808228 0.583984 0.605316
0.818207 0.393860 0.353851
0.829651 0.357361 0.311218
0.913239 0.341339 0.410095
0.999969 0.330566 0.484161
0.292542 0.657593 0.663055
0.281982 0.662415 0.676788
0.295410 0.678619 0.710419
0.403961 0.685272 0.739716
0.739838 0.653381 0.709595
0.812286 0.460175 0.470764
0.828613 0.379242 0.352417
0.912689 0.375366 0.437469
0.999969 0.382782 0.517639
0.295929 0.648102 0.649414
0.288727 0.651794 0.654633
0.287262 0.658661 0.671234
0.334442 0.672119 0.705566
0.563049 0.661377 0.734863
0.784454 0.561005 0.614075
0.819611 0.436493 0.438995
0.909546 0.430511 0.489441
0.999969 0.447632 0.558777
0.297729 0.637817 0.637817
0.290710 0.640625 0.640991
0.296051 0.648346 0.651581
0.314117 0.656555 0.666901
0.423187 0.662506 0.700470
0.711121 0.644470 0.711731
0.801025 0.533905 0.571045
0.902863 0.524902 0.585266
1.000000 0.538757 0.625824
0.301697 0.627136 0.618073
0.288330 0.626099 0.616699
0.291229 0.631500 0.623077
0.310852 0.642914 0.635101
0.376526 0.656281 0.659424
0.558929 0.679749 0.701965
0.773956 0.647797 0.675842
0.897003 0.625336 0.668335
1.000000 0.637329 0.686859
0.322968 0.648682 0.619720
0.322174 0.648315 0.618530
0.322388 0.650055 0.617859
0.334015 0.662598 0.620819
0.381531 0.682617 0.637421
0.506348 0.707825 0.673828
0.721985 0.736328 0.726929
0.891205 0.733185 0.724213
1.000000 0.739044 0.725311
0.429169 0.802643 0.730347
0.427612 0.803589 0.727264
0.429749 0.804260 0.724823
0.456543 0.811615 0.726501
0.491028 0.827087 0.724609
0.572601 0.842957 0.723297
0.728882 0.853302 0.733154
0.898712 0.822968 0.728516
1.000000 0.826904 0.726227
0.577271 0.996277 0.889618
0.575409 0.997437 0.879364
0.576660 0.998566 0.868134
0.600342 0.999146 0.865997
0.615723 0.999817 0.839111
0.636932 1.000000 0.783325
0.755157 1.000000 0.745300
0.944031 0.990936 0.758057
1.000000 0.892761 0.698425
0.381836 0.823578 0.852264
0.361023 0.826294 0.884399
0.382477 0.831726 0.896515
0.652771 0.857697 0.896179
0.923340 0.668335 0.657074
0.924805 0.480408 0.442322
0.922363 0.427155 0.385956
0.940216 0.422974 0.388214
0.999939 0.376160 0.489899
0.377716 0.813141 0.829987
0.367798 0.821655 0.857758
0.386383 0.826782 0.883392
0.499573 0.798584 0.879059
0.829193 0.781738 0.843903
0.923859 0.557037 0.545227
0.922546 0.423035 0.367096
0.939880 0.403229 0.349976
0.999969 0.381744 0.469818
0.383362 0.807373 0.815063
0.377899 0.812500 0.830566
0.383270 0.822449 0.858093
0.428192 0.821136 0.879669
0.716644 0.809143 0.876617
0.916260 0.642731 0.694244
0.921692 0.470062 0.454712
0.939392 0.417236 0.379059
0.999939 0.408630 0.485016
0.384491 0.801636 0.802979
0.375183 0.803284 0.809265
0.374512 0.808777 0.825531
0.406555 0.819031 0.854401
0.514191 0.802185 0.868561
0.834106 0.766327 0.827393
0.916229 0.551147 0.578552
0.937134 0.455841 0.441101
0.999969 0.453766 0.528809
0.386383 0.794830 0.795929
0.384583 0.798187 0.798004
0.383636 0.801910 0.806519
0.393158 0.807831 0.822937
0.460693 0.804535 0.848663
0.705017 0.764862 0.865570
0.895538 0.672760 0.758759
0.929077 0.544556 0.566681
1.000000 0.536682 0.611664
0.387115 0.788208 0.784943
0.375000 0.788330 0.785431
0.380219 0.793213 0.792572
0.390930 0.798798 0.800354
0.419586 0.803864 0.815857
0.559052 0.809448 0.847565
0.845184 0.773193 0.831909
0.921509 0.642822 0.688629
1.000000 0.637909 0.708313
0.391968 0.781738 0.767914
0.382874 0.781555 0.767120
0.377502 0.782715 0.768555
0.390198 0.788879 0.775360
0.417725 0.796417 0.785095
0.505341 0.807159 0.812286
0.691925 0.824066 0.847931
0.901581 0.785553 0.813293
0.999969 0.746216 0.793976
0.416779 0.811310 0.776123
0.416687 0.811371 0.774811
0.415588 0.811493 0.774078
0.419830 0.816925 0.771027
0.434235 0.828278 0.771484
0.501312 0.841309 0.788239
0.644440 0.857819 0.821259
0.861237 0.876221 0.866119
0.999969 0.865784 0.856873
0.537659 0.990845 0.904724
0.536743 0.991455 0.902313
0.533386 0.991455 0.901154
0.551697 0.993347 0.898865
0.574432 0.995789 0.890106
0.608948 0.998108 0.877106
0.702148 0.999512 0.868927
0.877899 0.999054 0.882599
1.000000 0.937042 0.848999
0.494965 0.976044 0.999817
0.581116 0.961273 1.000000
0.578522 0.951416 1.000000
0.634003 0.952850 1.000000
0.998779 0.964722 0.962006
1.000000 0.625793 0.604156
1.000000 0.503296 0.454193
0.999939 0.473267 0.429260
1.000000 0.464172 0.426514
0.490051 0.976624 0.996552
0.509460 0.972687 0.999969
0.591492 0.962006 1.000000
0.589233 0.933380 0.999969
0.759766 0.904755 0.995239
0.996674 0.782562 0.812469
1.000000 0.545868 0.508301
0.999969 0.454712 0.384857
1.000000 0.444550 0.388031
0.501190 0.976990 0.986481
0.491791 0.976562 0.997162
0.525665 0.972168 0.999939
0.603943 0.959778 1.000000
0.684998 0.933533 0.999817
0.987335 0.869751 0.948761
1.000000 0.619019 0.639130
0.999969 0.489319 0.451752
1.000000 0.446014 0.394745
0.505219 0.977173 0.979919
0.494690 0.976868 0.985931
0.490692 0.976624 0.996399
0.545624 0.972595 0.999908
0.627991 0.951508 1.000000
0.810394 0.924866 0.994904
0.998413 0.745239 0.805664
1.000000 0.557159 0.567017
1.000000 0.471436 0.440094
0.510925 0.977356 0.976410
0.505463 0.977234 0.975861
0.497864 0.976959 0.983337
0.501678 0.976929 0.994934
0.565582 0.970612 0.999878
0.685425 0.911804 0.999115
0.961487 0.858276 0.959717
0.999939 0.647308 0.695770
1.000000 0.535400 0.537109
0.516968 0.977539 0.977386
0.512573 0.977417 0.977142
0.511047 0.977325 0.978333
0.511261 0.977325 0.983826
0.531036 0.977570 0.995117
0.625000 0.959290 0.999817
0.849091 0.896729 0.999390
0.998444 0.796204 0.899872
1.000000 0.636627 0.669189
0.519958 0.977722 0.969940
0.504944 0.977295 0.969452
0.502533 0.977203 0.971405
0.514313 0.977478 0.974091
0.520477 0.977661 0.976135
0.570007 0.978516 0.991516
0.752716 0.973816 0.999908
0.984833 0.907928 0.958191
1.000000 0.731964 0.782990
0.526581 0.978027 0.958832
0.521332 0.977875 0.957916
0.513245 0.977631 0.957397
0.516418 0.977722 0.958862
0.527008 0.978088 0.958771
0.565887 0.979279 0.967346
0.666809 0.982849 0.989899
0.859558 0.983002 0.999481
1.000000 0.922791 0.949188
0.534393 0.984985 0.950623
0.534027 0.985046 0.947723
0.533447 0.985046 0.946075
0.531555 0.985291 0.940887
0.528839 0.986664 0.924896
0.540192 0.991241 0.916321
0.614227 0.995270 0.926361
0.774750 0.999481 0.958954
0.986725 1.000000 0.998962
