public/LUTs/Dozoran.cube
# Copyright: (C) Copyright 2010-2018 by IWLTBAP SAS
# Cannot be resold, shared or otherwise redistributed
# Website: https://luts.iwltbap.com
TITLE "IWLTBAP Dozoran (Rec.709, sRGB, DCI-P3)"
LUT_3D_SIZE 33
0.000000 0.000000 0.000000
0.033875 0.013336 0.010193
0.067047 0.024200 0.018738
0.099213 0.036407 0.027100
0.130280 0.047638 0.036041
0.164673 0.058594 0.044312
0.196747 0.069031 0.052429
0.227875 0.078308 0.059631
0.261932 0.087372 0.066986
0.293152 0.095551 0.073547
0.324585 0.103821 0.079834
0.358521 0.111237 0.085449
0.389618 0.118378 0.091095
0.420868 0.125000 0.096161
0.454498 0.131256 0.100891
0.485596 0.136993 0.105316
0.516815 0.142365 0.109619
0.550415 0.147400 0.113434
0.581451 0.151917 0.116882
0.612457 0.156158 0.120209
0.645935 0.159912 0.123199
0.676941 0.163391 0.125854
0.707886 0.166473 0.128296
0.740967 0.169159 0.130310
0.772369 0.171478 0.132080
0.803284 0.173370 0.133575
0.834320 0.174896 0.134735
0.867828 0.176056 0.135590
0.898865 0.176849 0.136230
0.929871 0.177307 0.136566
0.963440 0.177460 0.136597
0.989166 0.177185 0.136414
1.000000 0.176544 0.135986
0.014191 0.024445 0.014191
0.038483 0.029968 0.017822
0.067566 0.036133 0.023041
0.095581 0.044281 0.028961
0.125977 0.054504 0.036224
0.159332 0.064758 0.042908
0.191071 0.075195 0.050354
0.223175 0.085083 0.057129
0.257294 0.094116 0.063721
0.288849 0.103027 0.070190
0.320251 0.111115 0.076355
0.354309 0.118988 0.082275
0.385834 0.126404 0.087921
0.417175 0.133270 0.093170
0.451080 0.139893 0.097900
0.482330 0.145996 0.102539
0.513672 0.151733 0.106628
0.547424 0.157013 0.110443
0.578674 0.161957 0.113922
0.609863 0.166534 0.117126
0.642578 0.170746 0.120026
0.674866 0.174469 0.122589
0.705994 0.177856 0.124878
0.738373 0.180969 0.126984
0.770935 0.183716 0.128693
0.802094 0.185974 0.129944
0.833313 0.187897 0.131073
0.867126 0.189484 0.131989
0.898285 0.190735 0.132507
0.929443 0.191559 0.132782
0.963135 0.192108 0.132843
0.989105 0.192291 0.132690
1.000000 0.192108 0.132233
0.028381 0.048981 0.028381
0.046814 0.049042 0.028229
0.070740 0.051422 0.028839
0.095215 0.056519 0.032928
0.122314 0.063843 0.037781
0.155243 0.073761 0.044067
0.186401 0.083954 0.050018
0.218506 0.093811 0.056152
0.253113 0.103271 0.062317
0.285156 0.112579 0.067993
0.317078 0.121094 0.073975
0.351105 0.129150 0.079712
0.382690 0.136993 0.085205
0.414337 0.144318 0.090668
0.448212 0.151001 0.095551
0.479767 0.157562 0.100342
0.511169 0.163635 0.104584
0.545197 0.169250 0.108704
0.576477 0.174500 0.112274
0.607849 0.179565 0.115723
0.639465 0.184021 0.118683
0.673035 0.188232 0.121307
0.704437 0.191986 0.123657
0.735901 0.195465 0.125702
0.769653 0.198517 0.127441
0.801056 0.201172 0.128876
0.832397 0.203491 0.129944
0.866333 0.205444 0.130737
0.897705 0.207031 0.131317
0.929016 0.208313 0.131561
0.962891 0.209198 0.131592
0.989075 0.209808 0.131348
1.000000 0.210022 0.130829
0.041748 0.072601 0.042511
0.059998 0.071045 0.039429
0.077972 0.069885 0.038696
0.099457 0.072052 0.039734
0.122772 0.076294 0.042206
0.152252 0.083923 0.046631
0.182190 0.093842 0.052155
0.213928 0.104156 0.057434
0.247375 0.114075 0.062439
0.281403 0.123535 0.067596
0.313538 0.132538 0.072723
0.348206 0.141052 0.077850
0.380310 0.149292 0.082794
0.412079 0.156891 0.087860
0.445312 0.164185 0.092926
0.478088 0.170990 0.097626
0.509644 0.177460 0.102234
0.543121 0.183594 0.106445
0.575104 0.189270 0.110321
0.606598 0.194580 0.114014
0.638031 0.199554 0.117493
0.671906 0.204010 0.120422
0.703369 0.208252 0.123016
0.734741 0.212036 0.125427
0.768768 0.215424 0.127319
0.800201 0.218536 0.128906
0.831726 0.221283 0.130310
0.865753 0.223602 0.131287
0.897217 0.225525 0.131866
0.928680 0.227203 0.132172
0.962646 0.228455 0.132233
0.989014 0.229401 0.131989
1.000000 0.229980 0.131500
0.058136 0.097107 0.056824
0.071503 0.094666 0.051666
0.089081 0.091736 0.050354
0.108459 0.090942 0.050354
0.127808 0.092712 0.049500
0.152985 0.097351 0.050812
0.180115 0.105316 0.055298
0.209778 0.114990 0.060120
0.241302 0.125244 0.064789
0.276489 0.135254 0.069183
0.309113 0.144562 0.073395
0.342438 0.153625 0.077667
0.377075 0.162170 0.081940
0.409393 0.170105 0.086151
0.441772 0.177856 0.090454
0.476196 0.184998 0.094604
0.508209 0.191925 0.098938
0.541016 0.198517 0.103180
0.574219 0.204590 0.107025
0.605774 0.210327 0.110901
0.637299 0.215668 0.114502
0.671326 0.220642 0.117889
0.702728 0.225159 0.120850
0.734222 0.229401 0.123535
0.768219 0.233246 0.125824
0.799744 0.236694 0.127869
0.831207 0.239716 0.129395
0.865326 0.242523 0.130707
0.896851 0.244812 0.131653
0.928375 0.246826 0.132294
0.962494 0.248474 0.132568
0.988983 0.249817 0.132538
1.000000 0.250763 0.132141
0.071503 0.122040 0.071045
0.083099 0.119080 0.063385
0.100861 0.116730 0.061646
0.121063 0.113708 0.062714
0.138702 0.111847 0.061646
0.159271 0.113922 0.058472
0.181458 0.119324 0.059143
0.207764 0.127106 0.063049
0.237610 0.137024 0.067688
0.271942 0.147461 0.072449
0.304321 0.157196 0.076263
0.337250 0.166626 0.080170
0.372650 0.175415 0.083557
0.405548 0.183899 0.086731
0.438293 0.191742 0.090179
0.473511 0.199402 0.093323
0.505829 0.206604 0.096832
0.538147 0.213440 0.100159
0.572723 0.219910 0.103607
0.604645 0.226013 0.107147
0.636475 0.231750 0.110504
0.670685 0.237183 0.113800
0.702271 0.242126 0.116699
0.733856 0.246765 0.119598
0.767944 0.251007 0.122101
0.799530 0.254883 0.124390
0.831055 0.258301 0.126282
0.865143 0.261383 0.127899
0.896729 0.264130 0.129211
0.928284 0.266510 0.130188
0.962372 0.268524 0.130829
0.988983 0.270203 0.131134
1.000000 0.271545 0.131104
0.085449 0.147247 0.085602
0.093872 0.143677 0.075165
0.111176 0.141724 0.072083
0.134369 0.139160 0.075165
0.156158 0.135071 0.076019
0.171173 0.132629 0.071899
0.187805 0.135925 0.066223
0.209991 0.141846 0.066467
0.236237 0.150085 0.069977
0.268646 0.159973 0.074646
0.300293 0.170227 0.079346
0.332550 0.179993 0.083160
0.368011 0.189240 0.086487
0.401062 0.197998 0.089355
0.434082 0.206329 0.092041
0.469666 0.214172 0.094543
0.502594 0.221680 0.097229
0.535278 0.228729 0.099670
0.570404 0.235504 0.102173
0.602722 0.241852 0.104736
0.634918 0.247894 0.107391
0.669495 0.253571 0.110107
0.701416 0.258942 0.112671
0.733215 0.263977 0.115295
0.767456 0.268555 0.117645
0.799225 0.272797 0.119873
0.830872 0.276672 0.121887
0.865021 0.280182 0.123596
0.896606 0.283264 0.125031
0.928253 0.286011 0.126221
0.962402 0.288391 0.127075
0.988983 0.290405 0.127594
1.000000 0.292084 0.127838
0.099274 0.172150 0.099915
0.104797 0.167969 0.086975
0.120636 0.166534 0.082397
0.147400 0.165802 0.086060
0.172333 0.161194 0.090881
0.187531 0.155884 0.087463
0.199921 0.153748 0.080780
0.216339 0.158417 0.073303
0.238922 0.165558 0.072601
0.268036 0.173645 0.076294
0.297638 0.183563 0.080902
0.329254 0.193878 0.085480
0.363983 0.203674 0.089203
0.396851 0.212921 0.092438
0.429840 0.221436 0.095215
0.465424 0.229614 0.097412
0.498688 0.237366 0.099426
0.531860 0.244751 0.101440
0.567383 0.251709 0.103088
0.600098 0.258301 0.104980
0.632690 0.264526 0.106659
0.667664 0.270416 0.108490
0.699951 0.275970 0.110382
0.732056 0.281250 0.112213
0.766571 0.286133 0.114136
0.798523 0.290802 0.115967
0.830353 0.294983 0.117584
0.864716 0.298798 0.119049
0.896454 0.302277 0.120422
0.928162 0.305420 0.121490
0.962311 0.308167 0.122375
0.988983 0.310516 0.122986
1.000000 0.312531 0.123383
0.113342 0.197540 0.114655
0.116150 0.192719 0.099121
0.129730 0.190857 0.092163
0.157928 0.191681 0.095886
0.186218 0.189850 0.102997
0.206787 0.182831 0.105103
0.217865 0.176361 0.097809
0.228638 0.175293 0.088531
0.246124 0.181976 0.079987
0.270782 0.189911 0.078217
0.297485 0.198242 0.081696
0.327423 0.208099 0.086395
0.361389 0.218292 0.090759
0.393585 0.228088 0.094727
0.426117 0.237122 0.097809
0.461731 0.245697 0.100433
0.494843 0.253784 0.102478
0.528076 0.261444 0.104218
0.563843 0.268646 0.105591
0.597046 0.275513 0.106964
0.630005 0.282013 0.107971
0.665405 0.288086 0.109222
0.697906 0.293823 0.110229
0.730469 0.299225 0.111389
0.765259 0.304230 0.112457
0.797424 0.308990 0.113586
0.829529 0.313477 0.114655
0.864075 0.317566 0.115601
0.895996 0.321350 0.116577
0.927826 0.324799 0.117340
0.962128 0.327881 0.118011
0.988953 0.330597 0.118500
1.000000 0.332977 0.118744
0.127533 0.223450 0.129333
0.128143 0.217651 0.111877
0.138824 0.215149 0.102631
0.165802 0.216766 0.104919
0.197418 0.217651 0.113617
0.224182 0.212402 0.120422
0.239044 0.203308 0.117126
0.248749 0.196930 0.106812
0.259857 0.197540 0.095581
0.276917 0.206085 0.085693
0.300690 0.215332 0.082947
0.327637 0.223633 0.086426
0.360138 0.233398 0.090912
0.391449 0.243439 0.095398
0.423584 0.253113 0.099304
0.458771 0.262177 0.102325
0.491699 0.270660 0.104767
0.524811 0.278687 0.106812
0.560577 0.286163 0.108215
0.593842 0.293304 0.109436
0.627106 0.300110 0.110382
0.662781 0.306458 0.111115
0.695770 0.312378 0.111786
0.728546 0.318054 0.112305
0.763672 0.323212 0.112701
0.796143 0.328094 0.113159
0.828491 0.332672 0.113617
0.863281 0.336914 0.113892
0.895386 0.340790 0.114197
0.927399 0.344452 0.114563
0.961884 0.347748 0.114716
0.988892 0.350769 0.114807
1.000000 0.353485 0.114746
0.141998 0.249603 0.144501
0.140869 0.243256 0.125610
0.150970 0.239746 0.113617
0.173279 0.241180 0.113251
0.206177 0.244354 0.122711
0.238342 0.242920 0.132996
0.263123 0.233429 0.136841
0.272217 0.223694 0.127594
0.278351 0.218170 0.114655
0.288635 0.220856 0.102203
0.306702 0.231323 0.091125
0.330780 0.241547 0.086914
0.360718 0.249725 0.090302
0.390717 0.259430 0.094696
0.422058 0.269409 0.099030
0.456848 0.279083 0.102936
0.489380 0.288055 0.105988
0.522278 0.296478 0.108490
0.557892 0.304260 0.110291
0.591095 0.311676 0.111633
0.624329 0.318604 0.112671
0.660217 0.325317 0.113403
0.693390 0.331543 0.113831
0.726501 0.337463 0.114197
0.761993 0.342957 0.114288
0.794739 0.348083 0.114197
0.827393 0.352844 0.114105
0.862396 0.357208 0.113892
0.894714 0.361237 0.113647
0.926941 0.364960 0.113281
0.961548 0.368347 0.112854
0.988861 0.371460 0.112488
1.000000 0.374298 0.111938
0.159210 0.276215 0.159698
0.156616 0.269318 0.139740
0.161530 0.265076 0.125275
0.180664 0.265656 0.122375
0.213257 0.270020 0.130890
0.252167 0.272095 0.143677
0.280579 0.266083 0.151520
0.296295 0.253662 0.149536
0.301514 0.243866 0.136200
0.306885 0.240265 0.121796
0.317657 0.244995 0.108063
0.336517 0.257202 0.095856
0.364044 0.268707 0.090393
0.391632 0.276794 0.093628
0.421722 0.286255 0.097717
0.455811 0.296234 0.101959
0.487976 0.305725 0.105774
0.520538 0.314667 0.108795
0.555908 0.322906 0.111267
0.588928 0.330627 0.112946
0.622131 0.337891 0.114288
0.657928 0.344757 0.115204
0.691223 0.351257 0.115692
0.724487 0.357391 0.116028
0.760193 0.363220 0.116058
0.793213 0.368622 0.115845
0.826111 0.373627 0.115448
0.861420 0.378265 0.114899
0.893951 0.382477 0.114227
0.926392 0.386353 0.113373
0.961243 0.389893 0.112518
0.988800 0.393097 0.111542
1.000000 0.396027 0.110504
0.174225 0.303192 0.175354
0.170685 0.296143 0.154388
0.173279 0.291229 0.138306
0.188812 0.290588 0.131805
0.219513 0.294891 0.138306
0.260590 0.299622 0.152313
0.295013 0.298004 0.164612
0.318054 0.287231 0.168427
0.327148 0.273682 0.159729
0.330292 0.264740 0.144012
0.335571 0.263336 0.128357
0.349792 0.270111 0.113831
0.369324 0.283936 0.100006
0.394958 0.296722 0.093201
0.422852 0.304535 0.096100
0.455719 0.313934 0.099976
0.487244 0.323578 0.104095
0.519501 0.333099 0.107880
0.554688 0.341919 0.110901
0.587494 0.350067 0.113129
0.620544 0.357666 0.114838
0.656250 0.364807 0.116089
0.689484 0.371582 0.116821
0.722778 0.377930 0.117279
0.758514 0.383942 0.117432
0.791718 0.389587 0.117218
0.824829 0.394897 0.116791
0.860352 0.399780 0.116150
0.893188 0.404266 0.115295
0.925842 0.408417 0.114197
0.960876 0.412170 0.112976
0.988739 0.415558 0.111664
1.000000 0.418671 0.110260
0.189240 0.330658 0.191071
0.185364 0.323669 0.169861
0.186005 0.317963 0.151794
0.198212 0.316223 0.142578
0.225952 0.319916 0.146149
0.267395 0.326019 0.159943
0.306427 0.328339 0.175354
0.335999 0.321747 0.183929
0.355530 0.306458 0.183502
0.359528 0.293579 0.168671
0.361603 0.286560 0.151031
0.367218 0.287354 0.134369
0.379517 0.296143 0.118805
0.399963 0.311554 0.103760
0.426270 0.325439 0.095306
0.457001 0.333130 0.097992
0.487488 0.342255 0.101624
0.519135 0.351807 0.105530
0.554016 0.361145 0.109192
0.586609 0.369843 0.112122
0.619476 0.377960 0.114380
0.655121 0.385468 0.115936
0.688263 0.392456 0.117065
0.721497 0.399048 0.117706
0.757294 0.405212 0.118011
0.790527 0.411102 0.117981
0.823669 0.416565 0.117645
0.859375 0.421753 0.117065
0.892365 0.426514 0.116150
0.925232 0.430908 0.115021
0.960480 0.434906 0.113617
0.988678 0.438568 0.112122
1.000000 0.441864 0.110474
0.204803 0.358734 0.207214
0.200470 0.351715 0.185455
0.199829 0.345856 0.166321
0.208710 0.343018 0.154388
0.233002 0.345398 0.154907
0.273315 0.351807 0.166779
0.315186 0.357056 0.183929
0.353546 0.355133 0.197144
0.377014 0.343231 0.201294
0.387573 0.325867 0.194489
0.388702 0.314209 0.176300
0.390259 0.309204 0.157654
0.396484 0.312439 0.139984
0.409729 0.323090 0.123291
0.430878 0.339874 0.106995
0.460449 0.355103 0.096771
0.488861 0.362488 0.099152
0.519531 0.371399 0.102509
0.553894 0.380768 0.106262
0.586243 0.389893 0.109741
0.618958 0.398499 0.112579
0.654419 0.406464 0.114716
0.687500 0.413849 0.116241
0.720642 0.420715 0.117188
0.756439 0.427155 0.117737
0.789642 0.433197 0.117889
0.822876 0.438934 0.117737
0.858551 0.444244 0.117279
0.891663 0.449249 0.116547
0.924683 0.453857 0.115448
0.960083 0.458069 0.114075
0.988617 0.461945 0.112457
1.000000 0.465454 0.110657
0.220612 0.387299 0.223816
0.216064 0.380615 0.201874
0.214355 0.374359 0.181580
0.220428 0.370544 0.167267
0.240967 0.371674 0.164398
0.279053 0.377533 0.173981
0.322388 0.384460 0.191498
0.365448 0.386658 0.208344
0.395508 0.379333 0.217316
0.413086 0.362610 0.216766
0.417725 0.345764 0.203400
0.417419 0.335663 0.183136
0.419342 0.333221 0.163666
0.426300 0.338501 0.145142
0.440216 0.350800 0.127289
0.464630 0.368896 0.109711
0.492310 0.385468 0.097656
0.521088 0.392639 0.099670
0.554443 0.401245 0.102722
0.586273 0.410339 0.106293
0.618744 0.419312 0.109619
0.654083 0.427734 0.112305
0.687042 0.435638 0.114349
0.720123 0.442902 0.115723
0.755890 0.449646 0.116608
0.789062 0.455933 0.116974
0.822327 0.461792 0.117004
0.858032 0.467285 0.116730
0.891174 0.472473 0.116089
0.924255 0.477295 0.115173
0.959808 0.481720 0.113922
0.988525 0.485809 0.112366
1.000000 0.489563 0.110565
0.236877 0.416565 0.240540
0.232330 0.410034 0.218384
0.229767 0.403717 0.197571
0.233521 0.399384 0.181122
0.252930 0.399200 0.175140
0.285370 0.404053 0.181763
0.328491 0.411621 0.198151
0.374969 0.416718 0.217316
0.411163 0.414062 0.231110
0.435028 0.401215 0.235229
0.449982 0.380890 0.230621
0.449982 0.366180 0.210999
0.448944 0.358307 0.189728
0.451233 0.358032 0.169373
0.458923 0.365448 0.149902
0.473633 0.379242 0.130890
0.496094 0.398651 0.111847
0.524414 0.416565 0.097870
0.556000 0.423492 0.099548
0.586975 0.431824 0.102386
0.619049 0.440674 0.105652
0.654114 0.449402 0.108673
0.686859 0.457672 0.111298
0.719879 0.465393 0.113190
0.755585 0.472534 0.114441
0.788727 0.479095 0.115173
0.821960 0.485260 0.115417
0.857758 0.490936 0.115265
0.890900 0.496277 0.114777
0.924042 0.501251 0.114044
0.959595 0.505859 0.112915
0.988495 0.510162 0.111542
1.000000 0.514099 0.109863
0.255890 0.446442 0.257843
0.251404 0.440247 0.235565
0.246826 0.433990 0.214081
0.249695 0.429077 0.196167
0.263580 0.427795 0.186920
0.292664 0.431458 0.190460
0.334351 0.438599 0.204926
0.382782 0.445526 0.224823
0.423950 0.447113 0.242615
0.456909 0.439148 0.251892
0.474915 0.421265 0.251129
0.481384 0.400269 0.240387
0.479248 0.387573 0.217957
0.478088 0.381866 0.195770
0.480927 0.384003 0.174530
0.489319 0.393188 0.154205
0.504730 0.408600 0.133972
0.527832 0.429016 0.113525
0.559265 0.448395 0.097443
0.588654 0.455078 0.098877
0.619843 0.463135 0.101288
0.654510 0.471680 0.104279
0.687073 0.480133 0.107117
0.719940 0.488190 0.109528
0.755493 0.495758 0.111267
0.788635 0.502686 0.112366
0.821838 0.509125 0.112946
0.857574 0.515076 0.113068
0.890747 0.520599 0.112762
0.923889 0.525726 0.112091
0.959503 0.530518 0.111115
0.988495 0.534943 0.109833
1.000000 0.539032 0.108307
0.272888 0.477051 0.275421
0.268433 0.471130 0.253113
0.265076 0.465057 0.231293
0.265503 0.459808 0.211884
0.275726 0.457672 0.200134
0.301025 0.459930 0.200317
0.340515 0.466400 0.212402
0.389526 0.474091 0.231781
0.434540 0.478729 0.252014
0.473450 0.475464 0.266357
0.497711 0.461639 0.270447
0.510437 0.439789 0.265533
0.511597 0.420563 0.248230
0.508484 0.409912 0.224396
0.507568 0.406647 0.201416
0.511047 0.410858 0.179352
0.520172 0.421814 0.157898
0.536224 0.438629 0.136566
0.562408 0.460144 0.114655
0.591797 0.480988 0.096405
0.621460 0.487396 0.097504
0.655334 0.495056 0.099579
0.687561 0.503265 0.102234
0.720215 0.511505 0.104858
0.755646 0.519318 0.107025
0.788696 0.526611 0.108582
0.821808 0.533417 0.109558
0.857513 0.539642 0.109924
0.890686 0.545410 0.109863
0.923828 0.550751 0.109406
0.959473 0.555664 0.108521
0.988464 0.560211 0.107361
0.999969 0.564453 0.105896
0.290192 0.508362 0.293396
0.285919 0.502777 0.271149
0.282532 0.496979 0.249146
0.281830 0.491669 0.228760
0.289246 0.488647 0.214630
0.310974 0.489868 0.211517
0.350067 0.495209 0.220490
0.396057 0.502747 0.238647
0.444611 0.509186 0.260193
0.487335 0.510101 0.278503
0.517914 0.501190 0.287872
0.536194 0.482147 0.286865
0.547394 0.457672 0.278931
0.543488 0.441864 0.255188
0.537964 0.433441 0.230530
0.537445 0.432465 0.206757
0.543579 0.438629 0.183807
0.553802 0.451233 0.161255
0.570496 0.469330 0.138641
0.594604 0.491852 0.115295
0.624542 0.514191 0.094757
0.656982 0.520325 0.095551
0.688446 0.527649 0.097260
0.720795 0.535553 0.099548
0.756012 0.543457 0.101868
0.788910 0.551025 0.103790
0.821960 0.558075 0.105164
0.857635 0.564636 0.105896
0.890747 0.570648 0.106140
0.923859 0.576233 0.105896
0.959473 0.581360 0.105225
0.988495 0.586060 0.104156
1.000000 0.590393 0.102753
0.308044 0.540527 0.311920
0.303833 0.535156 0.289551
0.300537 0.529694 0.267517
0.299011 0.524445 0.246368
0.304047 0.520874 0.230103
0.322266 0.521088 0.223999
0.358337 0.525238 0.230103
0.402832 0.532166 0.246063
0.453796 0.539368 0.267487
0.499084 0.543182 0.288513
0.535492 0.539215 0.302948
0.562408 0.524445 0.306946
0.575562 0.501129 0.301605
0.578857 0.477509 0.287842
0.573792 0.464203 0.261810
0.570282 0.458130 0.236298
0.570251 0.459259 0.211670
0.574829 0.467285 0.187683
0.585266 0.481415 0.164124
0.602509 0.500641 0.140198
0.627045 0.524200 0.115387
0.659943 0.548065 0.092468
0.690033 0.553925 0.092957
0.721680 0.560913 0.094299
0.756622 0.568420 0.096191
0.789368 0.575989 0.098206
0.822266 0.583282 0.099915
0.857819 0.590088 0.101013
0.890869 0.596344 0.101532
0.923950 0.602142 0.101532
0.959534 0.607483 0.101105
0.988495 0.612396 0.100220
1.000000 0.616882 0.098969
0.326324 0.573456 0.330780
0.322296 0.568512 0.308624
0.319000 0.563263 0.286316
0.317108 0.558197 0.264679
0.320190 0.554321 0.246704
0.335022 0.553528 0.237671
0.367676 0.556702 0.240723
0.410126 0.562805 0.254272
0.461273 0.569977 0.274841
0.509247 0.575500 0.297272
0.553192 0.575562 0.315765
0.583801 0.565857 0.325226
0.602295 0.545685 0.324005
0.611176 0.519440 0.315430
0.609314 0.498688 0.294952
0.603699 0.487671 0.267914
0.600433 0.483856 0.241760
0.600861 0.487030 0.216217
0.606049 0.496765 0.191254
0.616974 0.512299 0.166443
0.634674 0.532654 0.141205
0.662201 0.557129 0.115021
0.692841 0.582214 0.089935
0.723236 0.588165 0.089661
0.757507 0.594757 0.090668
0.789948 0.601868 0.092163
0.822723 0.609100 0.093872
0.858185 0.616058 0.095245
0.891113 0.622528 0.096130
0.924103 0.628540 0.096375
0.959656 0.634064 0.096161
0.988495 0.639130 0.095459
1.000000 0.643829 0.094421
0.347626 0.607269 0.350281
0.341461 0.602539 0.328125
0.338104 0.597839 0.305847
0.335907 0.592926 0.283722
0.337463 0.588989 0.264374
0.351746 0.587494 0.252808
0.378448 0.589569 0.252655
0.418549 0.594635 0.263641
0.468903 0.601288 0.282501
0.518372 0.607574 0.305237
0.566315 0.610535 0.326691
0.602692 0.605804 0.341217
0.627075 0.589996 0.345123
0.641571 0.565247 0.339325
0.648712 0.537567 0.328705
0.640350 0.521057 0.301636
0.633911 0.512390 0.273804
0.630920 0.510651 0.246735
0.631836 0.515717 0.220245
0.637543 0.527069 0.194275
0.651489 0.543915 0.168335
0.669678 0.565277 0.141693
0.694855 0.590576 0.114014
0.725708 0.616394 0.087433
0.758972 0.622925 0.085754
0.790833 0.629181 0.086365
0.823303 0.635925 0.087494
0.858582 0.642700 0.088806
0.891418 0.649323 0.089874
0.924347 0.655487 0.090454
0.959778 0.661163 0.090424
0.988525 0.666412 0.089966
1.000000 0.671204 0.089020
0.366882 0.641876 0.370361
0.363251 0.637695 0.348114
0.360413 0.633209 0.325806
0.358032 0.628815 0.303558
0.358337 0.624756 0.282928
0.367371 0.622772 0.268921
0.390564 0.623810 0.265808
0.428009 0.628021 0.274170
0.477173 0.634003 0.290955
0.527252 0.640228 0.313202
0.578003 0.644775 0.336090
0.619141 0.643982 0.354828
0.652313 0.633453 0.364288
0.671021 0.612030 0.362823
0.680023 0.583984 0.353546
0.680725 0.558319 0.337219
0.672882 0.544617 0.307953
0.667023 0.538147 0.279388
0.664337 0.538422 0.251282
0.665710 0.545258 0.223877
0.671906 0.558167 0.196930
0.683746 0.576111 0.169678
0.702271 0.598480 0.141663
0.727722 0.624573 0.112488
0.761139 0.651062 0.084381
0.792175 0.658295 0.081177
0.824097 0.664154 0.081390
0.859131 0.670441 0.082123
0.891846 0.676849 0.083069
0.924622 0.683075 0.083801
0.959961 0.688873 0.084045
0.988556 0.694214 0.083740
1.000000 0.699158 0.082977
0.386749 0.677429 0.390900
0.383270 0.673645 0.368744
0.380585 0.669678 0.346466
0.378296 0.665558 0.323883
0.377808 0.661743 0.302460
0.384216 0.659393 0.286194
0.404144 0.659729 0.280273
0.438660 0.662872 0.285797
0.486145 0.667938 0.300476
0.536194 0.673828 0.321381
0.588715 0.679016 0.344879
0.633911 0.680908 0.366608
0.672577 0.675323 0.381165
0.697113 0.658600 0.384949
0.710571 0.632294 0.378754
0.716400 0.602539 0.367279
0.711945 0.580780 0.344147
0.703705 0.569427 0.314117
0.697937 0.565002 0.284485
0.695648 0.567108 0.255585
0.697388 0.575592 0.227234
0.703949 0.589905 0.199066
0.716217 0.609009 0.170563
0.735016 0.632263 0.141083
0.763214 0.659088 0.110413
0.794067 0.686218 0.080750
0.825348 0.694153 0.075897
0.859863 0.699646 0.075775
0.892303 0.705505 0.076080
0.924957 0.711456 0.076599
0.960175 0.717255 0.076935
0.988617 0.722687 0.076874
1.000000 0.727722 0.076355
0.407074 0.713959 0.412048
0.403809 0.710663 0.389923
0.401306 0.707153 0.367584
0.399261 0.703522 0.344910
0.398071 0.699951 0.322662
0.402557 0.697388 0.304657
0.419250 0.697083 0.295898
0.453247 0.699310 0.298523
0.496246 0.703552 0.310974
0.548157 0.708771 0.330322
0.599121 0.713837 0.353638
0.649719 0.717224 0.376984
0.690704 0.715515 0.395691
0.721222 0.704132 0.405182
0.742432 0.681427 0.403381
0.751526 0.651611 0.393402
0.755005 0.621399 0.380890
0.745850 0.604492 0.350708
0.734894 0.595490 0.319855
0.729279 0.592926 0.289429
0.727264 0.596680 0.259491
0.729401 0.606781 0.230072
0.736816 0.622375 0.200714
0.751373 0.642517 0.170837
0.770447 0.666595 0.139954
0.796173 0.694092 0.107758
0.826996 0.721802 0.076508
0.860962 0.730530 0.069946
0.892944 0.735596 0.069458
0.925323 0.741028 0.069366
0.960419 0.746521 0.069427
0.988647 0.751862 0.069397
1.000000 0.756927 0.069061
0.428040 0.751587 0.433777
0.424866 0.748657 0.411560
0.422607 0.745605 0.389282
0.420685 0.742432 0.366425
0.419250 0.739227 0.343750
0.422028 0.736725 0.324249
0.435699 0.736023 0.312866
0.466675 0.737518 0.312744
0.507477 0.740845 0.322632
0.558319 0.745239 0.340271
0.609680 0.749847 0.362701
0.662384 0.753784 0.386749
0.707184 0.754517 0.408325
0.745697 0.748047 0.422974
0.770264 0.730469 0.426697
0.783569 0.702515 0.419952
0.789337 0.670563 0.407593
0.787933 0.643494 0.389343
0.777313 0.629547 0.356995
0.768982 0.622559 0.325287
0.763580 0.621735 0.293854
0.761841 0.627167 0.262878
0.764221 0.638702 0.232452
