public/LUTs/Dozoran.cube
# Copyright: (C) Copyright 2010-2018 by IWLTBAP SAS
# Cannot be resold, shared or otherwise redistributed
# Website: https://luts.iwltbap.com
TITLE "IWLTBAP Dozoran (Rec.709, sRGB, DCI-P3)"
LUT_3D_SIZE 5
0.000000 0.000000 0.000000
0.261932 0.087372 0.066986
0.516815 0.142365 0.109619
0.772369 0.171478 0.132080
1.000000 0.176544 0.135986
0.113342 0.197540 0.114655
0.246124 0.181976 0.079987
0.494843 0.253784 0.102478
0.765259 0.304230 0.112457
1.000000 0.332977 0.118744
0.236877 0.416565 0.240540
0.411163 0.414062 0.231110
0.496094 0.398651 0.111847
0.755585 0.472534 0.114441
1.000000 0.514099 0.109863
0.386749 0.677429 0.390900
0.486145 0.667938 0.300476
0.711945 0.580780 0.344147
0.763214 0.659088 0.110413
1.000000 0.727722 0.076355
0.570984 1.000000 0.579315
0.603973 1.000000 0.418213
0.985107 0.990082 0.565674
0.978851 0.801331 0.387695
1.000000 0.947754 0.070953
0.099670 0.228760 0.237335
0.339294 0.155914 0.141998
0.543671 0.170502 0.202942
0.781830 0.188568 0.262146
1.000000 0.185394 0.291870
0.109344 0.209259 0.198151
0.234009 0.237183 0.225006
0.514954 0.267303 0.242737
0.773132 0.308350 0.275299
0.999969 0.334290 0.299286
0.255890 0.413635 0.352722
0.278503 0.429321 0.271271
0.496094 0.397705 0.234894
0.760254 0.463257 0.263641
1.000000 0.509155 0.287018
0.418823 0.676575 0.556183
0.388794 0.677094 0.395172
0.672516 0.673370 0.398346
0.761230 0.645447 0.275818
1.000000 0.715668 0.277924
0.614685 0.999939 0.775940
0.558929 1.000000 0.578308
0.758911 0.999939 0.508942
0.987213 0.848114 0.464569
1.000000 0.931396 0.280457
0.177277 0.441650 0.457825
0.503540 0.486542 0.492157
0.602905 0.271423 0.248535
0.790863 0.235260 0.341125
1.000000 0.217285 0.421753
0.184906 0.410217 0.409973
0.222229 0.434570 0.456421
0.580902 0.317749 0.321960
0.784332 0.330261 0.389832
0.999969 0.349182 0.451233
0.201263 0.404236 0.383545
0.211731 0.416290 0.388824
0.470062 0.478363 0.466400
0.768097 0.496948 0.477081
1.000000 0.520905 0.493134
0.394257 0.667816 0.587921
0.405304 0.674408 0.564484
0.492706 0.701660 0.484131
0.764679 0.648895 0.455688
1.000000 0.709412 0.488068
0.618225 1.000000 0.854980
0.595490 1.000000 0.791107
0.638641 1.000000 0.630493
0.967010 0.977509 0.610840
1.000000 0.899841 0.486450
0.286194 0.680573 0.706543
0.339752 0.713287 0.769958
0.822357 0.466644 0.440247
0.830688 0.374451 0.343536
0.999969 0.303497 0.493805
0.292542 0.657593 0.663055
0.295410 0.678619 0.710419
0.739838 0.653381 0.709595
0.828613 0.379242 0.352417
0.999969 0.382782 0.517639
0.297729 0.637817 0.637817
0.296051 0.648346 0.651581
0.423187 0.662506 0.700470
0.801025 0.533905 0.571045
1.000000 0.538757 0.625824
0.322968 0.648682 0.619720
0.322388 0.650055 0.617859
0.381531 0.682617 0.637421
0.721985 0.736328 0.726929
1.000000 0.739044 0.725311
0.577271 0.996277 0.889618
0.576660 0.998566 0.868134
0.615723 0.999817 0.839111
0.755157 1.000000 0.745300
1.000000 0.892761 0.698425
0.494965 0.976044 0.999817
0.578522 0.951416 1.000000
0.998779 0.964722 0.962006
1.000000 0.503296 0.454193
1.000000 0.464172 0.426514
0.501190 0.976990 0.986481
0.525665 0.972168 0.999939
0.684998 0.933533 0.999817
1.000000 0.619019 0.639130
1.000000 0.446014 0.394745
0.510925 0.977356 0.976410
0.497864 0.976959 0.983337
0.565582 0.970612 0.999878
0.961487 0.858276 0.959717
1.000000 0.535400 0.537109
0.519958 0.977722 0.969940
0.502533 0.977203 0.971405
0.520477 0.977661 0.976135
0.752716 0.973816 0.999908
1.000000 0.731964 0.782990
0.534393 0.984985 0.950623
0.533447 0.985046 0.946075
0.528839 0.986664 0.924896
0.614227 0.995270 0.926361
0.986725 1.000000 0.998962
