public/LUTs/F-6770-STD.cube
# Copyright: (C) Copyright 2010-2021 by IWLTBAP SAS
# Cannot be resold, shared or otherwise redistributed
# Website: https://luts.iwltbap.com
TITLE "IWLTBAP 6770 (Rec.709, sRGB, DCI-P3)"
LUT_3D_SIZE 9
0.039734 0.041870 0.043457
0.131592 0.046997 0.039734
0.245148 0.057495 0.036652
0.373138 0.072876 0.035187
0.501678 0.085663 0.035187
0.622223 0.091827 0.035187
0.734955 0.089905 0.035187
0.844879 0.083679 0.035187
0.946350 0.075012 0.035187
0.039734 0.126373 0.076660
0.139648 0.130707 0.063904
0.259094 0.142517 0.048950
0.384857 0.157776 0.040405
0.507202 0.169983 0.037689
0.623413 0.176453 0.036285
0.735687 0.177338 0.035553
0.847351 0.174469 0.035187
0.948761 0.169769 0.035553
0.038391 0.215973 0.113861
0.142120 0.217072 0.099548
0.265594 0.230713 0.077942
0.389893 0.252228 0.054688
0.508789 0.266083 0.042328
0.623322 0.273315 0.038391
0.736633 0.275574 0.036285
0.851196 0.274902 0.035553
0.952576 0.273041 0.035187
0.037323 0.294006 0.143219
0.137207 0.291229 0.131226
0.259888 0.301025 0.116669
0.386047 0.331299 0.089752
0.505096 0.363007 0.057678
0.621246 0.376526 0.042328
0.737030 0.381592 0.038025
0.854034 0.383392 0.036285
0.955505 0.383270 0.035187
0.037323 0.353638 0.158783
0.127197 0.347229 0.150146
0.240631 0.353210 0.142944
0.365662 0.378723 0.133453
0.491180 0.428528 0.099548
0.615692 0.475250 0.056702
0.736725 0.491913 0.040405
0.856354 0.496826 0.036987
0.957581 0.498718 0.035553
0.037689 0.403137 0.166351
0.114288 0.392822 0.159058
0.213226 0.392822 0.155426
0.329620 0.412598 0.156128
0.455566 0.453674 0.149658
0.591583 0.527283 0.106384
0.730438 0.592041 0.053680
0.858002 0.613342 0.037689
0.959290 0.617218 0.035553
0.038025 0.454010 0.174500
0.102600 0.439972 0.166595
0.186371 0.432678 0.162140
0.290375 0.443176 0.165894
0.411346 0.476105 0.174042
0.545197 0.534302 0.168640
0.698059 0.633270 0.114166
0.848907 0.711609 0.052643
0.959717 0.736053 0.035919
0.040131 0.513641 0.188568
0.098389 0.496826 0.179718
0.170563 0.482941 0.173126
0.262146 0.483246 0.175140
0.374786 0.506348 0.188568
0.504608 0.554199 0.205933
0.648529 0.630157 0.201538
0.811096 0.745209 0.134552
0.952454 0.832642 0.058655
0.049225 0.581573 0.208954
0.103302 0.563080 0.199585
0.168030 0.544769 0.191223
0.249329 0.536316 0.190399
0.352692 0.548859 0.204620
0.476990 0.588043 0.234833
0.614258 0.650299 0.267517
0.759430 0.736786 0.264435
0.926941 0.871338 0.167480
0.040710 0.064240 0.122162
0.126892 0.066132 0.120331
0.236816 0.071533 0.113190
0.366394 0.080475 0.104370
0.499268 0.091064 0.100220
0.622772 0.096924 0.102661
0.736328 0.095459 0.109039
0.845337 0.088379 0.116364
0.945923 0.079224 0.123047
0.040131 0.157990 0.161163
0.135529 0.157501 0.153656
0.253387 0.160156 0.140259
0.381866 0.166992 0.126282
0.507294 0.175781 0.117584
0.624786 0.181641 0.115723
0.736603 0.182312 0.118530
0.847076 0.178833 0.122467
0.947968 0.173553 0.127197
0.038696 0.256073 0.201508
0.137207 0.252533 0.190796
0.259583 0.254700 0.172668
0.387939 0.263123 0.151154
0.509308 0.271454 0.138123
0.624298 0.276703 0.131470
0.737091 0.278534 0.129761
0.850708 0.277679 0.130310
0.951782 0.275726 0.132294
0.037323 0.338715 0.228912
0.130707 0.332458 0.218597
0.251068 0.333221 0.205353
0.381165 0.348419 0.182495
0.504242 0.368896 0.157104
0.621399 0.379028 0.144501
0.737061 0.383270 0.138641
0.853821 0.384552 0.136475
0.955200 0.384277 0.136475
0.036652 0.398132 0.238464
0.119934 0.388763 0.229950
0.230713 0.387512 0.221802
0.357666 0.401611 0.212830
0.487274 0.438354 0.188354
0.614441 0.477539 0.158051
0.736206 0.492554 0.145020
0.855896 0.497162 0.140259
0.957336 0.499084 0.138641
0.036285 0.443237 0.238312
0.108063 0.430786 0.230103
0.204346 0.425140 0.224457
0.320984 0.436005 0.223541
0.448975 0.467224 0.220215
0.587799 0.531647 0.192413
0.728973 0.592316 0.156830
0.857239 0.613037 0.142914
0.959045 0.617126 0.139740
0.036652 0.489075 0.239410
0.097656 0.473389 0.230438
0.179291 0.462189 0.224091
0.282837 0.465912 0.225311
0.404297 0.490936 0.233154
0.539185 0.541901 0.234344
0.694366 0.634857 0.200531
0.847656 0.711304 0.157562
0.959412 0.735596 0.140808
0.039062 0.544891 0.248871
0.094727 0.527039 0.238953
0.165466 0.510681 0.230804
0.256195 0.505981 0.230438
0.368683 0.522461 0.241882
0.498840 0.563904 0.260681
0.643646 0.634491 0.265747
0.808105 0.745789 0.221283
0.951904 0.832275 0.164001
0.047058 0.610748 0.266479
0.100861 0.591644 0.256317
0.164978 0.571533 0.246674
0.245819 0.559570 0.243805
0.348480 0.566681 0.255402
0.472839 0.600037 0.284027
0.610657 0.657623 0.318756
0.756104 0.740173 0.326752
0.924225 0.871460 0.255554
0.045349 0.091431 0.205933
0.124512 0.092163 0.212646
0.229309 0.092163 0.207428
0.357971 0.095459 0.186707
0.495270 0.103943 0.168640
0.623688 0.110626 0.169769
0.738281 0.108643 0.184814
0.845337 0.100128 0.203247
0.944275 0.089142 0.220215
0.047607 0.195282 0.253845
0.134949 0.193268 0.254944
0.248535 0.189423 0.244751
0.378967 0.187347 0.221954
0.508118 0.190002 0.202301
0.627075 0.193451 0.198395
0.737793 0.193268 0.206299
0.845886 0.188568 0.218079
0.946014 0.181854 0.229614
0.045929 0.303589 0.300903
0.137207 0.298737 0.297272
0.255890 0.292267 0.284424
0.387634 0.286377 0.261169
0.511841 0.284729 0.241211
0.626495 0.285858 0.231995
0.737244 0.286377 0.231445
0.848389 0.284912 0.235504
0.949341 0.282013 0.240601
0.041321 0.393829 0.330170
0.128937 0.386444 0.324127
0.245331 0.379913 0.313354
0.378052 0.377625 0.292938
0.504364 0.381104 0.269104
0.621826 0.384857 0.256317
0.736603 0.387085 0.250763
0.852325 0.387604 0.249817
0.953827 0.386993 0.250946
0.038391 0.455933 0.336365
0.116211 0.445709 0.329102
0.223022 0.438263 0.320892
0.350800 0.439453 0.311035
0.483459 0.456604 0.291565
0.612701 0.482239 0.270386
0.734711 0.493988 0.260681
0.854492 0.498199 0.257080
0.956543 0.499878 0.256165
0.036652 0.498138 0.327911
0.103302 0.484528 0.319214
0.196655 0.474030 0.311737
0.313110 0.474548 0.308258
0.442352 0.491913 0.305359
0.583069 0.540253 0.289978
0.726501 0.592834 0.269684
0.855499 0.612091 0.260986
0.958313 0.616821 0.258728
0.036285 0.537170 0.318756
0.093597 0.520508 0.308655
0.173309 0.505646 0.299988
0.275757 0.501617 0.298065
0.397369 0.515991 0.303833
0.532837 0.555359 0.309631
0.689545 0.637482 0.295410
0.845337 0.710236 0.271271
0.958649 0.734406 0.260559
0.038391 0.586029 0.319214
0.092102 0.567322 0.308136
0.161652 0.548401 0.298065
0.251404 0.538330 0.294769
0.363342 0.546661 0.303314
0.493561 0.579407 0.321991
0.638489 0.641632 0.336029
0.804230 0.746277 0.315430
0.950989 0.831329 0.278473
0.046478 0.646301 0.330017
0.099792 0.626526 0.318878
0.164062 0.604950 0.307922
0.244202 0.589264 0.302826
0.346161 0.590332 0.311249
0.470032 0.616608 0.337311
0.607941 0.668213 0.373322
0.752869 0.744965 0.392517
0.920898 0.870911 0.350464
0.055603 0.122498 0.291718
0.128357 0.124878 0.308258
0.227234 0.121338 0.310638
0.353210 0.114471 0.284576
0.491608 0.117310 0.244751
0.624542 0.129578 0.222870
0.741058 0.133514 0.236145
0.844574 0.124023 0.270233
0.940826 0.109619 0.304993
0.063934 0.233398 0.347260
0.143433 0.233551 0.358521
0.250427 0.226257 0.356293
0.378662 0.213593 0.328857
0.509338 0.208038 0.290131
0.630157 0.211975 0.267944
0.739258 0.213409 0.275238
0.843170 0.207489 0.298676
0.941956 0.198425 0.323303
0.066772 0.349823 0.401978
0.149200 0.347839 0.407654
0.260925 0.339050 0.402924
0.391937 0.323883 0.378754
0.517883 0.311127 0.344513
0.630798 0.305786 0.322235
0.736877 0.302979 0.320679
0.843445 0.299225 0.330719
0.944702 0.294525 0.343292
0.060608 0.448700 0.437439
0.140228 0.444489 0.438049
0.250427 0.436310 0.433105
0.383057 0.424072 0.416595
0.509125 0.409760 0.387756
0.624054 0.401337 0.366821
0.734802 0.398041 0.358337
0.847137 0.396240 0.358002
0.949585 0.394531 0.361084
0.049225 0.518372 0.446777
0.123016 0.511047 0.443024
0.225311 0.502350 0.437378
0.352020 0.494354 0.427582
0.484222 0.490417 0.408600
0.611786 0.494934 0.387543
0.732300 0.499023 0.377045
0.851196 0.501251 0.373291
0.954468 0.502106 0.372803
0.039734 0.563293 0.435242
0.105682 0.551819 0.427826
0.196655 0.540314 0.420441
0.312347 0.532959 0.414490
0.441315 0.535187 0.408936
0.580048 0.559296 0.397278
0.722748 0.595581 0.384521
0.851898 0.611511 0.379150
0.956757 0.616791 0.377350
0.037323 0.598450 0.416382
0.094360 0.583069 0.406219
0.172821 0.567047 0.396332
0.274780 0.556702 0.391052
0.395813 0.559235 0.392487
0.529541 0.582001 0.397736
0.684509 0.644592 0.395355
0.841583 0.708923 0.385620
0.956940 0.732361 0.380066
0.039062 0.638428 0.403656
0.093231 0.620209 0.392029
0.162628 0.600281 0.380371
0.252167 0.585480 0.374023
0.363007 0.584808 0.378174
0.491791 0.606018 0.393951
0.634979 0.655334 0.412323
0.799835 0.747772 0.411407
0.949463 0.829529 0.393372
0.048157 0.688202 0.400787
0.102936 0.668243 0.388947
0.168030 0.645782 0.376678
0.248047 0.627106 0.369324
0.348694 0.621918 0.374146
0.470917 0.640167 0.396606
0.607574 0.683807 0.431824
0.750763 0.752167 0.459839
0.917175 0.869812 0.445221
0.073090 0.158478 0.380890
0.140472 0.162567 0.402374
0.232727 0.158752 0.414093
0.353119 0.143097 0.392029
0.488983 0.131012 0.339355
0.623474 0.137695 0.292542
0.742950 0.153107 0.280151
0.843201 0.157288 0.307159
0.935181 0.145935 0.358978
0.089813 0.269897 0.437714
0.162628 0.273193 0.455719
0.261261 0.266815 0.463745
0.383057 0.245941 0.440765
0.510742 0.225739 0.390778
0.631500 0.223083 0.346252
0.740234 0.231873 0.332489
0.838654 0.235199 0.352509
0.935059 0.228302 0.392426
0.099792 0.388763 0.495880
0.174652 0.390991 0.508820
0.277374 0.384460 0.514008
0.401367 0.363281 0.494873
0.524323 0.338379 0.452698
0.635101 0.325439 0.412109
0.736206 0.323883 0.394684
0.835175 0.322571 0.404205
0.936584 0.317383 0.427887
0.093994 0.493347 0.537903
0.167084 0.493805 0.544708
0.269165 0.488892 0.547607
0.394379 0.473633 0.535980
0.519012 0.451721 0.507050
0.629669 0.433105 0.473633
0.731842 0.421661 0.453186
0.836243 0.415100 0.451233
0.940918 0.410126 0.459045
0.075256 0.571991 0.555389
0.144775 0.569641 0.556152
0.242249 0.564850 0.555969
0.364899 0.555267 0.549774
0.494446 0.541962 0.534424
0.616272 0.527863 0.510895
0.728302 0.516357 0.490723
0.842377 0.511597 0.483154
0.948029 0.509552 0.482330
0.055084 0.625916 0.549103
0.120270 0.619507 0.545044
0.209656 0.611603 0.540710
0.324493 0.603149 0.535797
0.451782 0.595886 0.528870
0.584015 0.595886 0.516663
0.718781 0.606415 0.502380
0.845673 0.614044 0.496033
0.953430 0.618011 0.493988
0.043060 0.664917 0.528137
0.103302 0.653809 0.520081
0.183411 0.640961 0.511749
0.286438 0.629181 0.505341
0.406219 0.622955 0.502899
0.535675 0.628357 0.503448
0.682465 0.662567 0.502899
0.835999 0.709534 0.500427
0.953766 0.730133 0.498444
0.043060 0.700562 0.504181
0.100494 0.685272 0.493530
0.173065 0.667328 0.482208
0.264404 0.650970 0.474030
0.373962 0.642731 0.473389
0.498962 0.650574 0.483276
0.636597 0.681732 0.499634
0.795868 0.753571 0.509888
0.947083 0.827118 0.507416
0.054047 0.739471 0.484039
0.112366 0.720917 0.472168
0.180817 0.698975 0.459442
0.261841 0.678467 0.450165
0.360565 0.667603 0.450897
0.478851 0.676147 0.467773
0.611694 0.708771 0.499054
0.750824 0.765106 0.531067
0.912811 0.868683 0.539185
0.099792 0.197479 0.471527
0.162628 0.202362 0.492645
0.247253 0.200806 0.511566
0.358734 0.181000 0.500275
0.487823 0.153107 0.445282
0.620148 0.144409 0.379211
0.741760 0.157288 0.344269
0.842560 0.173370 0.351654
0.927277 0.183350 0.387482
0.123627 0.304230 0.523865
0.190369 0.309265 0.543396
0.280182 0.306641 0.559814
0.392914 0.283264 0.547882
0.514038 0.248932 0.496399
0.631653 0.231537 0.435516
0.740173 0.237213 0.402527
0.836151 0.250702 0.406433
0.923340 0.261536 0.434967
0.140472 0.419922 0.580017
0.208740 0.424591 0.595703
0.301788 0.422485 0.609222
0.416260 0.401337 0.600525
0.532959 0.366425 0.559235
0.639557 0.340759 0.507050
0.737030 0.334991 0.473846
0.829041 0.340393 0.469086
0.920410 0.346985 0.485382
0.136627 0.525330 0.624939
0.203735 0.528656 0.634735
0.296814 0.528442 0.644531
0.413330 0.515656 0.641693
0.532227 0.489136 0.616241
0.638062 0.461792 0.577271
0.732513 0.444977 0.544220
0.825012 0.438446 0.529419
0.922607 0.435211 0.532166
0.112701 0.609589 0.650055
0.177979 0.610779 0.654144
0.269287 0.611145 0.659302
0.386047 0.605682 0.659790
0.510071 0.591156 0.648560
0.625275 0.572052 0.626709
0.726257 0.550690 0.597412
0.826630 0.536133 0.578491
0.933960 0.526764 0.572784
0.082367 0.673279 0.653900
0.146088 0.671509 0.653351
0.234100 0.669373 0.653595
0.347229 0.665497 0.653107
0.471832 0.657745 0.648712
0.596191 0.647949 0.639221
0.716034 0.637054 0.622070
0.833099 0.628265 0.607269
0.943848 0.624542 0.601135
0.060089 0.722260 0.639893
0.122406 0.716614 0.635559
0.205688 0.709869 0.631073
0.311218 0.702332 0.627350
0.430328 0.694702 0.624390
0.554443 0.689636 0.621765
0.687164 0.696228 0.618042
0.828857 0.716858 0.615204
0.948151 0.729401 0.613220
0.054047 0.762787 0.614410
0.116821 0.752533 0.606689
0.195465 0.739990 0.598175
0.291168 0.726685 0.591034
0.400696 0.715881 0.588135
0.520416 0.713257 0.591827
0.648743 0.725464 0.601593
0.795197 0.768707 0.613220
0.943207 0.824890 0.619629
0.063965 0.799774 0.584076
0.129547 0.785034 0.573761
0.204895 0.766602 0.562195
0.290375 0.747375 0.552673
0.388123 0.732819 0.549835
0.500427 0.731476 0.559387
0.625183 0.749603 0.582428
0.756256 0.788818 0.611481
0.908447 0.869598 0.632843
0.136108 0.237885 0.561371
0.194244 0.242767 0.579651
0.270752 0.244232 0.601501
0.371307 0.225739 0.602814
0.489899 0.185272 0.555756
0.616089 0.156067 0.478424
0.737640 0.158478 0.421570
0.840973 0.176666 0.410797
0.926361 0.195312 0.433441
0.163086 0.337250 0.606171
0.224243 0.342560 0.623840
0.305145 0.343658 0.644531
0.407440 0.323181 0.645355
0.519775 0.278931 0.601746
0.632050 0.243408 0.531738
0.739136 0.239197 0.480713
0.835144 0.254395 0.470123
0.920471 0.273743 0.488403
0.183868 0.446381 0.656830
0.246124 0.451477 0.671600
0.329498 0.453339 0.689636
0.434082 0.436218 0.692413
0.543610 0.395752 0.659302
0.645447 0.356628 0.602051
0.739502 0.341858 0.555878
0.828247 0.347412 0.539917
0.913513 0.360992 0.546509
0.181915 0.548798 0.701050
0.243073 0.552673 0.710815
0.326508 0.555756 0.724121
0.433838 0.547638 0.730133
0.547089 0.520935 0.712891
0.648956 0.486664 0.673981
0.738434 0.462433 0.634064
0.823242 0.453278 0.609589
0.908508 0.453278 0.600067
0.155060 0.634277 0.730225
0.215088 0.636475 0.735168
0.298096 0.639771 0.743225
0.407562 0.639465 0.749878
0.527313 0.628235 0.745544
0.637726 0.606201 0.725525
0.733582 0.581512 0.696075
0.821411 0.561981 0.668304
0.909485 0.548523 0.647797
0.117493 0.703522 0.742523
0.178192 0.704041 0.744080
0.261261 0.705841 0.747528
0.370667 0.707520 0.751892
0.493195 0.704651 0.752686
0.612244 0.694153 0.745544
0.720947 0.678467 0.730286
0.820923 0.659821 0.708252
0.920380 0.642487 0.688141
0.086761 0.762329 0.739807
0.149719 0.760620 0.738525
0.233429 0.759186 0.737946
0.339905 0.757996 0.738403
0.459412 0.755035 0.738831
0.580292 0.749420 0.737244
0.699463 0.743835 0.733521
0.820740 0.742706 0.728760
0.936218 0.735901 0.716644
0.073517 0.813843 0.723328
0.141571 0.808899 0.719238
0.225830 0.802734 0.714844
0.326874 0.795776 0.711182
0.438232 0.788330 0.709442
0.554169 0.782471 0.710358
0.672852 0.782410 0.714478
0.801147 0.798035 0.722137
0.937408 0.826477 0.728271
0.079926 0.860352 0.697266
0.154297 0.851501 0.690277
0.239807 0.839691 0.682251
0.333008 0.825745 0.674927
0.432526 0.812195 0.671021
0.539185 0.804535 0.674225
0.653229 0.808746 0.686798
0.771790 0.828125 0.706604
0.906494 0.877441 0.728760
0.179535 0.278534 0.648865
0.233429 0.282562 0.663452
0.301788 0.286407 0.684784
0.390686 0.272919 0.695984
0.496918 0.226074 0.662720
0.613892 0.174927 0.583740
0.732422 0.160156 0.509155
0.837769 0.175354 0.479950
0.925812 0.197662 0.490051
0.205688 0.369415 0.685211
0.261841 0.373810 0.699646
0.334167 0.377808 0.720825
0.425964 0.363190 0.731964
0.528717 0.314606 0.701630
0.634064 0.260590 0.630798
0.738251 0.241119 0.565277
0.834320 0.253784 0.540253
0.919739 0.277008 0.548981
0.226898 0.470764 0.729187
0.283661 0.475006 0.741394
0.358124 0.479309 0.760193
0.452911 0.468109 0.772186
0.555573 0.426361 0.750977
0.652893 0.374512 0.695160
0.743896 0.347748 0.639740
0.830048 0.350494 0.613342
0.912170 0.367035 0.612823
0.225494 0.568512 0.770630
0.281006 0.571533 0.778809
0.355286 0.576050 0.792725
0.453186 0.572540 0.805115
0.561554 0.547882 0.797455
0.661255 0.508606 0.763275
0.747833 0.477325 0.720367
0.827667 0.464569 0.689667
0.906067 0.464325 0.673584
0.196686 0.652222 0.800964
0.251404 0.653992 0.805176
0.325073 0.658081 0.813782
0.425690 0.661133 0.824371
0.542206 0.654266 0.826996
0.652374 0.633789 0.813324
0.746094 0.607178 0.786163
0.827667 0.583862 0.755890
0.904877 0.566162 0.728607
0.154816 0.722809 0.818298
0.210632 0.723663 0.820068
0.285889 0.726685 0.824646
0.388428 0.731659 0.831818
0.509308 0.734161 0.837738
0.628937 0.728424 0.836273
0.735077 0.712860 0.823853
0.826630 0.691010 0.801819
0.909271 0.666229 0.773651
0.119049 0.787231 0.825104
0.179047 0.787170 0.825317
0.258667 0.788544 0.827087
0.362488 0.791748 0.830750
0.482300 0.794861 0.835205
0.603912 0.794342 0.837555
0.718323 0.788330 0.835205
0.823761 0.780579 0.829865
0.917725 0.758972 0.807556
0.101562 0.849030 0.822296
0.170807 0.847656 0.821045
0.256836 0.846497 0.820251
0.360474 0.845642 0.820618
0.474335 0.844452 0.821991
0.589966 0.842102 0.823914
0.703308 0.839447 0.826080
0.815277 0.841644 0.831909
0.927734 0.843079 0.831299
0.104706 0.909058 0.811737
0.185944 0.905762 0.808716
0.279755 0.901154 0.805267
0.380676 0.894897 0.802216
0.484528 0.887329 0.800293
0.588989 0.880341 0.800903
0.694458 0.877319 0.805664
0.800171 0.881378 0.815247
0.911652 0.898773 0.829468
0.225891 0.318024 0.733154
0.275757 0.321045 0.744293
0.336609 0.326141 0.763000
0.414368 0.318756 0.781097
0.508209 0.270477 0.763275
0.614441 0.199463 0.688660
0.728210 0.164001 0.600739
0.834320 0.172241 0.555328
0.924805 0.195709 0.554871
0.249329 0.400757 0.761810
0.300842 0.404022 0.772858
0.365326 0.409760 0.792297
0.447113 0.401794 0.810883
0.540466 0.353119 0.795135
0.638062 0.282013 0.728760
0.738281 0.244537 0.652557
0.833954 0.251312 0.614777
0.919739 0.276306 0.615814
0.268860 0.494232 0.798828
0.320740 0.497162 0.808228
0.387024 0.502808 0.825928
0.472748 0.497711 0.844482
0.568665 0.457397 0.835693
0.661530 0.394043 0.785217
0.749573 0.353729 0.723785
0.833649 0.351898 0.689270
0.913513 0.369904 0.683594
0.266479 0.586761 0.837097
0.317596 0.588623 0.843292
0.383301 0.593506 0.856384
0.472076 0.593964 0.872894
0.575684 0.572296 0.874268
0.673920 0.528931 0.846588
0.759003 0.490723 0.803802
0.835602 0.474548 0.769745
0.909180 0.474213 0.750244
0.235657 0.667755 0.867188
0.285919 0.668610 0.870331
0.350677 0.672424 0.878204
0.442017 0.677399 0.890778
0.554932 0.674225 0.899231
0.666351 0.655975 0.892273
0.760498 0.629181 0.869812
0.838989 0.604431 0.840637
0.909973 0.584808 0.811523
0.190552 0.737579 0.887054
0.241608 0.737976 0.888458
0.307953 0.740723 0.892822
0.401855 0.747040 0.901184
0.520477 0.753571 0.910858
0.642761 0.753082 0.915100
0.750763 0.741364 0.908417
0.839722 0.719757 0.889526
0.915863 0.692993 0.862122
0.151794 0.804077 0.900818
0.207581 0.804413 0.901611
0.279755 0.806580 0.904175
0.377838 0.812042 0.909546
0.497498 0.819885 0.917145
0.621948 0.825592 0.923828
0.737671 0.823944 0.925140
0.838135 0.812439 0.917511
0.925323 0.793030 0.901337
0.133301 0.872772 0.911316
0.200623 0.873230 0.911865
0.284088 0.874878 0.913513
0.386841 0.878510 0.916870
0.502838 0.883545 0.921661
0.620880 0.887695 0.926483
0.733765 0.888275 0.929443
0.838226 0.885620 0.930695
0.936737 0.888641 0.936737
0.136627 0.942352 0.918457
0.220703 0.942657 0.918610
0.318695 0.943207 0.919464
0.424347 0.943817 0.921051
0.532623 0.944122 0.922974
0.638397 0.943542 0.924438
0.739990 0.942139 0.925873
0.837280 0.940613 0.929138
0.931427 0.940979 0.936646
