public/LUTs/F-6770-STD.cube
# Copyright: (C) Copyright 2010-2021 by IWLTBAP SAS
# Cannot be resold, shared or otherwise redistributed
# Website: https://luts.iwltbap.com
TITLE "IWLTBAP 6770 (Rec.709, sRGB, DCI-P3)"
LUT_3D_SIZE 5
0.039734 0.041870 0.043457
0.245148 0.057495 0.036652
0.501678 0.085663 0.035187
0.734955 0.089905 0.035187
0.946350 0.075012 0.035187
0.038391 0.215973 0.113861
0.265594 0.230713 0.077942
0.508789 0.266083 0.042328
0.736633 0.275574 0.036285
0.952576 0.273041 0.035187
0.037323 0.353638 0.158783
0.240631 0.353210 0.142944
0.491180 0.428528 0.099548
0.736725 0.491913 0.040405
0.957581 0.498718 0.035553
0.038025 0.454010 0.174500
0.186371 0.432678 0.162140
0.411346 0.476105 0.174042
0.698059 0.633270 0.114166
0.959717 0.736053 0.035919
0.049225 0.581573 0.208954
0.168030 0.544769 0.191223
0.352692 0.548859 0.204620
0.614258 0.650299 0.267517
0.926941 0.871338 0.167480
0.045349 0.091431 0.205933
0.229309 0.092163 0.207428
0.495270 0.103943 0.168640
0.738281 0.108643 0.184814
0.944275 0.089142 0.220215
0.045929 0.303589 0.300903
0.255890 0.292267 0.284424
0.511841 0.284729 0.241211
0.737244 0.286377 0.231445
0.949341 0.282013 0.240601
0.038391 0.455933 0.336365
0.223022 0.438263 0.320892
0.483459 0.456604 0.291565
0.734711 0.493988 0.260681
0.956543 0.499878 0.256165
0.036285 0.537170 0.318756
0.173309 0.505646 0.299988
0.397369 0.515991 0.303833
0.689545 0.637482 0.295410
0.958649 0.734406 0.260559
0.046478 0.646301 0.330017
0.164062 0.604950 0.307922
0.346161 0.590332 0.311249
0.607941 0.668213 0.373322
0.920898 0.870911 0.350464
0.073090 0.158478 0.380890
0.232727 0.158752 0.414093
0.488983 0.131012 0.339355
0.742950 0.153107 0.280151
0.935181 0.145935 0.358978
0.099792 0.388763 0.495880
0.277374 0.384460 0.514008
0.524323 0.338379 0.452698
0.736206 0.323883 0.394684
0.936584 0.317383 0.427887
0.075256 0.571991 0.555389
0.242249 0.564850 0.555969
0.494446 0.541962 0.534424
0.728302 0.516357 0.490723
0.948029 0.509552 0.482330
0.043060 0.664917 0.528137
0.183411 0.640961 0.511749
0.406219 0.622955 0.502899
0.682465 0.662567 0.502899
0.953766 0.730133 0.498444
0.054047 0.739471 0.484039
0.180817 0.698975 0.459442
0.360565 0.667603 0.450897
0.611694 0.708771 0.499054
0.912811 0.868683 0.539185
0.136108 0.237885 0.561371
0.270752 0.244232 0.601501
0.489899 0.185272 0.555756
0.737640 0.158478 0.421570
0.926361 0.195312 0.433441
0.183868 0.446381 0.656830
0.329498 0.453339 0.689636
0.543610 0.395752 0.659302
0.739502 0.341858 0.555878
0.913513 0.360992 0.546509
0.155060 0.634277 0.730225
0.298096 0.639771 0.743225
0.527313 0.628235 0.745544
0.733582 0.581512 0.696075
0.909485 0.548523 0.647797
0.086761 0.762329 0.739807
0.233429 0.759186 0.737946
0.459412 0.755035 0.738831
0.699463 0.743835 0.733521
0.936218 0.735901 0.716644
0.079926 0.860352 0.697266
0.239807 0.839691 0.682251
0.432526 0.812195 0.671021
0.653229 0.808746 0.686798
0.906494 0.877441 0.728760
0.225891 0.318024 0.733154
0.336609 0.326141 0.763000
0.508209 0.270477 0.763275
0.728210 0.164001 0.600739
0.924805 0.195709 0.554871
0.268860 0.494232 0.798828
0.387024 0.502808 0.825928
0.568665 0.457397 0.835693
0.749573 0.353729 0.723785
0.913513 0.369904 0.683594
0.235657 0.667755 0.867188
0.350677 0.672424 0.878204
0.554932 0.674225 0.899231
0.760498 0.629181 0.869812
0.909973 0.584808 0.811523
0.151794 0.804077 0.900818
0.279755 0.806580 0.904175
0.497498 0.819885 0.917145
0.737671 0.823944 0.925140
0.925323 0.793030 0.901337
0.136627 0.942352 0.918457
0.318695 0.943207 0.919464
0.532623 0.944122 0.922974
0.739990 0.942139 0.925873
0.931427 0.940979 0.936646
