public/LUTs/F-6770-STD.cube
# Copyright: (C) Copyright 2010-2021 by IWLTBAP SAS
# Cannot be resold, shared or otherwise redistributed
# Website: https://luts.iwltbap.com
TITLE "IWLTBAP 6770 (Rec.709, sRGB, DCI-P3)"
LUT_3D_SIZE 33
0.039734 0.041870 0.043457
0.060577 0.042450 0.042328
0.082764 0.043610 0.041351
0.106384 0.045319 0.040710
0.131592 0.046997 0.039734
0.158020 0.049164 0.039062
0.185944 0.051331 0.038025
0.215088 0.054474 0.037323
0.245148 0.057495 0.036652
0.276367 0.061432 0.036285
0.308197 0.064758 0.035919
0.340607 0.068909 0.035553
0.373138 0.072876 0.035187
0.405701 0.076324 0.035187
0.438080 0.080048 0.035187
0.470093 0.083282 0.035187
0.501678 0.085663 0.035187
0.532715 0.088013 0.035187
0.563110 0.089905 0.035187
0.592957 0.091064 0.035187
0.622223 0.091827 0.035187
0.651001 0.091827 0.035187
0.679321 0.091827 0.035187
0.707275 0.091064 0.035187
0.734955 0.089905 0.035187
0.762512 0.088806 0.035187
0.789948 0.087250 0.035187
0.817383 0.085297 0.035187
0.844879 0.083679 0.035187
0.872528 0.081665 0.035187
0.900299 0.079224 0.035187
0.928253 0.077179 0.035187
0.946350 0.075012 0.035187
0.039734 0.061432 0.051056
0.060577 0.061890 0.048950
0.083954 0.063324 0.047333
0.108063 0.064758 0.045105
0.133820 0.066589 0.043427
0.160950 0.068878 0.041687
0.189087 0.071106 0.040710
0.218536 0.074158 0.039703
0.248840 0.077545 0.038696
0.280182 0.081299 0.038025
0.311859 0.084869 0.037323
0.343994 0.088745 0.036652
0.376190 0.092529 0.036285
0.408478 0.096191 0.036285
0.440338 0.099762 0.035919
0.471985 0.102905 0.035919
0.503143 0.105621 0.035553
0.533844 0.107971 0.035553
0.563934 0.109619 0.035553
0.593475 0.110901 0.035553
0.622589 0.111572 0.035187
0.651184 0.111908 0.035187
0.679474 0.111908 0.035187
0.707397 0.111572 0.035187
0.735077 0.110626 0.035187
0.762634 0.109619 0.035187
0.790222 0.108307 0.035187
0.817688 0.106628 0.035187
0.845337 0.104950 0.035187
0.873108 0.103241 0.035187
0.901001 0.101166 0.035187
0.929047 0.099426 0.035187
0.946838 0.097656 0.035187
0.039734 0.082489 0.059143
0.061554 0.082886 0.056702
0.084747 0.084076 0.054657
0.109741 0.085663 0.052094
0.135803 0.087219 0.049469
0.163544 0.089508 0.046753
0.192200 0.091766 0.044006
0.221954 0.094757 0.041992
0.252655 0.098328 0.040710
0.283844 0.101868 0.039734
0.315460 0.105621 0.039062
0.347382 0.109283 0.038391
0.379364 0.113190 0.037689
0.411163 0.116669 0.036987
0.442627 0.120056 0.036652
0.473846 0.123383 0.036285
0.504547 0.126068 0.036285
0.534882 0.128113 0.035919
0.564697 0.130127 0.035919
0.593994 0.131256 0.035553
0.622925 0.132416 0.035553
0.651337 0.132690 0.035553
0.679626 0.132965 0.035553
0.707520 0.132690 0.035187
0.735291 0.131805 0.035187
0.762909 0.131012 0.035187
0.790436 0.129852 0.035187
0.818176 0.128693 0.035187
0.845886 0.127258 0.035187
0.873779 0.125458 0.035187
0.901733 0.123993 0.035187
0.929901 0.122192 0.035187
0.947388 0.120697 0.035187
0.039734 0.103943 0.067566
0.062012 0.104614 0.065277
0.085938 0.105621 0.062469
0.111053 0.106964 0.059631
0.138031 0.108643 0.056183
0.166168 0.110901 0.052612
0.195251 0.113495 0.049469
0.225311 0.116669 0.046753
0.256073 0.120056 0.044037
0.287415 0.123688 0.041992
0.318909 0.127258 0.040710
0.350677 0.131012 0.039734
0.382263 0.134918 0.039062
0.413727 0.138489 0.038391
0.444855 0.141724 0.037689
0.475677 0.144897 0.037323
0.505951 0.147491 0.036652
0.535950 0.149811 0.036285
0.565460 0.151581 0.036285
0.594513 0.153107 0.035919
0.623199 0.154083 0.035919
0.651581 0.154572 0.035553
0.679718 0.154816 0.035553
0.707611 0.154572 0.035553
0.735413 0.154297 0.035553
0.763184 0.153595 0.035187
0.790894 0.152557 0.035187
0.818634 0.151581 0.035187
0.846558 0.150330 0.035187
0.874512 0.149048 0.035187
0.902679 0.147766 0.035187
0.930969 0.146210 0.035187
0.948029 0.144623 0.035553
0.039734 0.126373 0.076660
0.062531 0.126953 0.074158
0.086334 0.127808 0.071106
0.112366 0.128998 0.067566
0.139648 0.130707 0.063904
0.168243 0.132965 0.060089
0.197845 0.135742 0.055695
0.228302 0.139038 0.052124
0.259094 0.142517 0.048950
0.290497 0.146210 0.045715
0.322052 0.150055 0.043457
0.353546 0.154083 0.041687
0.384857 0.157776 0.040405
0.416016 0.161133 0.039734
0.446777 0.164429 0.038696
0.477142 0.167450 0.038025
0.507202 0.169983 0.037689
0.536835 0.172211 0.036987
0.566040 0.174011 0.036652
0.594879 0.175598 0.036285
0.623413 0.176453 0.036285
0.651764 0.177094 0.035919
0.679840 0.177551 0.035919
0.707764 0.177551 0.035553
0.735687 0.177338 0.035553
0.763519 0.176910 0.035553
0.791351 0.176239 0.035553
0.819305 0.175354 0.035187
0.847351 0.174469 0.035187
0.875427 0.173340 0.035187
0.903748 0.172211 0.035187
0.932159 0.170868 0.035187
0.948761 0.169769 0.035553
0.039398 0.149048 0.085907
0.062012 0.149536 0.083160
0.086761 0.150055 0.079956
0.113037 0.151093 0.076660
0.141022 0.152832 0.072418
0.170105 0.155060 0.067993
0.200043 0.158234 0.062958
0.230713 0.161835 0.058655
0.261841 0.165619 0.054169
0.293091 0.169525 0.050537
0.324493 0.173553 0.047333
0.355835 0.177338 0.044586
0.387024 0.181000 0.042328
0.417816 0.184601 0.041046
0.448273 0.187958 0.040070
0.478363 0.190826 0.039398
0.508148 0.193268 0.038391
0.537384 0.195465 0.038025
0.566406 0.197449 0.037323
0.595123 0.198822 0.036987
0.623505 0.199829 0.036652
0.651855 0.200623 0.036285
0.679932 0.200989 0.035919
0.707977 0.201172 0.035919
0.735901 0.200989 0.035553
0.763885 0.200806 0.035553
0.791931 0.200195 0.035553
0.820038 0.199615 0.035553
0.848175 0.198822 0.035553
0.876556 0.198029 0.035187
0.904999 0.197052 0.035187
0.933563 0.196045 0.035187
0.949615 0.195068 0.035553
0.039062 0.171783 0.095642
0.062012 0.171997 0.092712
0.087128 0.172455 0.089355
0.113647 0.173126 0.085510
0.141846 0.174683 0.081573
0.171234 0.177094 0.076691
0.201630 0.180145 0.071564
0.232391 0.183990 0.066223
0.263641 0.188171 0.061066
0.295074 0.192657 0.056183
0.326416 0.196838 0.052124
0.357544 0.200989 0.048401
0.388519 0.205017 0.045715
0.419189 0.208435 0.043457
0.449371 0.211761 0.041687
0.479218 0.214691 0.040710
0.508698 0.217224 0.039734
0.537750 0.219391 0.038696
0.566650 0.221191 0.038025
0.595154 0.222565 0.037689
0.623505 0.223816 0.036987
0.651855 0.224518 0.036652
0.680054 0.225037 0.036285
0.708099 0.225189 0.036285
0.736206 0.225372 0.035919
0.764374 0.225037 0.035919
0.792511 0.224670 0.035553
0.820831 0.224335 0.035553
0.849182 0.223602 0.035553
0.877747 0.223083 0.035553
0.906372 0.222412 0.035553
0.934662 0.221527 0.035553
0.950592 0.220825 0.035553
0.038696 0.194092 0.105042
0.061554 0.194092 0.101624
0.086761 0.194275 0.098511
0.113647 0.194885 0.094574
0.142120 0.196259 0.090515
0.171936 0.198242 0.085938
0.202362 0.201355 0.080383
0.233612 0.205414 0.074585
0.265015 0.209930 0.068909
0.296417 0.215057 0.062958
0.327606 0.219940 0.057678
0.358734 0.224518 0.053680
0.389496 0.228821 0.049469
0.419983 0.232544 0.046783
0.449951 0.235901 0.044037
0.479614 0.238861 0.041992
0.508942 0.241638 0.041046
0.537811 0.243713 0.040070
0.566650 0.245667 0.039062
0.595123 0.247223 0.038391
0.623474 0.248322 0.037689
0.651794 0.249115 0.037323
0.680054 0.249603 0.036652
0.708130 0.250061 0.036285
0.736481 0.250061 0.036285
0.764771 0.250061 0.035919
0.793121 0.249908 0.035919
0.821625 0.249420 0.035553
0.850250 0.249115 0.035553
0.878906 0.248474 0.035553
0.907837 0.248016 0.035553
0.935547 0.247406 0.035553
0.951599 0.246735 0.035553
0.038391 0.215973 0.113861
0.061066 0.215790 0.110657
0.086334 0.215790 0.107391
0.113312 0.215973 0.103699
0.142120 0.217072 0.099548
0.171936 0.218842 0.095276
0.202789 0.221863 0.090149
0.233917 0.225891 0.084351
0.265594 0.230713 0.077942
0.297089 0.236237 0.071136
0.328278 0.241974 0.064850
0.359283 0.247406 0.059631
0.389893 0.252228 0.054688
0.420166 0.256561 0.050537
0.450043 0.260162 0.047333
0.479614 0.263428 0.044586
0.508789 0.266083 0.042328
0.537689 0.268433 0.041046
0.566315 0.270447 0.040070
0.594879 0.272034 0.039398
0.623322 0.273315 0.038391
0.651581 0.274170 0.037689
0.679871 0.274902 0.037323
0.708252 0.275299 0.036652
0.736633 0.275574 0.036285
0.765106 0.275574 0.036285
0.793610 0.275452 0.035919
0.822357 0.275299 0.035919
0.851196 0.274902 0.035553
0.880127 0.274597 0.035553
0.909180 0.274048 0.035553
0.936432 0.273590 0.035553
0.952576 0.273041 0.035187
0.038025 0.237213 0.122467
0.060577 0.236572 0.119141
0.085541 0.236389 0.116089
0.112701 0.236572 0.112274
0.141571 0.237213 0.108368
0.171478 0.238861 0.104034
0.202179 0.241302 0.099548
0.233612 0.245148 0.094208
0.265442 0.250214 0.087860
0.297089 0.256073 0.080780
0.328430 0.262543 0.073700
0.359283 0.268982 0.067139
0.389801 0.274902 0.061066
0.419983 0.280060 0.055695
0.449677 0.284332 0.051575
0.479156 0.287842 0.047882
0.508270 0.290955 0.045135
0.537170 0.293488 0.042877
0.565979 0.295593 0.041351
0.594452 0.297272 0.040405
0.622955 0.298737 0.039398
0.651337 0.299744 0.038391
0.679840 0.300629 0.037689
0.708252 0.301147 0.037323
0.736816 0.301544 0.036652
0.765442 0.301697 0.036285
0.794098 0.301697 0.036285
0.823029 0.301544 0.035919
0.852051 0.301300 0.035919
0.881195 0.301025 0.035553
0.910400 0.300629 0.035553
0.937225 0.300262 0.035553
0.953491 0.299866 0.035187
0.037689 0.257294 0.130035
0.059601 0.256561 0.127197
0.084747 0.255920 0.123962
0.111694 0.255920 0.120361
0.140472 0.256378 0.116669
0.170349 0.257721 0.112579
0.201233 0.260010 0.108368
0.232574 0.263428 0.103699
0.264526 0.268433 0.097778
0.296295 0.274445 0.091248
0.327820 0.281433 0.083954
0.358734 0.288818 0.076263
0.389282 0.295837 0.068909
0.419281 0.302307 0.062042
0.448944 0.307648 0.056702
0.478394 0.312134 0.052124
0.507538 0.315582 0.048401
0.536591 0.318481 0.045135
0.565338 0.320801 0.042877
0.593933 0.322815 0.041351
0.622528 0.324371 0.040405
0.651062 0.325653 0.039398
0.679626 0.326599 0.038391
0.708130 0.327454 0.037689
0.736877 0.327881 0.037323
0.765686 0.328247 0.036652
0.794586 0.328369 0.036285
0.823608 0.328369 0.035919
0.852783 0.328369 0.035919
0.882019 0.328125 0.035553
0.911499 0.327881 0.035553
0.937927 0.327667 0.035553
0.954254 0.327301 0.035187
0.037323 0.276123 0.137024
0.059113 0.275299 0.134277
0.083954 0.274597 0.131226
0.110748 0.274170 0.127777
0.139130 0.274445 0.124268
0.168732 0.275452 0.120667
0.199249 0.277557 0.116669
0.230713 0.280762 0.112579
0.262573 0.285278 0.107697
0.294525 0.291229 0.101990
0.326263 0.298340 0.094910
0.357452 0.306396 0.087097
0.388123 0.314728 0.078735
0.418182 0.322693 0.070709
0.447937 0.329529 0.063446
0.477295 0.335297 0.057159
0.506561 0.339844 0.052643
0.535553 0.343445 0.048401
0.564453 0.346191 0.045135
0.593201 0.348511 0.042877
0.621948 0.350372 0.041351
0.650665 0.351898 0.040070
0.679321 0.353088 0.039062
0.708099 0.353943 0.038391
0.736938 0.354584 0.037689
0.765900 0.355133 0.036987
0.794983 0.355438 0.036652
0.824158 0.355560 0.036285
0.853455 0.355682 0.035919
0.882874 0.355560 0.035919
0.912415 0.355438 0.035553
0.938507 0.355347 0.035553
0.954926 0.355133 0.035187
0.037323 0.294006 0.143219
0.058624 0.292816 0.140259
0.083160 0.291901 0.137604
0.109070 0.291229 0.134277
0.137207 0.291229 0.131226
0.166412 0.292145 0.127777
0.196838 0.293884 0.124268
0.228149 0.296875 0.120667
0.259888 0.301025 0.116669
0.291870 0.306641 0.111938
0.323639 0.313751 0.105713
0.355164 0.321960 0.098511
0.386047 0.331299 0.089752
0.416351 0.340637 0.080780
0.446289 0.349304 0.071991
0.475739 0.356842 0.064392
0.505096 0.363007 0.057678
0.534241 0.367767 0.052643
0.563354 0.371460 0.048401
0.592377 0.374207 0.045135
0.621246 0.376526 0.042328
0.650116 0.378235 0.041046
0.679077 0.379608 0.040070
0.707977 0.380707 0.039062
0.737030 0.381592 0.038025
0.766052 0.382294 0.037323
0.795319 0.382782 0.036987
0.824615 0.383087 0.036652
0.854034 0.383392 0.036285
0.883575 0.383484 0.035919
0.913269 0.383484 0.035553
0.938995 0.383392 0.035553
0.955505 0.383270 0.035187
0.037323 0.310547 0.148407
0.058105 0.309174 0.145813
0.081940 0.307892 0.142944
0.107727 0.307037 0.140015
0.134949 0.306915 0.137024
0.163818 0.307556 0.134003
0.193817 0.309174 0.131226
0.224609 0.311768 0.128082
0.256195 0.315826 0.124878
0.288055 0.321014 0.120972
0.320007 0.327667 0.116089
0.351685 0.335907 0.109680
0.382874 0.345428 0.101624
0.413544 0.355804 0.092712
0.443756 0.366211 0.082794
0.473541 0.375946 0.073273
0.503204 0.384064 0.064850
0.532715 0.390808 0.057678
0.562073 0.395874 0.052124
0.591278 0.399628 0.047882
0.620422 0.402557 0.044586
0.649597 0.404785 0.041992
0.678650 0.406433 0.040710
0.707794 0.407806 0.039734
0.737061 0.408936 0.038696
0.766296 0.409821 0.038025
0.795654 0.410461 0.037323
0.825134 0.411011 0.036652
0.854706 0.411285 0.036285
0.884308 0.411560 0.035919
0.914062 0.411743 0.035919
0.939545 0.411743 0.035553
0.956055 0.411835 0.035187
0.037323 0.325806 0.152435
0.057098 0.324280 0.150146
0.080719 0.322968 0.147614
0.105682 0.321869 0.145020
0.132690 0.321289 0.142426
0.160706 0.321777 0.139740
0.190125 0.323059 0.137024
0.220551 0.325684 0.134552
0.251678 0.329315 0.131775
0.283264 0.334290 0.128632
0.315094 0.340546 0.125122
0.346924 0.348419 0.120087
0.378448 0.357697 0.113525
0.409393 0.368500 0.105072
0.440125 0.380127 0.095276
0.470428 0.391663 0.084747
0.500519 0.402344 0.074158
0.530457 0.411469 0.065277
0.560211 0.418671 0.057678
0.589874 0.424133 0.051575
0.619354 0.428253 0.047333
0.648834 0.431183 0.043457
0.678223 0.433319 0.041687
0.707611 0.435150 0.040405
0.737030 0.436493 0.039398
0.766449 0.437500 0.038391
0.795990 0.438354 0.037689
0.825623 0.439026 0.036987
0.855286 0.439545 0.036652
0.885040 0.439941 0.036285
0.914825 0.440216 0.035919
0.940002 0.440460 0.035553
0.956543 0.440521 0.035187
0.037323 0.340210 0.155884
0.056580 0.338409 0.153656
0.079468 0.336823 0.151398
0.103973 0.335419 0.149170
0.129822 0.334747 0.146576
0.157501 0.334869 0.144257
0.186188 0.335999 0.141876
0.215820 0.338318 0.139740
0.246460 0.341797 0.137848
0.277618 0.346436 0.135376
0.309326 0.352478 0.132904
0.340942 0.359741 0.129181
0.372620 0.368683 0.124268
0.403900 0.379333 0.117279
0.434967 0.391388 0.108368
0.465912 0.404327 0.097412
0.496613 0.417145 0.086304
0.527161 0.428955 0.075012
0.557526 0.438965 0.065277
0.587860 0.446838 0.057159
0.617920 0.452728 0.051056
0.647888 0.457092 0.046234
0.677582 0.460236 0.042877
0.707275 0.462524 0.041046
0.736938 0.464172 0.039734
0.766632 0.465515 0.038696
0.796326 0.466553 0.038025
0.825989 0.467407 0.037323
0.855835 0.468018 0.036652
0.885681 0.468597 0.036285
0.915649 0.468994 0.035919
0.940460 0.469299 0.035553
0.957092 0.469513 0.035553
0.037323 0.353638 0.158783
0.056091 0.351715 0.156616
0.078247 0.349854 0.154663
0.101929 0.348328 0.152435
0.127197 0.347229 0.150146
0.153809 0.347107 0.148132
0.181671 0.347992 0.146332
0.210632 0.350067 0.144501
0.240631 0.353210 0.142944
0.271332 0.357727 0.141083
0.302551 0.363434 0.139465
0.334045 0.370331 0.137024
0.365662 0.378723 0.133453
0.397034 0.388763 0.128326
0.428528 0.400696 0.120972
0.459869 0.414185 0.111328
0.491180 0.428528 0.099548
0.522522 0.442749 0.087463
0.553772 0.455719 0.075836
0.584869 0.466614 0.065277
0.615692 0.475250 0.056702
0.646271 0.481659 0.050018
0.676636 0.486328 0.045135
0.706818 0.489594 0.041992
0.736725 0.491913 0.040405
0.766693 0.493683 0.039398
0.796509 0.494995 0.038391
0.826447 0.495941 0.037689
0.856354 0.496826 0.036987
0.886353 0.497406 0.036285
0.916382 0.497894 0.035919
0.940918 0.498413 0.035553
0.957581 0.498718 0.035553
0.037323 0.366547 0.160980
0.055573 0.364349 0.159058
0.076935 0.362274 0.157104
0.099792 0.360443 0.154907
0.123932 0.359222 0.152924
0.149719 0.358673 0.151184
0.176880 0.359222 0.149658
0.204895 0.360992 0.148132
0.234283 0.363831 0.147125
0.264252 0.368103 0.145813
0.295074 0.373505 0.144775
0.326263 0.380157 0.143219
0.357544 0.387970 0.141083
0.389099 0.397400 0.137604
0.420715 0.408661 0.132050
0.452271 0.421967 0.124268
0.484222 0.436859 0.113861
0.516205 0.452789 0.101624
0.548340 0.468445 0.088623
0.580414 0.482666 0.076263
0.612244 0.494537 0.065277
0.643890 0.503906 0.056183
0.675049 0.510864 0.048950
0.705841 0.515930 0.044037
0.736328 0.519409 0.041351
0.766632 0.521851 0.039734
0.796783 0.523560 0.038696
0.826782 0.524750 0.037689
0.856873 0.525818 0.036987
0.886963 0.526459 0.036652
0.917114 0.527161 0.035919
0.941376 0.527618 0.035919
0.958069 0.528107 0.035553
0.037689 0.378845 0.162842
0.055084 0.376526 0.161194
0.075256 0.374237 0.159271
0.097260 0.372162 0.157379
0.120880 0.370575 0.155426
0.145569 0.369751 0.153656
0.171692 0.369934 0.152435
0.199036 0.371246 0.151398
0.227417 0.373840 0.150421
0.256836 0.377655 0.149658
0.286987 0.382812 0.149170
0.317688 0.389160 0.148407
0.348816 0.396759 0.147125
0.380188 0.405640 0.145294
0.411713 0.416168 0.141632
0.443604 0.428619 0.135956
0.475677 0.443237 0.127472
0.508209 0.459808 0.116364
0.541107 0.477325 0.103333
0.574249 0.494415 0.089386
0.607269 0.509796 0.076263
0.640045 0.522736 0.064850
0.672394 0.532959 0.055206
0.704132 0.540558 0.048401
0.735413 0.545868 0.042877
0.766296 0.549591 0.040405
0.796783 0.552032 0.039062
0.827118 0.553772 0.038025
0.857422 0.554993 0.037323
0.887604 0.555878 0.036652
0.917847 0.556549 0.036285
0.941803 0.557159 0.035919
0.958496 0.557648 0.035553
0.037689 0.391022 0.164734
0.054535 0.388397 0.162842
0.073944 0.385956 0.160980
0.095093 0.383606 0.159058
0.117462 0.381744 0.157379
0.141266 0.380554 0.155884
0.166412 0.380341 0.154663
0.192810 0.381348 0.153656
0.220337 0.383423 0.153168
0.248993 0.386932 0.152924
0.278503 0.391663 0.152679
0.308716 0.397675 0.152435
0.339478 0.404877 0.152161
0.370575 0.413300 0.151184
0.402008 0.423187 0.149170
0.433868 0.434814 0.145569
0.466064 0.448639 0.139465
0.498840 0.464813 0.130371
0.532227 0.482941 0.118561
0.566193 0.502106 0.104706
0.600464 0.520660 0.090149
0.634491 0.537384 0.076263
0.668152 0.551331 0.064392
0.701233 0.562317 0.054688
0.733643 0.570496 0.046783
0.765381 0.576172 0.041992
0.796509 0.580078 0.039734
0.827332 0.582611 0.038391
0.857758 0.584229 0.037323
0.888153 0.585388 0.036652
0.918518 0.586212 0.036285
0.942200 0.586853 0.035919
0.958954 0.587433 0.035553
0.037689 0.403137 0.166351
0.053497 0.400299 0.164490
0.072632 0.397614 0.162628
0.092865 0.395050 0.160980
0.114288 0.392822 0.159058
0.137207 0.391266 0.157593
0.161163 0.390625 0.156616
0.186584 0.391174 0.155640
0.213226 0.392822 0.155426
0.240936 0.395813 0.155426
0.269714 0.400055 0.155426
0.299316 0.405701 0.155640
0.329620 0.412598 0.156128
0.360474 0.420715 0.156128
0.391754 0.429993 0.155426
0.423370 0.440887 0.153442
0.455566 0.453674 0.149658
0.488403 0.468872 0.142944
0.522034 0.486694 0.133453
0.556488 0.506561 0.120667
0.591583 0.527283 0.106384
0.626953 0.547302 0.090881
0.662018 0.565308 0.076691
0.696655 0.580322 0.063904
0.730438 0.592041 0.053680
0.763367 0.600739 0.045715
0.795532 0.606781 0.041046
0.826996 0.610779 0.039062
0.858002 0.613342 0.037689
0.888611 0.615051 0.036652
0.919098 0.615997 0.036285
0.942566 0.616730 0.035919
0.959290 0.617218 0.035553
0.037689 0.415283 0.167938
0.052979 0.412292 0.166138
0.071289 0.409393 0.164246
0.090607 0.406555 0.162628
0.111053 0.404053 0.160706
0.132996 0.402069 0.159271
0.156036 0.401154 0.158081
0.180389 0.401154 0.157593
0.206055 0.402283 0.157104
0.232941 0.404694 0.157379
0.260803 0.408478 0.157837
0.289856 0.413574 0.158325
0.319519 0.420044 0.159271
0.350037 0.427765 0.159760
0.381073 0.436676 0.160004
0.412537 0.446991 0.159760
0.444519 0.458832 0.157837
0.477234 0.472931 0.153656
0.510773 0.489594 0.146851
0.545441 0.508942 0.136505
0.581116 0.530609 0.123077
0.617340 0.552917 0.107697
0.653809 0.574463 0.091644
0.690002 0.593658 0.076691
0.725464 0.609528 0.063446
0.759918 0.622070 0.052643
0.793396 0.631226 0.044586
0.825928 0.637512 0.040405
0.857666 0.641632 0.038391
0.888794 0.644196 0.036987
0.919495 0.645691 0.036285
0.942871 0.646545 0.035553
0.959656 0.647217 0.035187
0.037689 0.427826 0.169769
0.052460 0.424591 0.167938
0.069946 0.421448 0.166138
0.088318 0.418427 0.164246
0.108063 0.415558 0.162628
0.128937 0.413300 0.160980
0.151031 0.411774 0.159760
0.174408 0.411285 0.159058
0.199036 0.411926 0.158783
0.224976 0.413727 0.159058
0.252167 0.416901 0.159760
0.280304 0.421448 0.160461
0.309479 0.427399 0.161652
0.339478 0.434723 0.162842
0.370148 0.443237 0.164001
0.401550 0.453125 0.164734
0.433411 0.464355 0.164246
0.465912 0.477325 0.162384
0.499268 0.492615 0.158081
0.533722 0.510803 0.150696
0.569397 0.531921 0.139740
0.606201 0.555267 0.125732
0.643646 0.579224 0.109344
0.681244 0.602051 0.092712
0.718353 0.622314 0.077087
0.754578 0.639099 0.063446
0.789642 0.652161 0.052124
0.823547 0.661713 0.044037
0.856354 0.668213 0.040070
0.888306 0.672363 0.037689
0.919434 0.674805 0.036652
0.942993 0.676147 0.035919
0.959808 0.677124 0.035187
0.037689 0.440643 0.171814
0.051910 0.437347 0.169983
0.068573 0.433960 0.168182
0.086334 0.430603 0.166138
0.105042 0.427582 0.164490
0.125092 0.424866 0.162842
0.146362 0.422913 0.161652
0.168732 0.421967 0.160706
0.192413 0.421967 0.160461
0.217468 0.423279 0.160706
0.243713 0.425812 0.161194
0.271149 0.429749 0.162384
0.299683 0.435089 0.163788
0.329132 0.441833 0.165649
0.359497 0.449951 0.167267
0.390594 0.459351 0.168640
0.422241 0.470093 0.169556
0.454590 0.482361 0.169342
0.487701 0.496368 0.167480
0.521820 0.513062 0.163086
0.557220 0.532837 0.155151
0.593994 0.555603 0.143463
0.631958 0.580475 0.128326
0.670593 0.605988 0.111328
0.709167 0.630096 0.094208
0.747040 0.651276 0.077515
0.783844 0.668701 0.063446
0.819366 0.682129 0.052124
0.853577 0.691864 0.043457
0.886627 0.698425 0.039734
0.918640 0.702667 0.037689
0.942841 0.705170 0.036285
0.959900 0.706818 0.035553
0.038025 0.454010 0.174500
0.051392 0.450592 0.172485
0.067688 0.447052 0.170441
0.084747 0.443420 0.168396
0.102600 0.439972 0.166595
0.121796 0.437012 0.164978
0.142120 0.434631 0.163544
0.163544 0.433197 0.162628
0.186371 0.432678 0.162140
0.210632 0.433350 0.162384
0.235962 0.435150 0.163086
0.262573 0.438477 0.164246
0.290375 0.443176 0.165894
0.319275 0.449310 0.167725
0.349121 0.456848 0.169983
0.379852 0.465759 0.172028
0.411346 0.476105 0.174042
0.443542 0.487823 0.175140
0.476471 0.501038 0.175140
0.510223 0.516357 0.173370
0.545197 0.534302 0.168640
0.581543 0.555603 0.160004
0.619354 0.580078 0.147614
0.658417 0.606476 0.131775
0.698059 0.633270 0.114166
0.737396 0.658356 0.096008
0.775909 0.680115 0.079163
0.813141 0.697876 0.064392
0.848907 0.711609 0.052643
0.883392 0.721466 0.044037
0.916534 0.728241 0.039734
0.942200 0.732727 0.037689
0.959717 0.736053 0.035919
0.038391 0.467957 0.177338
0.051392 0.464355 0.175354
0.066772 0.460693 0.173126
0.083160 0.456848 0.171112
0.100494 0.453125 0.169098
0.119019 0.449799 0.167267
0.138580 0.447052 0.165894
0.159241 0.445099 0.164734
0.181030 0.444000 0.164246
0.204346 0.444061 0.164246
0.229004 0.445312 0.164734
0.254791 0.447876 0.166138
0.281860 0.451904 0.167725
0.310089 0.457336 0.169983
0.339478 0.464355 0.172485
0.369751 0.472778 0.175140
0.401001 0.482544 0.177765
0.432983 0.493805 0.180145
0.465668 0.506470 0.181671
0.499207 0.520782 0.181885
0.533722 0.537292 0.179962
0.569458 0.556641 0.174927
0.606720 0.579468 0.165894
0.645569 0.605347 0.152679
0.685516 0.633118 0.136200
0.725861 0.660797 0.117615
0.765778 0.686554 0.098846
0.804718 0.708771 0.081177
0.842224 0.726837 0.066223
0.878265 0.740723 0.054169
0.912964 0.750916 0.045135
0.940918 0.758301 0.040070
0.959106 0.764099 0.036987
0.038696 0.482544 0.180573
0.051910 0.478851 0.178436
0.066772 0.474945 0.176483
0.082336 0.470917 0.174255
0.099060 0.466949 0.172241
0.116821 0.463379 0.170227
0.135529 0.460236 0.168640
0.155548 0.457733 0.167480
0.176636 0.456207 0.166595
0.199036 0.455536 0.166595
0.222656 0.456207 0.167053
0.247742 0.458038 0.168182
0.274200 0.461426 0.169769
0.301788 0.466156 0.172241
0.330536 0.472473 0.174927
0.360352 0.480377 0.178192
0.391235 0.489655 0.181427
0.423065 0.500519 0.184601
0.455566 0.512634 0.187317
0.488922 0.526276 0.189178
0.523041 0.541687 0.189606
0.558319 0.559387 0.187744
0.594818 0.580078 0.182495
