public/LUTs/F-9070-STD.cube
# Copyright: (C) Copyright 2010-2021 by IWLTBAP SAS
# Cannot be resold, shared or otherwise redistributed
# Website: https://luts.iwltbap.com
TITLE "IWLTBAP 9070 (Rec.709, sRGB, DCI-P3)"
LUT_3D_SIZE 9
0.058044 0.067657 0.071930
0.131997 0.095247 0.081563
0.241526 0.119096 0.075204
0.340094 0.143990 0.083866
0.449990 0.167780 0.106416
0.578149 0.195896 0.133416
0.691927 0.219867 0.157488
0.774999 0.244533 0.175723
0.842926 0.283966 0.191864
0.069827 0.130087 0.090936
0.134640 0.132378 0.086690
0.258445 0.150847 0.084354
0.367044 0.181455 0.093458
0.480721 0.213848 0.116330
0.604100 0.251976 0.143449
0.709381 0.288821 0.166725
0.794164 0.329373 0.178082
0.867146 0.366463 0.180828
0.075930 0.185091 0.103107
0.124968 0.208343 0.101756
0.275755 0.193706 0.094179
0.396336 0.216762 0.104873
0.514809 0.251339 0.126550
0.635617 0.292019 0.153725
0.740792 0.340958 0.173733
0.823212 0.390075 0.178338
0.892249 0.437198 0.182246
0.077012 0.238346 0.110378
0.124251 0.262621 0.105368
0.285111 0.297948 0.115480
0.419960 0.261695 0.116985
0.541279 0.286059 0.135322
0.658563 0.326879 0.161737
0.763515 0.380516 0.174538
0.843507 0.431401 0.177895
0.902802 0.482671 0.183797
0.085687 0.297038 0.123848
0.133700 0.325278 0.118562
0.286098 0.370961 0.126885
0.458444 0.384840 0.141210
0.564512 0.336202 0.144867
0.684405 0.370192 0.166694
0.782655 0.419423 0.173457
0.859687 0.473399 0.178022
0.905304 0.524193 0.183556
0.100871 0.370702 0.141059
0.148702 0.402257 0.134254
0.300146 0.452387 0.140788
0.473194 0.501736 0.165510
0.609096 0.504805 0.164839
0.712073 0.437311 0.161358
0.801164 0.469030 0.170711
0.871342 0.521692 0.179911
0.907211 0.573476 0.185361
0.120411 0.458090 0.159690
0.170141 0.493533 0.152044
0.329078 0.546244 0.157512
0.485441 0.596465 0.171622
0.619530 0.638534 0.193973
0.722453 0.636210 0.191534
0.811650 0.561882 0.169286
0.879885 0.586025 0.181984
0.908597 0.632191 0.191761
0.142962 0.552038 0.178081
0.200755 0.591069 0.170064
0.369190 0.638987 0.175068
0.505800 0.682978 0.183912
0.627499 0.722102 0.204109
0.735816 0.758672 0.219761
0.810217 0.754531 0.223372
0.880257 0.691798 0.194450
0.910324 0.696436 0.198785
0.168488 0.668457 0.196411
0.245238 0.711534 0.189812
0.409261 0.746973 0.194681
0.531320 0.777807 0.203332
0.638898 0.805924 0.214680
0.737599 0.832299 0.233815
0.814738 0.850599 0.252752
0.878638 0.845351 0.267956
0.913177 0.778809 0.205292
0.055214 0.104298 0.142292
0.099139 0.108058 0.129928
0.187458 0.132053 0.139196
0.284205 0.164504 0.155998
0.405838 0.185097 0.158635
0.549201 0.217237 0.171056
0.677614 0.255695 0.181391
0.768660 0.287895 0.189036
0.851662 0.330077 0.192286
0.055644 0.127850 0.138729
0.112928 0.145544 0.151130
0.238251 0.171131 0.148927
0.363688 0.189894 0.142695
0.482955 0.215616 0.154361
0.609006 0.245367 0.160957
0.715102 0.276250 0.178737
0.797873 0.312022 0.189833
0.871771 0.353608 0.187574
0.057471 0.220698 0.182346
0.112620 0.215891 0.161213
0.251979 0.214962 0.139345
0.380571 0.232232 0.150659
0.506482 0.268755 0.165545
0.632894 0.311844 0.177880
0.740862 0.357777 0.183421
0.821311 0.397430 0.186156
0.890099 0.435047 0.189391
0.066064 0.285499 0.191939
0.112756 0.274670 0.157358
0.215504 0.304235 0.144540
0.407490 0.280035 0.151234
0.533312 0.304357 0.171802
0.657078 0.349429 0.181742
0.761771 0.398791 0.182796
0.841866 0.449376 0.185433
0.904829 0.498442 0.192949
0.074396 0.342167 0.190579
0.123259 0.338137 0.164149
0.206476 0.369892 0.157149
0.404700 0.408656 0.172430
0.561521 0.362519 0.171805
0.681150 0.389112 0.181457
0.779514 0.438065 0.181346
0.858069 0.492645 0.187080
0.908040 0.544358 0.194278
0.086702 0.409284 0.198021
0.140395 0.415177 0.178992
0.224010 0.451366 0.172756
0.405055 0.499851 0.180699
0.568911 0.538809 0.203249
0.701459 0.464792 0.171248
0.796476 0.487261 0.178465
0.869087 0.542103 0.189834
0.909399 0.596121 0.199359
0.104071 0.489325 0.215895
0.163599 0.504417 0.194961
0.265095 0.546137 0.189829
0.426926 0.592610 0.196452
0.579475 0.639174 0.216189
0.703463 0.669774 0.230458
0.802913 0.590311 0.184230
0.877066 0.606630 0.195659
0.910832 0.653078 0.205895
0.122969 0.570964 0.235172
0.190519 0.600633 0.210913
0.324791 0.642114 0.208050
0.463497 0.683086 0.214322
0.591539 0.723837 0.225410
0.713774 0.762963 0.245201
0.804798 0.777591 0.260169
0.877262 0.710324 0.207323
0.912608 0.711871 0.211554
0.143539 0.679827 0.256947
0.220194 0.731638 0.229090
0.373968 0.758228 0.228523
0.496387 0.781880 0.234592
0.609663 0.809978 0.243994
0.713958 0.834600 0.257825
0.802976 0.854926 0.277529
0.876726 0.860241 0.297214
0.914817 0.792085 0.216893
0.050406 0.144997 0.218148
0.081014 0.146409 0.201048
0.133210 0.152761 0.185658
0.236604 0.168755 0.180716
0.332223 0.204563 0.200221
0.483056 0.247212 0.220507
0.646152 0.288188 0.230987
0.772669 0.328972 0.228756
0.857959 0.374187 0.219071
0.052981 0.165392 0.213938
0.081584 0.183096 0.237617
0.151385 0.190607 0.214964
0.281791 0.218038 0.215288
0.413248 0.251286 0.228608
0.578592 0.280276 0.227666
0.714680 0.317856 0.230636
0.805077 0.355068 0.221368
0.877787 0.393296 0.211084
0.056366 0.193198 0.214322
0.081325 0.217791 0.237763
0.165628 0.242451 0.250180
0.340537 0.268251 0.245018
0.500073 0.282531 0.225919
0.642590 0.315150 0.226229
0.752089 0.352634 0.222226
0.828072 0.388025 0.212891
0.897555 0.426152 0.210370
0.073030 0.299004 0.282547
0.091420 0.321054 0.287591
0.162626 0.323958 0.253073
0.361697 0.317369 0.210112
0.515979 0.335226 0.226032
0.658369 0.383262 0.228594
0.766567 0.434503 0.228392
0.844766 0.478910 0.230944
0.911941 0.518529 0.236825
0.094515 0.404556 0.334300
0.105947 0.398962 0.306808
0.170025 0.390631 0.246076
0.315876 0.421865 0.214952
0.542460 0.403518 0.216526
0.680008 0.427275 0.228961
0.783042 0.481027 0.229080
0.861915 0.531380 0.228193
0.914818 0.574227 0.224454
0.111739 0.491272 0.361510
0.118855 0.472065 0.304247
0.185887 0.466700 0.243447
0.318869 0.507929 0.224559
0.528241 0.556273 0.236169
0.696605 0.516132 0.223247
0.799980 0.531745 0.228330
0.872970 0.580346 0.230515
0.915224 0.624436 0.225543
0.126333 0.563241 0.363464
0.135441 0.541568 0.297913
0.212944 0.553168 0.247382
0.366167 0.599650 0.238338
0.538378 0.646471 0.244760
0.692203 0.691037 0.265006
0.807005 0.629869 0.226167
0.879126 0.637403 0.224641
0.914662 0.675995 0.222461
0.140837 0.631029 0.364416
0.163504 0.617715 0.310231
0.260257 0.654186 0.255142
0.425299 0.691654 0.254055
0.564396 0.731701 0.259833
0.696677 0.769646 0.275852
0.799680 0.791939 0.292979
0.877318 0.729585 0.222768
0.914863 0.727765 0.221608
0.149657 0.737630 0.337728
0.192116 0.737040 0.293439
0.323344 0.776875 0.266535
0.472636 0.793193 0.271658
0.588273 0.817276 0.279463
0.697973 0.842209 0.291021
0.794156 0.861460 0.305835
0.875567 0.871125 0.325079
0.917490 0.803027 0.226161
0.059525 0.187118 0.291066
0.071499 0.184776 0.266215
0.104516 0.189249 0.250631
0.152983 0.196657 0.231853
0.281192 0.214094 0.216160
0.434348 0.250796 0.235709
0.606635 0.302408 0.246551
0.750343 0.361940 0.254911
0.850220 0.409200 0.254132
0.062418 0.209380 0.289312
0.079828 0.225774 0.316608
0.116251 0.228957 0.294399
0.179707 0.237396 0.267296
0.347238 0.262223 0.258700
0.514139 0.307468 0.275120
0.676807 0.362143 0.287871
0.798327 0.397887 0.270392
0.880813 0.444538 0.267892
0.064248 0.227299 0.288905
0.083178 0.249956 0.314779
0.128756 0.273879 0.343367
0.213655 0.285123 0.313650
0.414451 0.323671 0.310392
0.591616 0.369912 0.321963
0.739287 0.406689 0.314370
0.831671 0.437388 0.293498
0.902203 0.471869 0.279136
0.068469 0.255691 0.291177
0.087927 0.281120 0.316197
0.131184 0.316090 0.347732
0.237352 0.350513 0.361409
0.474541 0.386495 0.352460
0.648431 0.423722 0.345444
0.770502 0.460905 0.334938
0.850697 0.492941 0.312888
0.918356 0.522792 0.293931
0.088792 0.358983 0.367136
0.112603 0.414401 0.404661
0.135116 0.437421 0.409317
0.233199 0.451183 0.368451
0.500854 0.454038 0.300411
0.664363 0.491043 0.337323
0.779543 0.542410 0.323264
0.860571 0.584234 0.317144
0.924456 0.610932 0.313584
0.121680 0.521538 0.481934
0.136480 0.533950 0.464421
0.157313 0.536338 0.438572
0.247108 0.528415 0.356300
0.465179 0.571913 0.325962
0.685601 0.567917 0.289009
0.796502 0.589535 0.309497
0.875635 0.628871 0.307736
0.925334 0.658285 0.295644
0.144401 0.627472 0.536376
0.155048 0.622579 0.493504
0.181512 0.607108 0.427295
0.284905 0.616022 0.350093
0.493422 0.659042 0.352255
0.677341 0.705765 0.307265
0.808480 0.669910 0.285425
0.884685 0.673202 0.293885
0.925554 0.702979 0.284348
0.162592 0.710611 0.558402
0.169046 0.695165 0.484112
0.217323 0.680956 0.401107
0.357726 0.723431 0.346388
0.538984 0.745808 0.361981
0.679236 0.779454 0.338661
0.794432 0.803928 0.328508
0.883873 0.753545 0.270583
0.923916 0.748340 0.258577
0.177724 0.791076 0.555543
0.181929 0.781375 0.470147
0.253514 0.782077 0.377747
0.438675 0.827763 0.344739
0.573859 0.830715 0.369992
0.685105 0.850459 0.372385
0.785184 0.869982 0.352384
0.873958 0.881957 0.352103
0.921217 0.814311 0.239812
0.071702 0.232645 0.368318
0.082889 0.229561 0.337781
0.092418 0.226656 0.312045
0.128761 0.234635 0.296857
0.177677 0.243228 0.268127
0.388612 0.264408 0.249781
0.573703 0.301485 0.256008
0.727145 0.368841 0.266289
0.840596 0.453742 0.345994
0.075094 0.256015 0.368862
0.092420 0.273551 0.404017
0.103295 0.269437 0.370047
0.149745 0.276779 0.347008
0.236093 0.288781 0.305610
0.457970 0.315022 0.297264
0.633874 0.371190 0.313649
0.770466 0.436906 0.336713
0.869816 0.495060 0.390951
0.076931 0.271342 0.369562
0.096622 0.298524 0.404051
0.114603 0.315720 0.432853
0.171961 0.324237 0.412053
0.296229 0.341933 0.368596
0.526640 0.381026 0.358885
0.686305 0.448385 0.395304
0.808008 0.496785 0.417072
0.897906 0.528872 0.419515
0.079123 0.288929 0.371623
0.098803 0.316040 0.404292
0.118437 0.343799 0.433496
0.192331 0.378166 0.472017
0.341487 0.403733 0.436427
0.578794 0.462279 0.440831
0.733789 0.516495 0.468380
0.839903 0.547064 0.467050
0.917388 0.567933 0.456386
0.084316 0.320001 0.378669
0.104809 0.351779 0.409574
0.123154 0.381133 0.437585
0.195750 0.433137 0.483518
0.364617 0.490840 0.504501
0.630322 0.542883 0.506931
0.769156 0.581559 0.513405
0.859388 0.611375 0.507020
0.930553 0.627115 0.486074
0.110064 0.439259 0.468188
0.135034 0.505820 0.518566
0.152485 0.548154 0.548247
0.199615 0.582965 0.561666
0.364716 0.600208 0.514272
0.660345 0.614896 0.449738
0.785691 0.646280 0.488508
0.873308 0.680689 0.464020
0.933688 0.693923 0.435447
0.147287 0.632818 0.618020
0.163808 0.654495 0.613600
0.174729 0.663271 0.604516
0.233776 0.679175 0.585113
0.420970 0.676487 0.496939
0.648450 0.718011 0.475508
0.800828 0.706896 0.369247
0.887324 0.713655 0.393042
0.933875 0.729275 0.370764
0.169370 0.733570 0.671357
0.182947 0.742991 0.652796
0.193161 0.747795 0.630537
0.271311 0.750390 0.550139
0.491401 0.770654 0.476024
0.660518 0.789925 0.483277
0.785485 0.815499 0.437808
0.887184 0.774334 0.335245
0.932836 0.767314 0.327919
0.187514 0.814341 0.704624
0.199704 0.822851 0.670653
0.214394 0.825853 0.625940
0.309910 0.825605 0.519147
0.556568 0.856045 0.464198
0.676763 0.860401 0.484149
0.776500 0.879660 0.474954
0.870231 0.891506 0.415323
0.931694 0.827968 0.290107
0.087367 0.291485 0.468747
0.097558 0.285869 0.430077
0.105685 0.281820 0.398693
0.113874 0.276684 0.367648
0.157399 0.290434 0.348187
0.274569 0.309965 0.290701
0.536395 0.318160 0.264027
0.704220 0.361387 0.263068
0.824837 0.461357 0.375618
0.090856 0.314867 0.470243
0.107908 0.333801 0.507483
0.115266 0.327505 0.473023
0.131339 0.323216 0.436090
0.188470 0.335748 0.408071
0.372861 0.352309 0.328150
0.590126 0.378815 0.330684
0.743203 0.441658 0.363044
0.849763 0.527749 0.486404
0.093034 0.330871 0.472435
0.112598 0.359544 0.510501
0.126193 0.376675 0.542687
0.152939 0.375983 0.516312
0.220969 0.384267 0.479718
0.450106 0.411745 0.408933
0.641081 0.450325 0.416386
0.778366 0.518480 0.485664
0.873979 0.583813 0.570096
0.094699 0.343682 0.474514
0.115007 0.375398 0.511644
0.131539 0.404421 0.545691
0.172028 0.429228 0.579117
0.254236 0.440103 0.554083
0.504311 0.481289 0.497543
0.687670 0.525832 0.512616
0.808327 0.588487 0.580149
0.899597 0.626091 0.610198
0.097220 0.361806 0.477627
0.117686 0.394860 0.514418
0.134552 0.426089 0.546284
0.175721 0.464869 0.583061
0.287627 0.508868 0.621634
0.556809 0.556425 0.580095
0.729732 0.607674 0.602762
0.839855 0.650367 0.635568
0.924687 0.672200 0.640458
0.104427 0.402923 0.490343
0.125810 0.441296 0.525308
0.142992 0.474430 0.556040
0.179591 0.512280 0.590786
0.296256 0.573640 0.637034
0.608941 0.647465 0.639715
0.769079 0.683018 0.646042
0.864292 0.708239 0.649985
0.939344 0.720324 0.644535
0.134594 0.537580 0.588788
0.157077 0.586321 0.625173
0.174352 0.626417 0.657747
0.188274 0.653953 0.676944
0.301726 0.717909 0.708025
0.617516 0.734630 0.632615
0.791321 0.741133 0.578618
0.882928 0.755963 0.599038
0.941620 0.764807 0.584868
0.168411 0.707710 0.723847
0.184999 0.740861 0.738405
0.196315 0.756208 0.738632
0.210246 0.768306 0.735175
0.334038 0.801439 0.710687
0.646764 0.807873 0.606167
0.774428 0.825615 0.590608
0.888223 0.799360 0.456221
0.940921 0.791544 0.495473
0.188082 0.810804 0.787331
0.202284 0.825098 0.777319
0.213277 0.836560 0.769754
0.237473 0.851752 0.759722
0.379969 0.866576 0.661342
0.673905 0.881265 0.583424
0.768604 0.888000 0.590000
0.862832 0.900362 0.553149
0.939980 0.842816 0.367210
0.107161 0.368122 0.585691
0.115776 0.357051 0.542511
0.122929 0.350110 0.505788
0.128223 0.341688 0.468417
0.141728 0.338956 0.433218
0.218997 0.365379 0.398965
0.467304 0.367395 0.292084
0.675355 0.400463 0.324981
0.804741 0.469016 0.407126
0.109967 0.387961 0.585217
0.125751 0.403833 0.616082
0.132862 0.397923 0.587848
0.137808 0.388022 0.548285
0.170433 0.389405 0.515583
0.261163 0.409086 0.478960
0.542794 0.424087 0.397041
0.706133 0.473007 0.444750
0.832263 0.530422 0.514431
0.112202 0.403805 0.587429
0.130089 0.427891 0.618883
0.142913 0.443203 0.648624
0.148787 0.437003 0.626129
0.202581 0.444262 0.600460
0.309693 0.459400 0.564031
0.590854 0.494616 0.511599
0.748494 0.527823 0.526793
0.856855 0.589307 0.603249
0.113813 0.416089 0.589578
0.132984 0.445110 0.621701
0.148227 0.470001 0.652569
0.160412 0.482155 0.675690
0.234282 0.497637 0.670435
0.363055 0.513073 0.635270
0.644478 0.550121 0.587318
0.783517 0.587312 0.604985
0.878565 0.640167 0.671310
0.115640 0.429308 0.592139
0.135275 0.460615 0.624434
0.151716 0.491197 0.654586
0.166780 0.515572 0.679777
0.264871 0.555194 0.721495
0.438266 0.579540 0.698362
0.692178 0.611644 0.658243
0.812975 0.653478 0.680346
0.901671 0.696243 0.727759
0.118968 0.452551 0.597035
0.138747 0.484966 0.628500
0.155124 0.515588 0.657993
0.171939 0.542979 0.683028
0.272733 0.597424 0.727260
0.516172 0.656152 0.744402
0.737491 0.687087 0.713235
0.840982 0.722636 0.733789
0.928893 0.748232 0.752342
0.127643 0.501192 0.611846
0.148008 0.536882 0.642158
0.164212 0.566345 0.669854
0.179625 0.590955 0.692244
0.280239 0.645465 0.734799
0.508467 0.709952 0.753469
0.767337 0.765621 0.743699
0.864874 0.783897 0.748639
0.946916 0.793464 0.750839
0.156932 0.627846 0.703589
0.175887 0.658839 0.724976
0.190832 0.684411 0.744724
0.203922 0.707453 0.760629
0.240961 0.742504 0.781876
0.430845 0.821687 0.804345
0.764760 0.834159 0.729276
0.881408 0.825906 0.677142
0.949456 0.830737 0.701627
0.184534 0.750173 0.794038
0.201483 0.786216 0.817037
0.212939 0.810668 0.829538
0.222948 0.830393 0.837177
0.273029 0.861598 0.840762
0.476493 0.901199 0.774945
0.767431 0.902429 0.698246
0.853990 0.909545 0.683454
0.948339 0.866134 0.586376
0.127942 0.447928 0.692361
0.136506 0.438771 0.662267
0.143266 0.431624 0.633340
0.149102 0.425626 0.608416
0.154653 0.417518 0.578349
0.207156 0.429975 0.563144
0.342549 0.458428 0.536908
0.635076 0.476124 0.487060
0.784143 0.522597 0.536343
0.129676 0.462978 0.691769
0.144025 0.474544 0.713538
0.151633 0.472162 0.702724
0.157526 0.466848 0.678516
0.165008 0.460051 0.650306
0.242444 0.478756 0.640116
0.422594 0.507886 0.613966
0.675318 0.533833 0.576666
0.813669 0.566825 0.603177
0.131846 0.478212 0.694285
0.147502 0.494280 0.716118
0.159020 0.505556 0.736305
0.165963 0.504522 0.732064
0.181705 0.502477 0.710316
0.279598 0.523779 0.704398
0.505923 0.552078 0.678751
0.718618 0.570393 0.635950
0.836955 0.604083 0.658838
0.133404 0.489715 0.696345
0.150304 0.510775 0.719085
0.163343 0.527399 0.740181
0.173710 0.537688 0.758313
0.205568 0.544842 0.757393
0.317081 0.566481 0.751913
0.576691 0.598935 0.732910
0.755305 0.606463 0.689481
0.858362 0.641885 0.706631
0.134946 0.501291 0.698941
0.152655 0.525842 0.721714
0.167160 0.548800 0.743761
0.179631 0.567193 0.763080
0.228792 0.590108 0.788720
0.360706 0.614773 0.788982
0.638543 0.654026 0.777481
0.788912 0.655294 0.740724
0.881408 0.690303 0.753396
0.137134 0.518256 0.701516
0.155271 0.545602 0.725098
0.170184 0.570675 0.747666
0.183648 0.593717 0.766963
0.233675 0.627251 0.793533
0.410773 0.670479 0.815697
0.693011 0.715953 0.807665
0.818381 0.719723 0.782604
0.906013 0.746939 0.792013
0.141109 0.545265 0.707561
0.159302 0.572969 0.730292
0.174042 0.597678 0.751751
0.187195 0.619614 0.770414
0.244348 0.656199 0.798014
0.408579 0.708311 0.819167
0.725483 0.774821 0.827000
0.842226 0.781633 0.804811
0.929217 0.802118 0.819729
0.149739 0.593287 0.720373
0.168041 0.621590 0.742561
0.182411 0.644717 0.762414
0.194980 0.664000 0.779175
0.248226 0.697668 0.803439
0.405092 0.748408 0.823418
0.717878 0.816933 0.832585
0.854875 0.846782 0.815029
0.947526 0.856739 0.820674
0.175624 0.702651 0.797442
0.191798 0.723409 0.811309
0.204650 0.741557 0.823716
0.216443 0.758113 0.833322
0.230612 0.776651 0.841595
0.352086 0.845963 0.876545
0.643844 0.922424 0.858369
0.851650 0.916803 0.795007
0.953396 0.898278 0.763479
0.147949 0.521393 0.777985
0.157429 0.518413 0.767295
0.164545 0.514526 0.753580
0.170841 0.511166 0.739636
0.177590 0.507568 0.725182
0.195133 0.506727 0.711718
0.307249 0.536170 0.719685
0.583591 0.564833 0.708771
0.768951 0.574738 0.672333
0.148747 0.532638 0.779292
0.162074 0.541479 0.793214
0.169744 0.540454 0.791715
0.176204 0.537926 0.780404
0.183479 0.535689 0.767761
0.216934 0.543134 0.761290
0.348109 0.569558 0.762988
0.641500 0.590044 0.752390
0.797669 0.593989 0.711984
0.150137 0.543905 0.780920
0.164228 0.555793 0.794926
0.174609 0.563321 0.807611
0.181812 0.563182 0.809509
0.189615 0.562092 0.799261
0.244181 0.577700 0.800077
0.403668 0.603433 0.795930
0.689452 0.619085 0.786937
0.822071 0.618054 0.748416
0.151550 0.554895 0.782859
0.166581 0.570299 0.798371
0.177870 0.581120 0.811659
0.187518 0.588076 0.823234
0.196021 0.588486 0.824075
0.272104 0.610695 0.831103
0.475100 0.643386 0.826221
0.730183 0.653210 0.816043
0.843575 0.647820 0.779953
0.153190 0.567009 0.785729
0.168738 0.584346 0.801221
0.181250 0.600081 0.815611
0.192389 0.613057 0.829249
0.203795 0.620184 0.840997
0.303104 0.647062 0.858006
0.550217 0.688371 0.855042
0.766733 0.696643 0.843626
0.864991 0.687140 0.809580
0.154957 0.582321 0.787761
0.170995 0.602149 0.804195
0.184120 0.621054 0.819281
0.196184 0.637842 0.833551
0.209462 0.653050 0.847067
0.326197 0.686087 0.876269
0.615223 0.735299 0.878812
0.799629 0.745995 0.865297
0.887456 0.736095 0.834937
0.157508 0.602661 0.792303
0.173698 0.623562 0.807767
0.186924 0.642943 0.823439
0.199125 0.660368 0.837533
0.213220 0.678497 0.851212
0.331653 0.720573 0.880755
0.663093 0.782572 0.896006
0.825352 0.798908 0.880382
0.910551 0.794852 0.861194
0.161753 0.630897 0.798767
0.177910 0.651751 0.814237
0.190771 0.669608 0.829153
0.202555 0.685478 0.842129
0.217585 0.702541 0.854592
0.345274 0.746978 0.882841
0.661993 0.812420 0.897393
0.841514 0.856027 0.886557
0.930124 0.850008 0.869539
0.169006 0.672424 0.809296
0.185111 0.692974 0.824636
0.197735 0.709779 0.838419
0.209205 0.724743 0.850024
0.224174 0.740633 0.861152
0.356587 0.785386 0.886655
0.659189 0.848208 0.897366
0.833495 0.898493 0.884992
0.932587 0.921997 0.865021
