public/LUTs/F-9070-STD.cube
# Copyright: (C) Copyright 2010-2021 by IWLTBAP SAS
# Cannot be resold, shared or otherwise redistributed
# Website: https://luts.iwltbap.com
TITLE "IWLTBAP 9070 (Rec.709, sRGB, DCI-P3)"
LUT_3D_SIZE 5
0.058044 0.067657 0.071930
0.241526 0.119096 0.075204
0.449990 0.167780 0.106416
0.691927 0.219867 0.157488
0.842926 0.283966 0.191864
0.075930 0.185091 0.103107
0.275755 0.193706 0.094179
0.514809 0.251339 0.126550
0.740792 0.340958 0.173733
0.892249 0.437198 0.182246
0.085687 0.297038 0.123848
0.286098 0.370961 0.126885
0.564512 0.336202 0.144867
0.782655 0.419423 0.173457
0.905304 0.524193 0.183556
0.120411 0.458090 0.159690
0.329078 0.546244 0.157512
0.619530 0.638534 0.193973
0.811650 0.561882 0.169286
0.908597 0.632191 0.191761
0.168488 0.668457 0.196411
0.409261 0.746973 0.194681
0.638898 0.805924 0.214680
0.814738 0.850599 0.252752
0.913177 0.778809 0.205292
0.050406 0.144997 0.218148
0.133210 0.152761 0.185658
0.332223 0.204563 0.200221
0.646152 0.288188 0.230987
0.857959 0.374187 0.219071
0.056366 0.193198 0.214322
0.165628 0.242451 0.250180
0.500073 0.282531 0.225919
0.752089 0.352634 0.222226
0.897555 0.426152 0.210370
0.094515 0.404556 0.334300
0.170025 0.390631 0.246076
0.542460 0.403518 0.216526
0.783042 0.481027 0.229080
0.914818 0.574227 0.224454
0.126333 0.563241 0.363464
0.212944 0.553168 0.247382
0.538378 0.646471 0.244760
0.807005 0.629869 0.226167
0.914662 0.675995 0.222461
0.149657 0.737630 0.337728
0.323344 0.776875 0.266535
0.588273 0.817276 0.279463
0.794156 0.861460 0.305835
0.917490 0.803027 0.226161
0.071702 0.232645 0.368318
0.092418 0.226656 0.312045
0.177677 0.243228 0.268127
0.573703 0.301485 0.256008
0.840596 0.453742 0.345994
0.076931 0.271342 0.369562
0.114603 0.315720 0.432853
0.296229 0.341933 0.368596
0.686305 0.448385 0.395304
0.897906 0.528872 0.419515
0.084316 0.320001 0.378669
0.123154 0.381133 0.437585
0.364617 0.490840 0.504501
0.769156 0.581559 0.513405
0.930553 0.627115 0.486074
0.147287 0.632818 0.618020
0.174729 0.663271 0.604516
0.420970 0.676487 0.496939
0.800828 0.706896 0.369247
0.933875 0.729275 0.370764
0.187514 0.814341 0.704624
0.214394 0.825853 0.625940
0.556568 0.856045 0.464198
0.776500 0.879660 0.474954
0.931694 0.827968 0.290107
0.107161 0.368122 0.585691
0.122929 0.350110 0.505788
0.141728 0.338956 0.433218
0.467304 0.367395 0.292084
0.804741 0.469016 0.407126
0.112202 0.403805 0.587429
0.142913 0.443203 0.648624
0.202581 0.444262 0.600460
0.590854 0.494616 0.511599
0.856855 0.589307 0.603249
0.115640 0.429308 0.592139
0.151716 0.491197 0.654586
0.264871 0.555194 0.721495
0.692178 0.611644 0.658243
0.901671 0.696243 0.727759
0.127643 0.501192 0.611846
0.164212 0.566345 0.669854
0.280239 0.645465 0.734799
0.767337 0.765621 0.743699
0.946916 0.793464 0.750839
0.184534 0.750173 0.794038
0.212939 0.810668 0.829538
0.273029 0.861598 0.840762
0.767431 0.902429 0.698246
0.948339 0.866134 0.586376
0.147949 0.521393 0.777985
0.164545 0.514526 0.753580
0.177590 0.507568 0.725182
0.307249 0.536170 0.719685
0.768951 0.574738 0.672333
0.150137 0.543905 0.780920
0.174609 0.563321 0.807611
0.189615 0.562092 0.799261
0.403668 0.603433 0.795930
0.822071 0.618054 0.748416
0.153190 0.567009 0.785729
0.181250 0.600081 0.815611
0.203795 0.620184 0.840997
0.550217 0.688371 0.855042
0.864991 0.687140 0.809580
0.157508 0.602661 0.792303
0.186924 0.642943 0.823439
0.213220 0.678497 0.851212
0.663093 0.782572 0.896006
0.910551 0.794852 0.861194
0.169006 0.672424 0.809296
0.197735 0.709779 0.838419
0.224174 0.740633 0.861152
0.659189 0.848208 0.897366
0.932587 0.921997 0.865021
