public/LUTs/F-9070-STD.cube
# Copyright: (C) Copyright 2010-2021 by IWLTBAP SAS
# Cannot be resold, shared or otherwise redistributed
# Website: https://luts.iwltbap.com
TITLE "IWLTBAP 9070 (Rec.709, sRGB, DCI-P3)"
LUT_3D_SIZE 33
0.058044 0.067657 0.071930
0.071589 0.072435 0.073327
0.087590 0.079749 0.076382
0.106923 0.087810 0.080138
0.131997 0.095247 0.081563
0.158802 0.101992 0.081133
0.186170 0.108320 0.080023
0.215031 0.113950 0.077846
0.241526 0.119096 0.075204
0.265967 0.124926 0.074506
0.290301 0.131415 0.076044
0.315025 0.137987 0.079284
0.340094 0.143990 0.083866
0.365342 0.149175 0.088981
0.391780 0.154579 0.094373
0.420142 0.160922 0.100210
0.449990 0.167780 0.106416
0.481030 0.174756 0.112917
0.513138 0.181852 0.119684
0.545758 0.188960 0.126573
0.578149 0.195896 0.133416
0.609297 0.202499 0.139997
0.638573 0.208636 0.146176
0.666301 0.214483 0.152056
0.691927 0.219867 0.157488
0.715321 0.224852 0.162457
0.737180 0.229974 0.167141
0.756671 0.236273 0.171433
0.774999 0.244533 0.175723
0.792210 0.253374 0.179817
0.808914 0.262788 0.183826
0.826214 0.272952 0.188071
0.842926 0.283966 0.191864
0.061172 0.082673 0.077559
0.071857 0.083924 0.077595
0.087333 0.087071 0.077362
0.106727 0.095087 0.081661
0.132005 0.102288 0.083559
0.159628 0.108899 0.083021
0.188355 0.114780 0.081703
0.218287 0.120023 0.079577
0.245183 0.125107 0.077016
0.270388 0.130979 0.076424
0.295736 0.137505 0.078078
0.321239 0.143987 0.081334
0.347027 0.150183 0.085804
0.372999 0.155940 0.090908
0.399528 0.161767 0.096293
0.427848 0.168481 0.102154
0.457922 0.175953 0.108472
0.488808 0.183565 0.114999
0.520681 0.191225 0.121780
0.553131 0.198911 0.128701
0.584853 0.206470 0.135479
0.615543 0.213910 0.142074
0.644569 0.220978 0.148302
0.671463 0.227575 0.154087
0.696034 0.233915 0.159387
0.718454 0.240430 0.164270
0.739390 0.247418 0.168940
0.758510 0.254877 0.173334
0.776114 0.262568 0.177390
0.793353 0.270750 0.181455
0.809900 0.279679 0.185311
0.828752 0.291391 0.188582
0.848762 0.305520 0.190422
0.064375 0.097623 0.082396
0.073783 0.098991 0.083213
0.087940 0.099053 0.080956
0.108481 0.103929 0.082276
0.134067 0.110229 0.084810
0.161884 0.116821 0.084343
0.191286 0.123206 0.082942
0.221241 0.128700 0.080906
0.248627 0.134177 0.079053
0.274721 0.140414 0.079062
0.301019 0.147279 0.081053
0.326996 0.154144 0.084216
0.352956 0.160785 0.088242
0.379205 0.167113 0.093105
0.406149 0.173558 0.098589
0.434343 0.180603 0.104459
0.463932 0.188141 0.110645
0.494718 0.195974 0.117156
0.526482 0.204081 0.123943
0.558632 0.212286 0.130851
0.590050 0.220312 0.137624
0.620241 0.228177 0.144141
0.649060 0.236076 0.150430
0.675437 0.243787 0.156235
0.699459 0.251187 0.161519
0.721633 0.258405 0.166453
0.741911 0.265604 0.171012
0.760605 0.272882 0.175266
0.778048 0.280636 0.179087
0.796582 0.290160 0.182515
0.815888 0.301500 0.184920
0.835825 0.314002 0.185672
0.856474 0.327012 0.185273
0.067318 0.113610 0.086810
0.076419 0.114873 0.088186
0.089326 0.118210 0.089657
0.107232 0.116007 0.084051
0.135719 0.118952 0.085187
0.164843 0.124605 0.085564
0.195181 0.130868 0.084639
0.225155 0.136497 0.082756
0.253136 0.142664 0.081789
0.279915 0.149661 0.082260
0.306723 0.157365 0.084099
0.333180 0.165056 0.087078
0.359669 0.172289 0.090922
0.386151 0.179063 0.095653
0.413506 0.186222 0.101218
0.442310 0.194127 0.107289
0.472130 0.202472 0.113633
0.502627 0.210976 0.120157
0.533630 0.219611 0.126825
0.564796 0.228457 0.133594
0.595393 0.237290 0.140266
0.624819 0.245901 0.146711
0.652838 0.254287 0.152899
0.678893 0.262341 0.158656
0.703058 0.270236 0.164019
0.724965 0.277884 0.168795
0.745806 0.286229 0.172996
0.765955 0.295244 0.176413
0.785538 0.305085 0.178842
0.805150 0.315258 0.180377
0.824647 0.325815 0.181080
0.843594 0.336191 0.181250
0.862252 0.346669 0.181335
0.069827 0.130087 0.090936
0.078907 0.130598 0.092490
0.090899 0.134425 0.094427
0.108078 0.137504 0.092971
0.134640 0.132378 0.086690
0.166674 0.133745 0.086985
0.199306 0.138781 0.086446
0.229613 0.144255 0.084899
0.258445 0.150847 0.084354
0.286056 0.158273 0.084997
0.313268 0.166124 0.086932
0.340379 0.174004 0.089884
0.367044 0.181455 0.093458
0.393844 0.188692 0.098063
0.421712 0.196447 0.103698
0.450839 0.204954 0.109896
0.480721 0.213848 0.116330
0.511556 0.223088 0.123018
0.542807 0.232600 0.129861
0.573687 0.242254 0.136690
0.604100 0.251976 0.143449
0.633132 0.261442 0.149933
0.660430 0.270595 0.156059
0.685397 0.279334 0.161567
0.709381 0.288821 0.166725
0.732398 0.298901 0.171176
0.753828 0.309289 0.174323
0.774631 0.319663 0.176554
0.794164 0.329373 0.178082
0.812399 0.338172 0.178895
0.830796 0.347262 0.179726
0.849390 0.356743 0.180623
0.867146 0.366463 0.180828
0.071798 0.145317 0.094405
0.081052 0.146153 0.096174
0.092493 0.150220 0.098097
0.107929 0.155355 0.098958
0.134356 0.156036 0.093506
0.166672 0.147731 0.088899
0.201945 0.148398 0.087928
0.234195 0.152702 0.086772
0.263857 0.159255 0.086730
0.292073 0.166861 0.087612
0.319824 0.174845 0.089837
0.347534 0.182784 0.092882
0.374626 0.190211 0.096196
0.401807 0.197572 0.100524
0.430236 0.205650 0.106151
0.459864 0.214489 0.112475
0.490054 0.223724 0.119026
0.520902 0.233310 0.125793
0.552121 0.243223 0.132712
0.583030 0.253380 0.139627
0.613040 0.263597 0.146378
0.641431 0.273627 0.152796
0.668403 0.283683 0.158964
0.693785 0.294002 0.164606
0.718276 0.305297 0.169464
0.741308 0.316952 0.173193
0.763000 0.328486 0.175696
0.783369 0.339099 0.177131
0.801818 0.348562 0.178214
0.819742 0.358074 0.178974
0.837178 0.367247 0.179800
0.854734 0.376853 0.180622
0.872133 0.386557 0.180627
0.073283 0.158607 0.097038
0.082636 0.160660 0.098870
0.093721 0.165532 0.100828
0.107925 0.171728 0.101098
0.129470 0.176546 0.099055
0.167390 0.172314 0.091907
0.202864 0.163190 0.088968
0.236816 0.162913 0.088743
0.268611 0.168313 0.089046
0.298141 0.175675 0.090067
0.326817 0.183765 0.092723
0.354759 0.191680 0.095895
0.382096 0.199120 0.099190
0.409502 0.206566 0.103290
0.438155 0.214771 0.108650
0.468352 0.223828 0.114997
0.499062 0.233254 0.121701
0.529916 0.242880 0.128494
0.560915 0.252827 0.135372
0.591678 0.263113 0.142276
0.621456 0.273525 0.149017
0.649275 0.283807 0.155362
0.675786 0.294368 0.161406
0.701582 0.305902 0.167001
0.726322 0.318541 0.171525
0.749695 0.331527 0.174427
0.770999 0.343686 0.176188
0.791319 0.354922 0.177438
0.809935 0.365414 0.178257
0.827628 0.375389 0.179058
0.844557 0.384871 0.179870
0.861548 0.394651 0.180631
0.878300 0.404684 0.180615
0.074603 0.171749 0.099828
0.084012 0.174031 0.101401
0.094694 0.179047 0.102990
0.108002 0.187032 0.102217
0.126440 0.193265 0.101573
0.163309 0.195610 0.096519
0.205626 0.187005 0.090616
0.239217 0.177687 0.090513
0.271860 0.178978 0.091856
0.303266 0.185131 0.093192
0.333252 0.192793 0.095757
0.361607 0.200532 0.098873
0.389260 0.207904 0.102033
0.417118 0.215464 0.105899
0.445962 0.223804 0.111076
0.476363 0.232946 0.117434
0.507219 0.242462 0.124192
0.538018 0.252204 0.130996
0.568884 0.262210 0.137875
0.599438 0.272485 0.144745
0.629051 0.282953 0.151478
0.656715 0.293406 0.157797
0.683166 0.304367 0.163690
0.709028 0.316654 0.168899
0.733957 0.330120 0.172808
0.757360 0.343523 0.175228
0.778275 0.355683 0.176623
0.798105 0.367392 0.177582
0.816779 0.378828 0.178255
0.834876 0.390014 0.179160
0.851778 0.400745 0.179816
0.868866 0.411115 0.180629
0.885735 0.421665 0.181353
0.075930 0.185091 0.103107
0.085191 0.186888 0.103897
0.095560 0.191798 0.104946
0.108003 0.200092 0.103437
0.124968 0.208343 0.101756
0.156945 0.214730 0.099525
0.202930 0.212883 0.095229
0.243931 0.201104 0.092846
0.275755 0.193706 0.094179
0.307132 0.196021 0.096493
0.338553 0.202493 0.099102
0.368068 0.209635 0.101961
0.396336 0.216762 0.104873
0.424520 0.224252 0.108438
0.453483 0.232608 0.113412
0.483865 0.241782 0.119732
0.514809 0.251339 0.126550
0.545629 0.261161 0.133397
0.576176 0.271232 0.140227
0.606263 0.281507 0.147012
0.635617 0.292019 0.153725
0.663443 0.302761 0.160058
0.690124 0.314345 0.165750
0.715930 0.327283 0.170414
0.740792 0.340958 0.173733
0.764052 0.354223 0.175773
0.785024 0.366507 0.176834
0.804648 0.378396 0.177621
0.823212 0.390075 0.178338
0.841054 0.401952 0.179244
0.858321 0.413633 0.179995
0.875674 0.425347 0.180787
0.892249 0.437198 0.182246
0.076805 0.198286 0.105702
0.085910 0.200064 0.105959
0.096056 0.204528 0.106529
0.107704 0.212502 0.104378
0.124108 0.222026 0.101650
0.151667 0.229962 0.100242
0.196791 0.234126 0.099524
0.244777 0.229109 0.097443
0.281819 0.216149 0.096982
0.311645 0.210273 0.099364
0.342674 0.213436 0.102492
0.373411 0.219548 0.105243
0.402647 0.225965 0.107808
0.431484 0.233056 0.111035
0.460836 0.241296 0.115777
0.491135 0.250431 0.121980
0.521856 0.259977 0.128762
0.552574 0.269822 0.135623
0.582966 0.279920 0.142463
0.612711 0.290245 0.149212
0.641679 0.300802 0.155859
0.669447 0.311803 0.162113
0.696413 0.324150 0.167563
0.722445 0.337774 0.171614
0.746988 0.351479 0.174194
0.770020 0.364466 0.175969
0.790922 0.376803 0.176928
0.810372 0.388740 0.177750
0.828953 0.400611 0.178368
0.846612 0.412839 0.179163
0.864354 0.424972 0.180207
0.881869 0.437592 0.181258
0.896639 0.450414 0.183149
0.076805 0.211644 0.107158
0.086050 0.213729 0.107432
0.096037 0.217696 0.107359
0.107271 0.225575 0.104771
0.123485 0.234749 0.102162
0.148500 0.243239 0.101549
0.191733 0.251054 0.102504
0.241691 0.254636 0.103276
0.287332 0.245117 0.101578
0.319692 0.231835 0.102459
0.347964 0.227396 0.105262
0.378139 0.230740 0.108391
0.408076 0.236130 0.111009
0.437560 0.242340 0.113810
0.467660 0.250088 0.118183
0.498161 0.259015 0.124220
0.528667 0.268502 0.130942
0.559154 0.278361 0.137784
0.589329 0.288498 0.144630
0.618847 0.298856 0.151368
0.647463 0.309432 0.157925
0.675142 0.320808 0.163968
0.702523 0.333992 0.168972
0.728884 0.348128 0.172461
0.752865 0.361524 0.174445
0.775385 0.374260 0.175933
0.796044 0.386612 0.176878
0.815359 0.398738 0.177722
0.833996 0.410975 0.178290
0.851737 0.423478 0.178996
0.869828 0.436058 0.180546
0.887048 0.449210 0.182033
0.899419 0.461698 0.183788
0.076712 0.224905 0.108558
0.086077 0.227531 0.108575
0.095970 0.231564 0.107825
0.107158 0.239369 0.105088
0.123393 0.248373 0.103317
0.147214 0.257453 0.103863
0.188831 0.266682 0.105212
0.238734 0.274800 0.108084
0.286961 0.273809 0.108731
0.328387 0.260448 0.106929
0.357168 0.247975 0.108021
0.384160 0.244663 0.111110
0.413455 0.247654 0.114161
0.443074 0.252736 0.116821
0.473447 0.259456 0.120657
0.504516 0.267843 0.126459
0.535288 0.277114 0.133155
0.565611 0.286852 0.139939
0.595522 0.296946 0.146740
0.624689 0.307283 0.153434
0.653058 0.318069 0.159906
0.680948 0.330093 0.165684
0.708452 0.343866 0.170022
0.734847 0.358128 0.172890
0.758433 0.371127 0.174578
0.780428 0.383698 0.175790
0.800679 0.396091 0.176567
0.820035 0.408557 0.177422
0.838880 0.421277 0.178132
0.856830 0.434106 0.178953
0.874924 0.447165 0.180991
0.890798 0.460670 0.182798
0.901415 0.472263 0.183965
0.077012 0.238346 0.110378
0.086469 0.241380 0.109943
0.096445 0.245722 0.108847
0.107848 0.253455 0.106370
0.124251 0.262621 0.105368
0.147186 0.272133 0.106758
0.187108 0.282134 0.108163
0.236504 0.292125 0.111415
0.285111 0.297948 0.115480
0.330284 0.291104 0.113898
0.367448 0.275958 0.112338
0.393925 0.264595 0.113929
0.419960 0.261695 0.116985
0.448463 0.264271 0.119812
0.478498 0.269805 0.123289
0.509888 0.277376 0.128713
0.541279 0.286059 0.135322
0.571757 0.295435 0.142055
0.601424 0.305412 0.148795
0.630216 0.315713 0.155422
0.658563 0.326879 0.161737
0.686953 0.339786 0.167148
0.714327 0.353826 0.170782
0.740191 0.367723 0.173012
0.763515 0.380516 0.174538
0.785257 0.393100 0.175613
0.805185 0.405629 0.176254
0.824507 0.418364 0.177014
0.843507 0.431401 0.177895
0.861654 0.444643 0.179041
0.879653 0.458355 0.181387
0.893821 0.471866 0.183195
0.902802 0.482671 0.183797
0.078029 0.251987 0.112920
0.087688 0.255055 0.112220
0.097883 0.259874 0.111096
0.109487 0.267919 0.108904
0.126011 0.277384 0.108236
0.147967 0.287279 0.109931
0.186116 0.297860 0.111257
0.235042 0.308426 0.114114
0.284854 0.317825 0.120033
0.329300 0.318860 0.121990
0.373297 0.307467 0.119149
0.406490 0.292064 0.118145
0.430236 0.281624 0.119944
0.455054 0.278566 0.122662
0.483835 0.281495 0.126060
0.515006 0.288010 0.131171
0.546645 0.295927 0.137588
0.577473 0.304604 0.144241
0.607277 0.314161 0.150912
0.635943 0.324431 0.157424
0.664351 0.336146 0.163403
0.692956 0.349813 0.168195
0.720176 0.363842 0.171247
0.745422 0.377198 0.173083
0.768373 0.389878 0.174409
0.789926 0.402552 0.175386
0.809807 0.415407 0.176018
0.828915 0.428404 0.176657
0.847612 0.441573 0.177614
0.866017 0.455170 0.179285
0.883339 0.469443 0.181883
0.896609 0.482689 0.183278
0.903631 0.492776 0.183598
0.079945 0.266034 0.116179
0.089805 0.269049 0.115404
0.100215 0.274378 0.114303
0.111907 0.282957 0.112261
0.128274 0.292778 0.111547
0.149432 0.302982 0.113313
0.186395 0.314019 0.114491
0.234736 0.324785 0.116978
0.285189 0.335882 0.122677
0.330107 0.342371 0.128521
0.373896 0.338904 0.128165
0.415345 0.325168 0.124936
0.444414 0.309727 0.124182
0.465834 0.299342 0.125788
0.490404 0.296219 0.128801
0.520183 0.299822 0.133737
0.551767 0.306962 0.140058
0.582841 0.315031 0.146615
0.612917 0.323893 0.153134
0.641959 0.334105 0.159418
0.670581 0.346340 0.164834
0.699022 0.360254 0.168851
0.725959 0.373888 0.171460
0.750722 0.386828 0.173136
0.773089 0.399379 0.174241
0.794252 0.412087 0.175173
0.814228 0.425218 0.175761
0.833224 0.438510 0.176384
0.851676 0.451974 0.177510
0.870014 0.465939 0.179870
0.886123 0.480342 0.182283
0.898739 0.493076 0.183261
0.904190 0.502826 0.183583
0.082592 0.281009 0.119898
0.092586 0.283987 0.119059
0.103116 0.289624 0.117910
0.114822 0.298596 0.115955
0.130873 0.308708 0.115042
0.151580 0.319286 0.116799
0.187741 0.330707 0.117853
0.235602 0.341578 0.120137
0.285574 0.353366 0.124597
0.332452 0.363099 0.132395
0.374165 0.366953 0.136511
0.416996 0.360520 0.134615
0.455650 0.345399 0.131130
0.481704 0.329233 0.130039
0.501923 0.318252 0.131787
0.526875 0.315217 0.136342
0.557108 0.319425 0.142664
0.588360 0.327085 0.149175
0.618771 0.335713 0.155479
0.648407 0.345701 0.161307
0.677363 0.357633 0.166002
0.705294 0.370897 0.169229
0.731718 0.384005 0.171400
0.756048 0.396749 0.172985
0.777796 0.409147 0.173941
0.798422 0.421967 0.174776
0.818224 0.435229 0.175395
0.837176 0.448655 0.176242
0.855832 0.462496 0.177764
0.873510 0.477111 0.180648
0.888690 0.491280 0.182566
0.900036 0.503313 0.183255
0.904725 0.513303 0.183624
0.085687 0.297038 0.123848
0.095805 0.300014 0.122856
0.106350 0.305739 0.121667
0.118033 0.315008 0.119698
0.133700 0.325278 0.118562
0.154088 0.336169 0.120334
0.189617 0.348086 0.121349
0.237501 0.359108 0.123467
0.286098 0.370961 0.126885
0.334617 0.382686 0.134460
0.377614 0.390669 0.141928
0.417128 0.392783 0.144276
0.458444 0.384840 0.141210
0.495005 0.368204 0.136857
0.519008 0.350364 0.135324
0.538896 0.338692 0.138532
0.564512 0.336202 0.144867
0.594554 0.341133 0.151543
0.625166 0.349604 0.157593
0.655272 0.359328 0.162774
0.684405 0.370192 0.166694
0.711795 0.382025 0.169310
0.737475 0.394433 0.171051
0.761341 0.407028 0.172526
0.782655 0.419423 0.173457
0.802650 0.432258 0.174174
0.821981 0.445564 0.174960
0.840958 0.459239 0.176110
0.859687 0.473399 0.178022
0.876478 0.488390 0.181100
0.891206 0.502113 0.182635
0.900932 0.513700 0.183259
0.905304 0.524193 0.183556
0.089071 0.313706 0.127925
0.099313 0.316900 0.126736
0.109853 0.322866 0.125499
0.121437 0.332275 0.123454
0.136782 0.342755 0.122135
0.156945 0.353766 0.124004
0.192686 0.365993 0.124999
0.240487 0.377627 0.126946
0.287658 0.389489 0.129896
0.336005 0.402075 0.135916
0.381797 0.412273 0.144799
0.420637 0.419703 0.150718
0.458261 0.421188 0.151439
0.498464 0.411385 0.147146
0.532914 0.392298 0.141454
0.556217 0.373107 0.140428
0.577069 0.361589 0.145441
0.602969 0.359798 0.152600
0.632311 0.365371 0.158811
0.662305 0.374395 0.163478
0.691296 0.384263 0.166790
0.718329 0.394592 0.169097
0.743387 0.405761 0.170623
0.766571 0.417758 0.171908
0.787480 0.430231 0.172888
0.806876 0.443010 0.173677
0.825726 0.456339 0.174550
0.844723 0.470434 0.175962
0.863161 0.485015 0.178379
0.879020 0.499648 0.181261
0.893514 0.513033 0.182531
0.901714 0.524690 0.183179
0.905883 0.535663 0.183480
0.092715 0.331497 0.132136
0.103067 0.335148 0.130816
0.113655 0.341444 0.129420
0.125090 0.350700 0.127332
0.140296 0.361545 0.125946
0.160403 0.372636 0.127804
0.196881 0.384915 0.128677
0.244359 0.397096 0.130549
0.290706 0.409236 0.133275
0.337599 0.422178 0.137666
0.384593 0.434177 0.146488
0.426133 0.444021 0.154353
0.462063 0.450976 0.158563
0.498273 0.451224 0.158241
0.537656 0.439814 0.152546
0.570642 0.418992 0.145852
0.593674 0.398682 0.145192
0.615440 0.386899 0.150908
0.641243 0.385143 0.157885
0.669736 0.390763 0.163064
0.698115 0.399540 0.166371
0.724675 0.408881 0.168563
0.749318 0.418768 0.170055
0.771738 0.429572 0.171181
0.792119 0.441601 0.172291
0.811138 0.454383 0.173281
0.829642 0.467833 0.174208
0.848429 0.482262 0.175939
0.866275 0.497162 0.179150
0.881337 0.511095 0.181340
0.895440 0.524522 0.182425
0.902374 0.536429 0.183108
0.906389 0.547922 0.183708
0.096645 0.350754 0.136521
0.107077 0.354826 0.135111
0.117780 0.361532 0.133501
0.129136 0.370660 0.131373
0.144281 0.381497 0.130033
0.164463 0.392828 0.131724
0.201440 0.405635 0.132374
0.249086 0.417904 0.134315
0.294844 0.430239 0.136856
0.340225 0.443310 0.140269
0.386928 0.456713 0.147949
0.430562 0.467723 0.156642
0.468315 0.476901 0.162788
0.502236 0.483961 0.166076
0.537885 0.483797 0.165132
0.575088 0.471239 0.158310
0.606233 0.448710 0.150403
0.629929 0.426462 0.148813
0.652680 0.413365 0.153952
0.678213 0.410983 0.160499
0.705151 0.416133 0.164944
0.730936 0.424533 0.167482
0.754935 0.433663 0.169115
0.776842 0.443384 0.170326
0.796661 0.454209 0.171596
0.815471 0.466571 0.172749
0.833782 0.480049 0.173913
0.852193 0.494620 0.176121
0.868972 0.509402 0.179816
0.883518 0.522820 0.181233
0.896873 0.536504 0.182331
0.902910 0.548647 0.183300
0.906822 0.560544 0.184368
0.100871 0.370702 0.141059
0.111389 0.375214 0.139496
0.122201 0.382741 0.137710
0.133624 0.391835 0.135500
0.148702 0.402257 0.134254
0.169013 0.414086 0.135773
0.206947 0.427550 0.136302
0.255137 0.440020 0.138292
0.300146 0.452387 0.140788
0.343859 0.465214 0.143618
0.389216 0.479199 0.149533
0.433030 0.491282 0.158054
0.473194 0.501736 0.165510
0.508267 0.511363 0.170525
0.540302 0.518378 0.173486
0.574086 0.517953 0.172522
0.609096 0.504805 0.164839
0.639654 0.480374 0.154790
0.664189 0.455589 0.151244
0.687250 0.440720 0.155419
0.712073 0.437311 0.161358
0.737095 0.441985 0.165395
0.760341 0.450228 0.167707
0.781804 0.459374 0.169275
0.801164 0.469030 0.170711
0.819730 0.480245 0.172017
0.838038 0.493064 0.173696
0.855834 0.507425 0.176518
0.871342 0.521692 0.179911
0.885596 0.535068 0.181055
0.897979 0.549015 0.182509
0.903355 0.561446 0.183854
0.907211 0.573476 0.185361
0.105367 0.391345 0.145668
0.116030 0.396674 0.143891
0.126880 0.404810 0.141979
0.138527 0.413866 0.139670
0.153550 0.423954 0.138549
0.174419 0.436239 0.139917
0.214125 0.449820 0.140495
0.262212 0.462760 0.142413
0.306283 0.475387 0.144817
0.348492 0.488131 0.147362
0.392244 0.502018 0.151622
0.435538 0.515014 0.159245
0.476284 0.526156 0.167399
0.513372 0.536693 0.173569
0.546080 0.546252 0.177828
0.576213 0.552817 0.180790
0.607690 0.552322 0.180038
0.640844 0.538653 0.171414
0.670505 0.512526 0.159194
0.694718 0.486016 0.153788
0.718004 0.469838 0.156700
0.742199 0.465169 0.161666
0.765202 0.469371 0.165227
0.786363 0.477539 0.167527
0.805517 0.486508 0.169447
0.823731 0.496382 0.171162
0.842138 0.507727 0.173643
0.859070 0.521016 0.177012
0.873563 0.534486 0.179712
0.887772 0.548120 0.181129
0.899015 0.562329 0.183125
0.903756 0.574974 0.184825
0.907554 0.587377 0.186733
0.110137 0.412854 0.150345
0.120926 0.419077 0.148376
0.131862 0.427627 0.146323
0.143708 0.436862 0.143933
0.158784 0.446377 0.142970
0.181230 0.458907 0.144146
0.222887 0.472662 0.144739
0.269802 0.485975 0.146642
0.312941 0.498858 0.148964
0.354502 0.511770 0.151351
0.396641 0.525176 0.154448
0.438820 0.538504 0.160748
0.478975 0.550270 0.168757
0.516704 0.560992 0.175743
0.551073 0.571442 0.180784
0.581567 0.580526 0.184569
0.609764 0.586338 0.187653
0.639140 0.585411 0.187062
0.670181 0.571825 0.178142
0.698465 0.545963 0.165013
0.722435 0.519075 0.157964
0.745320 0.501317 0.158640
0.768232 0.495330 0.162077
0.789818 0.499106 0.165119
0.809204 0.506750 0.167823
0.827398 0.515650 0.170385
0.845783 0.525381 0.173709
0.861852 0.536377 0.177482
0.875837 0.548469 0.179715
0.889842 0.562293 0.181786
0.899933 0.576715 0.184230
0.904125 0.589537 0.186265
0.907878 0.602191 0.188382
0.115183 0.435237 0.155001
0.126044 0.442109 0.152950
0.137157 0.451501 0.150670
0.149041 0.460686 0.148218
0.164279 0.469647 0.147477
0.188334 0.482227 0.148384
0.232114 0.496218 0.148984
0.278023 0.509644 0.150938
0.320485 0.522498 0.153231
0.361472 0.535428 0.155531
0.402055 0.548485 0.157995
0.442578 0.561711 0.162711
0.481936 0.573780 0.170049
0.519270 0.584567 0.177430
0.554366 0.595185 0.183307
0.586317 0.605407 0.187634
0.614853 0.613904 0.191046
0.641184 0.619311 0.194073
0.668498 0.618031 0.193636
0.697520 0.604878 0.185033
0.724079 0.579978 0.171627
0.747000 0.552818 0.163155
0.769072 0.534595 0.162159
0.790890 0.528039 0.164232
0.811315 0.530919 0.167063
0.830717 0.538167 0.170345
0.849044 0.546552 0.174153
0.864090 0.555363 0.177963
0.878045 0.565204 0.180295
0.891793 0.578370 0.183058
0.900596 0.592410 0.185832
0.904473 0.605068 0.187958
0.908213 0.617138 0.190026
0.120411 0.458090 0.159690
0.131333 0.465580 0.157435
0.142587 0.475524 0.154984
0.154528 0.484835 0.152417
0.170141 0.493533 0.152044
0.195932 0.506229 0.152660
0.241604 0.520120 0.153347
0.286996 0.533397 0.155264
0.329078 0.546244 0.157512
0.369361 0.558982 0.159751
0.408331 0.571569 0.162046
0.447096 0.584228 0.165352
0.485441 0.596465 0.171622
0.522128 0.607488 0.179027
0.556855 0.617737 0.185429
0.589661 0.628372 0.190346
0.619530 0.638534 0.193973
0.646009 0.646392 0.196958
0.670531 0.650643 0.199875
0.695848 0.648776 0.199863
0.722453 0.636210 0.191534
0.747248 0.612404 0.177890
0.769370 0.586836 0.169474
0.790404 0.569205 0.167978
0.811650 0.561882 0.169286
0.832990 0.564188 0.172192
0.851402 0.570592 0.175744
0.865951 0.577784 0.179191
0.879885 0.586025 0.181984
0.893414 0.596854 0.185101
0.901060 0.608847 0.187610
0.904836 0.620472 0.189668
0.908597 0.632191 0.191761
0.125808 0.481283 0.164328
0.136838 0.489906 0.161909
0.148224 0.500079 0.159220
0.160433 0.509303 0.156620
0.176415 0.517668 0.156667
0.205929 0.530143 0.156870
0.252613 0.543997 0.157739
0.296965 0.557098 0.159651
0.338050 0.569513 0.161806
0.377447 0.582073 0.164043
0.415367 0.594574 0.166339
0.452584 0.606656 0.168919
0.489683 0.618604 0.173944
0.525604 0.629622 0.180941
0.559533 0.639712 0.187567
0.591987 0.650115 0.192909
0.622370 0.660495 0.196894
0.649825 0.669717 0.199884
0.675108 0.676958 0.202931
0.698975 0.681105 0.206433
0.722336 0.679642 0.206798
0.746246 0.667466 0.197933
0.769460 0.644163 0.183587
0.790929 0.619980 0.175960
0.811743 0.603182 0.174772
0.833107 0.595932 0.176119
0.852275 0.597249 0.179019
0.867330 0.602401 0.181992
0.881446 0.609697 0.184834
0.894685 0.618133 0.187648
0.901478 0.626354 0.189632
0.905238 0.636534 0.191513
0.908956 0.647485 0.193460
0.131356 0.504022 0.168901
0.142560 0.514423 0.166302
0.154058 0.524926 0.163414
0.166798 0.533795 0.161043
0.183293 0.541927 0.161342
0.217760 0.554342 0.161114
0.264554 0.567570 0.162165
0.308298 0.580638 0.164086
0.348374 0.593027 0.166167
0.386292 0.605161 0.168427
0.422957 0.617196 0.170682
0.458878 0.628718 0.172920
0.494491 0.640401 0.176709
0.529402 0.651386 0.183056
0.562493 0.661427 0.189669
0.594032 0.671151 0.195226
0.624316 0.681123 0.199685
0.652771 0.691034 0.203127
0.679693 0.700359 0.206175
0.704712 0.707694 0.209471
0.726772 0.711285 0.213049
0.747564 0.709440 0.213459
0.768974 0.697298 0.204571
