public/LUTs/F-9550-STD.cube
# Copyright: (C) Copyright 2010-2021 by IWLTBAP SAS
# Cannot be resold, shared or otherwise redistributed
# Website: https://luts.iwltbap.com
TITLE "IWLTBAP 9550 (Rec.709, sRGB, DCI-P3)"
LUT_3D_SIZE 9
0.081299 0.076782 0.056915
0.136843 0.085819 0.060359
0.194021 0.103028 0.059526
0.246293 0.119507 0.064675
0.323616 0.143122 0.075800
0.455953 0.177874 0.089947
0.607138 0.216789 0.102085
0.729106 0.253762 0.116524
0.813110 0.285065 0.131042
0.085191 0.141027 0.074946
0.144280 0.139036 0.069407
0.225182 0.147188 0.068711
0.287347 0.166831 0.079003
0.370250 0.194347 0.093627
0.503964 0.230005 0.108814
0.637836 0.269167 0.123701
0.741973 0.305989 0.140449
0.827140 0.340670 0.156893
0.095379 0.210669 0.096611
0.138050 0.214932 0.086110
0.243838 0.207518 0.079411
0.337003 0.212389 0.091291
0.423127 0.246681 0.110957
0.553927 0.288428 0.130302
0.675126 0.325874 0.148308
0.771322 0.373038 0.170367
0.848380 0.415561 0.195460
0.101103 0.290607 0.121853
0.130991 0.308026 0.100076
0.228939 0.307804 0.100501
0.387440 0.280277 0.092145
0.485281 0.297511 0.110109
0.595527 0.344204 0.138526
0.705878 0.384738 0.160386
0.798223 0.435466 0.179133
0.871652 0.480459 0.198188
0.109126 0.399454 0.145373
0.138527 0.420909 0.120725
0.222684 0.433467 0.115415
0.390910 0.422353 0.117661
0.553614 0.374750 0.096455
0.664250 0.404500 0.118015
0.754195 0.450417 0.145116
0.840287 0.496929 0.160601
0.922419 0.543069 0.163023
0.127358 0.562098 0.175930
0.150514 0.582278 0.140263
0.223510 0.597835 0.127843
0.372113 0.603793 0.131856
0.573295 0.599529 0.129717
0.717427 0.526134 0.106439
0.821790 0.535248 0.101502
0.906427 0.573544 0.108438
0.963134 0.615865 0.156246
0.141058 0.723745 0.205492
0.166348 0.739274 0.159922
0.235923 0.752513 0.142159
0.354653 0.762447 0.148737
0.514060 0.760322 0.153170
0.701854 0.753922 0.147213
0.820651 0.710539 0.137042
0.899149 0.708392 0.138855
0.954380 0.715603 0.158078
0.162899 0.851158 0.223501
0.187086 0.856757 0.173451
0.255397 0.862913 0.158517
0.359463 0.865346 0.167546
0.491911 0.868567 0.177942
0.638090 0.866677 0.188177
0.776018 0.865181 0.177981
0.902840 0.854136 0.173852
0.949981 0.834109 0.186385
0.212158 0.939575 0.254822
0.242704 0.939296 0.212147
0.300855 0.940015 0.203806
0.388052 0.941483 0.213445
0.486760 0.942444 0.228323
0.609601 0.943329 0.236791
0.735785 0.941404 0.245215
0.841669 0.938343 0.226693
0.934784 0.943024 0.194427
0.076738 0.089993 0.108016
0.123736 0.098656 0.107586
0.184969 0.106598 0.107584
0.239751 0.119661 0.113453
0.310449 0.138545 0.110722
0.429682 0.174185 0.111792
0.598696 0.218641 0.123424
0.724784 0.261704 0.138422
0.818329 0.300128 0.156271
0.089972 0.134137 0.118744
0.141904 0.151785 0.125094
0.220392 0.159481 0.121525
0.288410 0.177723 0.118506
0.374701 0.200498 0.119463
0.513750 0.235392 0.130383
0.648894 0.274076 0.143055
0.753320 0.307699 0.157936
0.837891 0.341613 0.175489
0.099849 0.206603 0.170653
0.153080 0.223695 0.156380
0.222163 0.218636 0.134026
0.340800 0.227342 0.125010
0.424048 0.256487 0.138568
0.554045 0.299197 0.156309
0.678333 0.343775 0.175342
0.774676 0.383450 0.194426
0.854367 0.425173 0.215887
0.114953 0.289150 0.214224
0.163088 0.313300 0.180933
0.214945 0.314710 0.146940
0.371086 0.299686 0.137215
0.486875 0.312306 0.150863
0.597039 0.358617 0.174966
0.711666 0.410538 0.197645
0.801180 0.457073 0.215834
0.875246 0.497794 0.233063
0.134045 0.393195 0.253242
0.170533 0.430936 0.208647
0.214612 0.445144 0.172550
0.342062 0.438138 0.165592
0.544352 0.405203 0.147195
0.671204 0.421898 0.154023
0.769221 0.470660 0.177340
0.863218 0.520518 0.184438
0.939640 0.564562 0.200242
0.153757 0.549207 0.307048
0.187319 0.590388 0.242989
0.219245 0.608868 0.198841
0.312673 0.620233 0.182407
0.499377 0.613273 0.183141
0.700280 0.570864 0.151497
0.819778 0.567891 0.161918
0.906330 0.601082 0.166143
0.961956 0.642696 0.228506
0.176029 0.718773 0.349077
0.200881 0.743860 0.267084
0.232717 0.757197 0.214204
0.317392 0.764345 0.197547
0.477266 0.771239 0.208271
0.674375 0.761933 0.203507
0.821837 0.738618 0.178812
0.904718 0.728008 0.175547
0.959104 0.734565 0.214049
0.202681 0.845794 0.352696
0.229662 0.861554 0.290619
0.263680 0.867955 0.237073
0.342267 0.872865 0.225300
0.473390 0.876580 0.233217
0.634974 0.874859 0.245076
0.780546 0.872174 0.237958
0.907978 0.871692 0.208964
0.954907 0.844104 0.219618
0.250172 0.936942 0.370116
0.283820 0.945540 0.330717
0.313584 0.945483 0.284270
0.377647 0.945184 0.274470
0.479943 0.945741 0.285418
0.601322 0.947076 0.296221
0.734897 0.947948 0.297364
0.847789 0.945941 0.285399
0.938455 0.947819 0.231287
0.071154 0.103870 0.163606
0.105760 0.112779 0.158785
0.148734 0.119549 0.155165
0.209499 0.131480 0.162723
0.278931 0.138449 0.160057
0.398649 0.155225 0.142833
0.570314 0.196123 0.139220
0.728350 0.253314 0.158944
0.833144 0.310782 0.185314
0.080584 0.133678 0.166567
0.119558 0.153774 0.181655
0.176173 0.174900 0.175292
0.249961 0.191607 0.179990
0.344182 0.205318 0.172619
0.478981 0.240525 0.166899
0.642955 0.289100 0.180308
0.756022 0.330238 0.197065
0.839505 0.366008 0.211600
0.092462 0.180828 0.174456
0.135801 0.200852 0.190230
0.204615 0.233657 0.203969
0.310524 0.248522 0.199642
0.423223 0.270809 0.184582
0.557712 0.309264 0.188356
0.689728 0.349729 0.205870
0.784351 0.386485 0.221087
0.863506 0.424002 0.238914
0.099916 0.288844 0.241469
0.149417 0.305757 0.261360
0.220739 0.332788 0.256311
0.314719 0.332514 0.206266
0.488398 0.341229 0.195797
0.613715 0.385316 0.217159
0.724703 0.439297 0.244862
0.810329 0.479336 0.262120
0.884339 0.514032 0.282568
0.114068 0.395399 0.326784
0.175795 0.425538 0.349791
0.242191 0.465149 0.304119
0.304346 0.466594 0.226905
0.517100 0.455373 0.207553
0.682526 0.454338 0.226744
0.792043 0.505263 0.246571
0.877364 0.547801 0.259747
0.946649 0.587163 0.284295
0.143022 0.543968 0.458383
0.210634 0.587547 0.441416
0.260367 0.620570 0.355480
0.302442 0.633157 0.268043
0.469812 0.631803 0.244495
0.710055 0.603203 0.212782
0.832295 0.599407 0.233737
0.919936 0.626451 0.250855
0.965243 0.668151 0.328373
0.195181 0.718963 0.586401
0.250596 0.741917 0.479707
0.283185 0.763208 0.359352
0.311930 0.772340 0.283343
0.449570 0.781304 0.272236
0.659240 0.778144 0.272821
0.828514 0.756059 0.236064
0.914506 0.742231 0.230451
0.962936 0.752930 0.313067
0.257535 0.841480 0.562369
0.285774 0.858998 0.456364
0.313361 0.873666 0.373993
0.347297 0.875762 0.314413
0.464415 0.880466 0.303205
0.625276 0.882938 0.316997
0.787401 0.878295 0.314211
0.914257 0.881206 0.262870
0.961646 0.853202 0.301980
0.299265 0.935281 0.548262
0.338279 0.943988 0.472970
0.369317 0.952579 0.426891
0.395220 0.953050 0.368409
0.472228 0.952666 0.353321
0.601908 0.952786 0.355534
0.736332 0.952989 0.361069
0.851773 0.952593 0.306424
0.946687 0.950694 0.305983
0.067125 0.120204 0.226319
0.096582 0.125607 0.213677
0.127096 0.135880 0.208033
0.168621 0.145050 0.199757
0.229009 0.156652 0.206303
0.358818 0.162392 0.198715
0.556819 0.165205 0.157617
0.723508 0.235903 0.172044
0.856084 0.292284 0.201354
0.074199 0.152458 0.237092
0.102485 0.167771 0.252436
0.139443 0.179485 0.242540
0.193519 0.199122 0.230928
0.279543 0.219332 0.235885
0.451921 0.228659 0.210644
0.627244 0.278781 0.204592
0.767463 0.334358 0.227816
0.861841 0.386538 0.253962
0.083613 0.179154 0.237095
0.115782 0.199444 0.257418
0.167473 0.229790 0.278398
0.237062 0.258427 0.269672
0.359948 0.292551 0.274856
0.535215 0.320082 0.250728
0.688465 0.375810 0.257653
0.794836 0.421441 0.276220
0.873853 0.454102 0.291939
0.094973 0.228636 0.245563
0.130244 0.254997 0.266017
0.192081 0.293535 0.293564
0.282527 0.338209 0.315463
0.453864 0.375776 0.314449
0.618168 0.407423 0.286776
0.732499 0.450493 0.295614
0.820226 0.489423 0.307416
0.897828 0.514095 0.320991
0.106126 0.380355 0.348230
0.146486 0.418919 0.369789
0.215955 0.447441 0.408112
0.313087 0.486549 0.417981
0.460578 0.497253 0.317174
0.695456 0.496838 0.303815
0.812718 0.535501 0.321721
0.893629 0.576790 0.341020
0.945805 0.609848 0.381455
0.120166 0.548588 0.488330
0.180290 0.585398 0.543487
0.269198 0.619052 0.559594
0.365287 0.648190 0.466810
0.462380 0.649393 0.348415
0.714971 0.630947 0.310839
0.856297 0.628003 0.339625
0.929909 0.656417 0.391872
0.964662 0.690510 0.449313
0.164872 0.705377 0.688664
0.254724 0.741843 0.688110
0.342135 0.763829 0.592183
0.380464 0.779771 0.467149
0.449496 0.789523 0.374845
0.647798 0.788012 0.361902
0.844098 0.769772 0.314675
0.931537 0.756381 0.345370
0.967617 0.771678 0.407133
0.276116 0.841098 0.754308
0.346393 0.855637 0.661631
0.383209 0.867673 0.565910
0.409562 0.880559 0.473468
0.469611 0.884526 0.397349
0.625580 0.887887 0.400919
0.788570 0.886465 0.394380
0.925333 0.887957 0.333656
0.964431 0.867334 0.373121
0.372221 0.933713 0.703275
0.402307 0.943391 0.639042
0.428754 0.951033 0.573740
0.455494 0.953916 0.522375
0.492945 0.953889 0.445233
0.610340 0.953609 0.437597
0.746557 0.953479 0.442335
0.865641 0.954693 0.363249
0.957785 0.951595 0.384671
0.065803 0.142324 0.310372
0.090036 0.144615 0.288829
0.117822 0.151219 0.273876
0.148509 0.160730 0.262777
0.191683 0.170908 0.247192
0.294046 0.183396 0.252548
0.516784 0.179895 0.228905
0.729660 0.200394 0.182238
0.877915 0.265601 0.215660
0.070700 0.174904 0.328650
0.095643 0.190801 0.354941
0.123878 0.194781 0.325247
0.164532 0.209397 0.314448
0.223809 0.229897 0.296588
0.377381 0.249978 0.285964
0.611509 0.258929 0.252386
0.774566 0.312018 0.250415
0.902215 0.373946 0.292038
0.077302 0.200796 0.326360
0.103368 0.224565 0.364063
0.134456 0.247197 0.391229
0.183929 0.264449 0.378799
0.270228 0.297299 0.354928
0.468899 0.336214 0.353225
0.692353 0.365748 0.331118
0.829471 0.420928 0.348099
0.923835 0.468438 0.386685
0.087002 0.233169 0.337059
0.115644 0.257173 0.366750
0.156609 0.290058 0.409114
0.218699 0.331856 0.445617
0.345986 0.383059 0.427661
0.565365 0.428980 0.428606
0.750860 0.464518 0.412592
0.853397 0.520723 0.433188
0.939412 0.551732 0.446417
0.097682 0.292681 0.353531
0.132048 0.330595 0.382932
0.183507 0.371138 0.427230
0.263913 0.416645 0.475327
0.423285 0.493166 0.504830
0.639382 0.546724 0.506456
0.804171 0.572343 0.486360
0.892472 0.604125 0.474056
0.947969 0.630843 0.499880
0.113571 0.509482 0.517818
0.151119 0.556911 0.561292
0.212900 0.590718 0.596183
0.322513 0.629931 0.620119
0.486199 0.661997 0.597705
0.673029 0.664340 0.492160
0.851622 0.663630 0.491306
0.922873 0.694372 0.538151
0.959707 0.721858 0.582637
0.141620 0.707024 0.689758
0.205586 0.727529 0.723449
0.316052 0.748310 0.741521
0.442443 0.774731 0.716063
0.534023 0.793946 0.600112
0.643773 0.794473 0.509964
0.851429 0.781572 0.463129
0.929905 0.769764 0.559475
0.967671 0.792203 0.569628
0.214585 0.804857 0.817484
0.332199 0.835156 0.826389
0.449941 0.865720 0.771492
0.505805 0.875742 0.699330
0.545162 0.887945 0.596333
0.622094 0.892990 0.519929
0.785785 0.892433 0.494322
0.932614 0.889652 0.482623
0.966647 0.873696 0.491721
0.405915 0.932196 0.863436
0.481829 0.940973 0.792599
0.521080 0.947933 0.740639
0.544215 0.950157 0.692787
0.570809 0.952254 0.628844
0.619122 0.951822 0.558007
0.752981 0.952118 0.547803
0.881965 0.953615 0.483661
0.963006 0.952241 0.483495
0.063192 0.175266 0.453232
0.086597 0.174708 0.417824
0.106982 0.176189 0.398695
0.131040 0.180296 0.373064
0.164267 0.188118 0.341756
0.232701 0.204495 0.317374
0.434659 0.221006 0.318914
0.705242 0.200073 0.259535
0.888849 0.225287 0.249356
0.070393 0.208788 0.470252
0.091792 0.227778 0.501042
0.111865 0.226481 0.480090
0.135087 0.231703 0.455248
0.181191 0.246043 0.428220
0.281101 0.277383 0.384662
0.542974 0.283614 0.353756
0.756506 0.299977 0.351880
0.917849 0.350658 0.398247
0.075739 0.239323 0.474087
0.096535 0.260910 0.517504
0.115986 0.279692 0.550643
0.145564 0.287732 0.537952
0.203634 0.306658 0.513472
0.338664 0.354450 0.472082
0.631001 0.377952 0.452715
0.814741 0.410485 0.465921
0.920089 0.474791 0.530503
0.081675 0.270811 0.478748
0.102789 0.296714 0.528246
0.125812 0.322492 0.576840
0.158453 0.347986 0.610601
0.238141 0.377987 0.589554
0.413819 0.441541 0.558127
0.685508 0.476210 0.553687
0.858974 0.515668 0.556302
0.926148 0.575596 0.616534
0.089226 0.310137 0.498149
0.110427 0.334422 0.533116
0.142975 0.368118 0.585578
0.195172 0.410871 0.629710
0.319160 0.476000 0.657326
0.533959 0.555758 0.626613
0.755362 0.593214 0.633626
0.873647 0.631076 0.643468
0.946930 0.670897 0.668121
0.102786 0.399424 0.516874
0.130734 0.434104 0.560335
0.176657 0.481850 0.605727
0.260795 0.529582 0.645584
0.433296 0.597492 0.674325
0.661688 0.676622 0.680828
0.809212 0.704217 0.687811
0.903664 0.726260 0.681493
0.957255 0.749145 0.693924
0.125646 0.620953 0.679165
0.161590 0.664868 0.719567
0.237744 0.698174 0.748748
0.358437 0.732281 0.767554
0.543364 0.779338 0.776351
0.691854 0.800487 0.718077
0.832535 0.794858 0.674354
0.931241 0.794787 0.694618
0.963146 0.813303 0.725043
0.164558 0.789238 0.814496
0.241244 0.803881 0.832447
0.366914 0.832424 0.847150
0.508065 0.854603 0.852050
0.636179 0.882642 0.802698
0.689016 0.896118 0.718556
0.784407 0.897497 0.661211
0.932634 0.890229 0.647411
0.964505 0.878020 0.664476
0.306685 0.884676 0.904735
0.438548 0.916999 0.912412
0.555470 0.941514 0.900669
0.619789 0.947572 0.860289
0.667100 0.946558 0.797538
0.688928 0.947066 0.731425
0.759618 0.946743 0.684457
0.889676 0.948379 0.633080
0.960669 0.949321 0.619572
0.060908 0.217285 0.626881
0.083919 0.216240 0.594501
0.102891 0.216784 0.566515
0.118500 0.216246 0.545513
0.137188 0.216616 0.521490
0.186217 0.231842 0.492429
0.317509 0.255416 0.460951
0.615933 0.275428 0.474789
0.825750 0.288564 0.490139
0.067858 0.252150 0.630684
0.088134 0.271271 0.662710
0.104458 0.271594 0.648642
0.121712 0.271061 0.630873
0.145299 0.277660 0.614676
0.205288 0.298803 0.588856
0.379945 0.338531 0.540801
0.680385 0.363593 0.577921
0.859729 0.392887 0.585883
0.072541 0.287636 0.635220
0.092664 0.308907 0.670309
0.108163 0.324150 0.696134
0.125988 0.328681 0.694885
0.157928 0.339869 0.695868
0.241442 0.372205 0.678263
0.460691 0.426706 0.635905
0.744075 0.447050 0.648388
0.885982 0.491460 0.667327
0.077401 0.318568 0.645613
0.096286 0.340586 0.679712
0.113415 0.360486 0.711672
0.134201 0.380214 0.739179
0.177596 0.401203 0.750377
0.288029 0.442738 0.737889
0.544645 0.510756 0.699598
0.793752 0.530807 0.695705
0.899181 0.576083 0.721970
0.084264 0.353793 0.657012
0.102650 0.375641 0.682026
0.123508 0.404842 0.720639
0.152213 0.436625 0.760083
0.225365 0.480395 0.787269
0.388160 0.538193 0.776358
0.641744 0.610321 0.743986
0.835822 0.633820 0.747445
0.925035 0.673162 0.768608
0.092895 0.407335 0.664165
0.114349 0.438508 0.695503
0.142975 0.476389 0.735172
0.193838 0.519866 0.769828
0.320830 0.575789 0.792337
0.561736 0.660043 0.796156
0.746852 0.717457 0.780641
0.872001 0.738958 0.789962
0.949941 0.765307 0.796785
0.110724 0.509186 0.691154
0.139430 0.547270 0.728824
0.194430 0.587986 0.760345
0.281883 0.633178 0.781410
0.457636 0.693360 0.794138
0.674257 0.761704 0.800812
0.817511 0.810048 0.809486
0.911530 0.825063 0.811244
0.954545 0.838799 0.817032
0.141983 0.706132 0.806125
0.174740 0.735233 0.831461
0.246607 0.765372 0.849996
0.362389 0.799720 0.863669
0.553495 0.849992 0.873510
0.729354 0.892837 0.874026
0.815547 0.903495 0.821716
0.929242 0.897999 0.796914
0.957937 0.898193 0.819172
0.206500 0.866081 0.906111
0.301910 0.886596 0.917139
0.424519 0.907860 0.925485
0.553432 0.920924 0.927173
0.683900 0.928742 0.925160
0.768503 0.940928 0.893974
0.807996 0.942102 0.829175
0.892360 0.942972 0.781897
0.954556 0.941666 0.773251
0.058941 0.260348 0.758926
0.079764 0.262866 0.748063
0.097212 0.265006 0.735491
0.112141 0.265265 0.722945
0.127709 0.266054 0.711922
0.151352 0.270229 0.698455
0.219587 0.302604 0.701599
0.456756 0.332395 0.681224
0.778369 0.356416 0.719090
0.062436 0.301000 0.764541
0.082693 0.314841 0.783363
0.099063 0.318538 0.782415
0.112636 0.321202 0.776940
0.130433 0.324392 0.767625
0.159929 0.333367 0.765962
0.255453 0.371763 0.765675
0.532726 0.417659 0.739072
0.816430 0.437628 0.758080
0.068377 0.333229 0.767945
0.086513 0.348854 0.789339
0.102806 0.362146 0.808035
0.117086 0.368148 0.810235
0.136123 0.376392 0.809467
0.175714 0.395033 0.820510
0.313520 0.445220 0.811363
0.616415 0.491078 0.784459
0.853499 0.510636 0.796905
0.072875 0.364121 0.771310
0.090960 0.382444 0.794124
0.107715 0.399413 0.817549
0.121791 0.413541 0.834025
0.147200 0.426834 0.843125
0.209800 0.456032 0.857849
0.406092 0.525856 0.842643
0.704925 0.566392 0.816552
0.876697 0.582822 0.826168
0.080636 0.400473 0.777853
0.099034 0.421234 0.803104
0.115033 0.439446 0.824072
0.133073 0.458514 0.846321
0.168689 0.487112 0.878091
0.286098 0.533607 0.882774
0.534791 0.624464 0.865245
0.781429 0.653313 0.853813
0.906436 0.668575 0.852178
0.088531 0.445650 0.787179
0.107452 0.468486 0.809216
0.125083 0.488335 0.830232
0.149828 0.517212 0.859061
0.218868 0.560064 0.890891
0.422890 0.634689 0.897479
0.665100 0.723013 0.883871
0.833946 0.743607 0.880008
0.932547 0.759233 0.879791
0.100968 0.519454 0.801641
0.122876 0.546019 0.824916
0.149411 0.573529 0.851593
0.195493 0.605008 0.875505
0.321860 0.657983 0.889284
0.559091 0.730344 0.895170
0.770855 0.811654 0.896954
0.879111 0.828640 0.894463
0.943025 0.839948 0.897123
0.121808 0.609357 0.821093
0.151218 0.641065 0.850670
0.206794 0.674377 0.870616
0.304281 0.714394 0.881633
0.483748 0.768745 0.886641
0.686543 0.829698 0.894015
0.823148 0.877702 0.900911
0.917931 0.908839 0.905550
0.944332 0.917843 0.912305
0.159400 0.777027 0.907083
0.199255 0.795739 0.917881
0.277368 0.826654 0.928189
0.399133 0.864229 0.938044
0.572015 0.898825 0.940039
0.739794 0.911044 0.933435
0.857285 0.926307 0.929017
0.915620 0.938386 0.913308
0.946117 0.938272 0.896931
0.058594 0.310425 0.863342
0.074636 0.313434 0.860430
0.090936 0.318837 0.858630
0.103979 0.322558 0.856204
0.118384 0.321549 0.850004
0.137015 0.327487 0.846854
0.171669 0.344382 0.864160
0.302644 0.397888 0.872316
0.671875 0.421234 0.855347
0.059703 0.344299 0.865299
0.079083 0.358187 0.878347
0.093928 0.364564 0.880722
0.106356 0.367123 0.879622
0.121688 0.371036 0.878293
0.142356 0.376442 0.878677
0.186805 0.400842 0.900671
0.381311 0.476117 0.895680
0.736154 0.495785 0.879013
0.065333 0.377028 0.866635
0.083273 0.391572 0.882162
0.098068 0.404909 0.892339
0.111510 0.409466 0.898323
0.126075 0.412792 0.899580
0.149890 0.422354 0.903104
0.222196 0.457598 0.926108
0.482675 0.555512 0.918846
0.790589 0.557975 0.909427
0.070312 0.406715 0.867698
0.086290 0.420454 0.882081
0.102116 0.434229 0.894939
0.116564 0.444974 0.912144
0.132730 0.451986 0.918566
0.166548 0.467128 0.931139
0.283184 0.516156 0.937950
0.579500 0.626894 0.931719
0.832443 0.618882 0.925959
0.076011 0.439767 0.873518
0.092374 0.455375 0.889587
0.108491 0.469297 0.904895
0.123008 0.481537 0.920131
0.145175 0.499423 0.939552
0.209721 0.526925 0.947465
0.402516 0.603182 0.949893
0.693622 0.701895 0.941023
0.874003 0.691332 0.937383
0.083635 0.480254 0.880873
0.102107 0.495512 0.897903
0.116823 0.515208 0.915572
0.132264 0.530095 0.929501
0.172080 0.554866 0.947682
0.301814 0.605322 0.954994
0.564613 0.704818 0.953074
0.787760 0.771564 0.940532
0.918630 0.764301 0.939827
0.096005 0.541835 0.890216
0.112956 0.560321 0.906537
0.131834 0.582073 0.922787
0.157013 0.601030 0.939202
0.226396 0.632989 0.950248
0.432501 0.701817 0.955492
0.714323 0.803621 0.945909
0.855349 0.842904 0.938089
0.938234 0.842704 0.935200
0.113639 0.619832 0.901343
0.134644 0.638764 0.920350
0.164382 0.655127 0.936570
0.219004 0.682464 0.946142
0.357338 0.729830 0.952806
0.594213 0.806450 0.951581
0.790450 0.873312 0.941816
0.908084 0.915101 0.937958
0.941574 0.918153 0.937102
0.140900 0.702240 0.918213
0.179263 0.720272 0.934784
0.249375 0.743182 0.942807
0.355044 0.779633 0.947660
0.535176 0.840739 0.950823
0.724261 0.894247 0.943805
0.852523 0.921613 0.938688
0.931030 0.937638 0.937740
0.942902 0.939148 0.939026
