public/LUTs/F-9550-STD.cube
# Copyright: (C) Copyright 2010-2021 by IWLTBAP SAS
# Cannot be resold, shared or otherwise redistributed
# Website: https://luts.iwltbap.com
TITLE "IWLTBAP 9550 (Rec.709, sRGB, DCI-P3)"
LUT_3D_SIZE 5
0.081299 0.076782 0.056915
0.194021 0.103028 0.059526
0.323616 0.143122 0.075800
0.607138 0.216789 0.102085
0.813110 0.285065 0.131042
0.095379 0.210669 0.096611
0.243838 0.207518 0.079411
0.423127 0.246681 0.110957
0.675126 0.325874 0.148308
0.848380 0.415561 0.195460
0.109126 0.399454 0.145373
0.222684 0.433467 0.115415
0.553614 0.374750 0.096455
0.754195 0.450417 0.145116
0.922419 0.543069 0.163023
0.141058 0.723745 0.205492
0.235923 0.752513 0.142159
0.514060 0.760322 0.153170
0.820651 0.710539 0.137042
0.954380 0.715603 0.158078
0.212158 0.939575 0.254822
0.300855 0.940015 0.203806
0.486760 0.942444 0.228323
0.735785 0.941404 0.245215
0.934784 0.943024 0.194427
0.071154 0.103870 0.163606
0.148734 0.119549 0.155165
0.278931 0.138449 0.160057
0.570314 0.196123 0.139220
0.833144 0.310782 0.185314
0.092462 0.180828 0.174456
0.204615 0.233657 0.203969
0.423223 0.270809 0.184582
0.689728 0.349729 0.205870
0.863506 0.424002 0.238914
0.114068 0.395399 0.326784
0.242191 0.465149 0.304119
0.517100 0.455373 0.207553
0.792043 0.505263 0.246571
0.946649 0.587163 0.284295
0.195181 0.718963 0.586401
0.283185 0.763208 0.359352
0.449570 0.781304 0.272236
0.828514 0.756059 0.236064
0.962936 0.752930 0.313067
0.299265 0.935281 0.548262
0.369317 0.952579 0.426891
0.472228 0.952666 0.353321
0.736332 0.952989 0.361069
0.946687 0.950694 0.305983
0.065803 0.142324 0.310372
0.117822 0.151219 0.273876
0.191683 0.170908 0.247192
0.516784 0.179895 0.228905
0.877915 0.265601 0.215660
0.077302 0.200796 0.326360
0.134456 0.247197 0.391229
0.270228 0.297299 0.354928
0.692353 0.365748 0.331118
0.923835 0.468438 0.386685
0.097682 0.292681 0.353531
0.183507 0.371138 0.427230
0.423285 0.493166 0.504830
0.804171 0.572343 0.486360
0.947969 0.630843 0.499880
0.141620 0.707024 0.689758
0.316052 0.748310 0.741521
0.534023 0.793946 0.600112
0.851429 0.781572 0.463129
0.967671 0.792203 0.569628
0.405915 0.932196 0.863436
0.521080 0.947933 0.740639
0.570809 0.952254 0.628844
0.752981 0.952118 0.547803
0.963006 0.952241 0.483495
0.060908 0.217285 0.626881
0.102891 0.216784 0.566515
0.137188 0.216616 0.521490
0.317509 0.255416 0.460951
0.825750 0.288564 0.490139
0.072541 0.287636 0.635220
0.108163 0.324150 0.696134
0.157928 0.339869 0.695868
0.460691 0.426706 0.635905
0.885982 0.491460 0.667327
0.084264 0.353793 0.657012
0.123508 0.404842 0.720639
0.225365 0.480395 0.787269
0.641744 0.610321 0.743986
0.925035 0.673162 0.768608
0.110724 0.509186 0.691154
0.194430 0.587986 0.760345
0.457636 0.693360 0.794138
0.817511 0.810048 0.809486
0.954545 0.838799 0.817032
0.206500 0.866081 0.906111
0.424519 0.907860 0.925485
0.683900 0.928742 0.925160
0.807996 0.942102 0.829175
0.954556 0.941666 0.773251
0.058594 0.310425 0.863342
0.090936 0.318837 0.858630
0.118384 0.321549 0.850004
0.171669 0.344382 0.864160
0.671875 0.421234 0.855347
0.065333 0.377028 0.866635
0.098068 0.404909 0.892339
0.126075 0.412792 0.899580
0.222196 0.457598 0.926108
0.790589 0.557975 0.909427
0.076011 0.439767 0.873518
0.108491 0.469297 0.904895
0.145175 0.499423 0.939552
0.402516 0.603182 0.949893
0.874003 0.691332 0.937383
0.096005 0.541835 0.890216
0.131834 0.582073 0.922787
0.226396 0.632989 0.950248
0.714323 0.803621 0.945909
0.938234 0.842704 0.935200
0.140900 0.702240 0.918213
0.249375 0.743182 0.942807
0.535176 0.840739 0.950823
0.852523 0.921613 0.938688
0.942902 0.939148 0.939026
