public/LUTs/F-9550-STD.cube
# Copyright: (C) Copyright 2010-2021 by IWLTBAP SAS
# Cannot be resold, shared or otherwise redistributed
# Website: https://luts.iwltbap.com
TITLE "IWLTBAP 9550 (Rec.709, sRGB, DCI-P3)"
LUT_3D_SIZE 33
0.081299 0.076782 0.056915
0.091583 0.078430 0.058969
0.104979 0.079755 0.059695
0.120393 0.082178 0.059946
0.136843 0.085819 0.060359
0.153978 0.090113 0.060524
0.168232 0.094691 0.059952
0.181464 0.099042 0.059258
0.194021 0.103028 0.059526
0.207360 0.106841 0.060549
0.220917 0.110721 0.061759
0.233361 0.115051 0.062924
0.246293 0.119507 0.064675
0.261796 0.124045 0.066866
0.279900 0.129215 0.069415
0.300329 0.135670 0.072449
0.323616 0.143122 0.075800
0.351596 0.151174 0.079415
0.384343 0.159756 0.083109
0.419509 0.168633 0.086585
0.455953 0.177874 0.089947
0.492939 0.187483 0.093161
0.530311 0.197218 0.096059
0.569146 0.207037 0.098894
0.607138 0.216789 0.102085
0.641256 0.227292 0.106248
0.672158 0.236863 0.110212
0.701694 0.244488 0.112856
0.729106 0.253762 0.116524
0.752677 0.261745 0.119750
0.775077 0.268585 0.122466
0.795486 0.276000 0.126151
0.813110 0.285065 0.131042
0.080450 0.089825 0.059416
0.096199 0.089806 0.059663
0.108239 0.091049 0.060731
0.123543 0.092201 0.061740
0.140158 0.095406 0.062731
0.158786 0.099326 0.062726
0.174021 0.104066 0.062500
0.186945 0.108515 0.062202
0.199992 0.112699 0.062397
0.213331 0.116689 0.063533
0.226819 0.120719 0.064714
0.240235 0.125709 0.066348
0.254871 0.131094 0.068829
0.271408 0.136224 0.071345
0.289450 0.141661 0.073906
0.309912 0.148201 0.076872
0.333931 0.155877 0.080236
0.362825 0.164230 0.083845
0.395944 0.172827 0.087469
0.430280 0.181448 0.090977
0.466163 0.190381 0.094349
0.504756 0.199919 0.097481
0.542905 0.209655 0.100344
0.579436 0.219554 0.103466
0.615060 0.229818 0.107259
0.647769 0.239956 0.111325
0.677679 0.249620 0.115537
0.704307 0.258077 0.119231
0.729828 0.266054 0.122277
0.753148 0.273519 0.125502
0.775010 0.281140 0.128991
0.795677 0.289370 0.132744
0.814558 0.296853 0.136447
0.081399 0.103192 0.062699
0.095897 0.103039 0.062036
0.112118 0.104274 0.061777
0.128252 0.105236 0.062586
0.144126 0.106739 0.064411
0.163082 0.109246 0.064431
0.180454 0.113245 0.063998
0.194131 0.118170 0.064062
0.207400 0.123049 0.065080
0.220903 0.127579 0.066941
0.234882 0.132229 0.068351
0.249159 0.138038 0.070554
0.264384 0.144222 0.073539
0.281643 0.149719 0.076148
0.300463 0.155342 0.078673
0.321088 0.162002 0.081646
0.345262 0.169377 0.084946
0.374531 0.177274 0.088485
0.407910 0.185714 0.092083
0.442289 0.194259 0.095490
0.477234 0.202873 0.098760
0.514183 0.211946 0.101871
0.551323 0.221411 0.104800
0.587167 0.231299 0.108010
0.622082 0.241712 0.111771
0.654584 0.251757 0.115676
0.683553 0.261178 0.119818
0.708590 0.269947 0.124101
0.732760 0.277711 0.127416
0.756501 0.285616 0.130740
0.777611 0.293729 0.134493
0.798502 0.302427 0.138376
0.818260 0.309994 0.142024
0.082686 0.121207 0.068528
0.095455 0.121056 0.067807
0.110572 0.121386 0.066910
0.128880 0.121324 0.065281
0.146241 0.121782 0.066509
0.167146 0.122972 0.065813
0.188603 0.125207 0.064590
0.203792 0.129052 0.064902
0.217028 0.134032 0.066706
0.230496 0.138977 0.069008
0.245181 0.143626 0.070849
0.259847 0.149417 0.073669
0.275282 0.155672 0.076870
0.292448 0.161575 0.079727
0.311032 0.167789 0.082662
0.332020 0.174683 0.085838
0.357132 0.182010 0.089121
0.387209 0.189883 0.092669
0.420882 0.198510 0.096534
0.455241 0.207449 0.100313
0.490019 0.216278 0.103676
0.525940 0.225253 0.106806
0.560724 0.234455 0.110039
0.594483 0.244169 0.113567
0.628844 0.254898 0.117509
0.661422 0.265064 0.121426
0.689659 0.274558 0.125533
0.713324 0.283750 0.130012
0.736329 0.291630 0.133781
0.760254 0.299508 0.137042
0.781650 0.307622 0.140688
0.801314 0.315926 0.144576
0.821664 0.323767 0.148333
0.085191 0.141027 0.074946
0.095858 0.140818 0.074335
0.107842 0.140780 0.072587
0.125373 0.140418 0.070630
0.144280 0.139036 0.069407
0.165432 0.140149 0.068886
0.189059 0.141281 0.067484
0.209714 0.143368 0.067232
0.225182 0.147188 0.068711
0.240087 0.151266 0.070547
0.256385 0.155110 0.072648
0.271820 0.160605 0.075750
0.287347 0.166831 0.079003
0.304105 0.173059 0.082182
0.322218 0.179791 0.085773
0.343937 0.186952 0.089765
0.370250 0.194347 0.093627
0.400887 0.202389 0.097250
0.434860 0.211202 0.100987
0.469393 0.220526 0.104969
0.503964 0.230005 0.108814
0.539444 0.239311 0.112173
0.573470 0.248664 0.115585
0.605382 0.258379 0.119465
0.637836 0.269167 0.123701
0.668816 0.279520 0.127864
0.695797 0.288431 0.131770
0.719089 0.297229 0.136098
0.741973 0.305989 0.140449
0.765803 0.314283 0.144034
0.787738 0.322824 0.148103
0.807812 0.332043 0.152668
0.827140 0.340670 0.156893
0.087521 0.159352 0.081045
0.096812 0.159045 0.079931
0.106945 0.158999 0.077277
0.122926 0.158963 0.075158
0.141746 0.158267 0.073518
0.164478 0.157094 0.072517
0.189440 0.156791 0.070764
0.212505 0.157802 0.070193
0.231677 0.160380 0.071274
0.249168 0.163473 0.072658
0.267946 0.166475 0.074343
0.284389 0.171659 0.077474
0.299625 0.178014 0.081505
0.316093 0.184755 0.085715
0.334487 0.192108 0.090028
0.356476 0.199824 0.094459
0.383095 0.207605 0.098620
0.414226 0.215761 0.102357
0.448693 0.224647 0.106061
0.483928 0.234210 0.109988
0.518652 0.243951 0.113943
0.553031 0.253361 0.117656
0.586000 0.263057 0.121522
0.617339 0.273536 0.125918
0.648590 0.284052 0.130162
0.677347 0.293597 0.134104
0.702608 0.302296 0.138038
0.726143 0.311290 0.142379
0.749407 0.321212 0.147314
0.772427 0.330543 0.151713
0.794218 0.340303 0.156776
0.814339 0.349978 0.162019
0.833112 0.358694 0.166569
0.090154 0.176146 0.086893
0.097491 0.176618 0.084008
0.107053 0.176530 0.080882
0.122836 0.176595 0.078562
0.140771 0.176386 0.077434
0.163970 0.174751 0.076373
0.190636 0.173167 0.074161
0.214771 0.173514 0.073251
0.236391 0.174826 0.073506
0.256975 0.176032 0.074833
0.278198 0.177655 0.076849
0.295976 0.182489 0.080244
0.311958 0.189043 0.084684
0.328703 0.196086 0.089418
0.347429 0.203800 0.094289
0.369447 0.212070 0.099102
0.395582 0.220671 0.103615
0.426334 0.229520 0.107655
0.460928 0.238738 0.111457
0.496668 0.248517 0.115458
0.531354 0.258434 0.119524
0.564747 0.267909 0.123491
0.597020 0.277443 0.127629
0.628462 0.287678 0.132036
0.659317 0.297955 0.136161
0.686161 0.306750 0.139790
0.709745 0.315201 0.143692
0.733350 0.325237 0.148649
0.757463 0.336702 0.154377
0.779752 0.347712 0.159901
0.800516 0.358873 0.165988
0.820072 0.369772 0.172267
0.838595 0.377982 0.176817
0.093073 0.192606 0.092248
0.099654 0.194131 0.088557
0.107617 0.194857 0.084823
0.121888 0.194905 0.082595
0.139850 0.194694 0.081617
0.162630 0.193054 0.080414
0.188349 0.191925 0.079334
0.216470 0.190117 0.076834
0.241092 0.190013 0.076008
0.264104 0.190109 0.077066
0.287721 0.190297 0.079884
0.307212 0.193967 0.084021
0.324328 0.200258 0.088631
0.342059 0.207649 0.093543
0.361235 0.215775 0.098644
0.382933 0.224407 0.103599
0.408372 0.233458 0.108201
0.438147 0.243017 0.112193
0.471865 0.253037 0.115955
0.507794 0.263337 0.120300
0.542902 0.273450 0.124990
0.575361 0.282881 0.129425
0.606488 0.291911 0.133652
0.637408 0.301338 0.137850
0.667687 0.311706 0.142148
0.693952 0.320848 0.146019
0.716869 0.329974 0.150266
0.740189 0.341186 0.155935
0.764482 0.354496 0.162606
0.786127 0.366312 0.168886
0.806123 0.377707 0.175367
0.825331 0.389183 0.182087
0.843739 0.397464 0.186758
0.095379 0.210669 0.096611
0.101177 0.211680 0.092752
0.107299 0.214277 0.088968
0.120136 0.215230 0.086986
0.138050 0.214932 0.086110
0.160310 0.213207 0.084409
0.184512 0.212439 0.083952
0.212142 0.210961 0.082632
0.243838 0.207518 0.079411
0.271209 0.205708 0.078433
0.296789 0.204870 0.081055
0.318454 0.207126 0.086112
0.337003 0.212389 0.091291
0.355984 0.219652 0.096255
0.376354 0.228146 0.101361
0.398339 0.237267 0.106370
0.423127 0.246681 0.110957
0.451882 0.256629 0.115071
0.484334 0.267261 0.119273
0.519201 0.278064 0.124426
0.553927 0.288428 0.130302
0.585822 0.298029 0.135653
0.615899 0.306988 0.140050
0.645741 0.315908 0.144109
0.675126 0.325874 0.148308
0.701112 0.335538 0.152429
0.724004 0.345697 0.157091
0.747159 0.358288 0.163149
0.771322 0.373038 0.170367
0.792079 0.385168 0.177630
0.811360 0.396295 0.184459
0.830240 0.407259 0.191089
0.848380 0.415561 0.195460
0.097049 0.229244 0.101993
0.102410 0.230446 0.097492
0.107643 0.235279 0.093587
0.117746 0.237912 0.090346
0.134850 0.237999 0.089201
0.156552 0.236486 0.087548
0.180820 0.235830 0.087770
0.206907 0.234749 0.087727
0.238820 0.231409 0.086031
0.274213 0.225716 0.081226
0.304774 0.222375 0.081695
0.329582 0.223246 0.086652
0.350706 0.227254 0.091478
0.371843 0.233141 0.095874
0.393382 0.241062 0.100992
0.415368 0.250534 0.106625
0.439398 0.260561 0.112226
0.466838 0.270905 0.117545
0.497853 0.281711 0.123023
0.531211 0.292780 0.129272
0.564592 0.303291 0.135717
0.595686 0.312791 0.141271
0.624701 0.321657 0.145638
0.653607 0.330550 0.149480
0.682624 0.340534 0.153378
0.708491 0.350684 0.157429
0.731816 0.361762 0.162664
0.754383 0.374939 0.169379
0.777436 0.390194 0.177067
0.797967 0.402690 0.184095
0.816977 0.413457 0.190422
0.835734 0.424081 0.195945
0.853462 0.432369 0.199598
0.098305 0.248101 0.108530
0.103679 0.250373 0.103079
0.108880 0.257239 0.098774
0.117320 0.261429 0.094489
0.131806 0.262405 0.091744
0.152151 0.261915 0.090080
0.176807 0.261501 0.090963
0.203297 0.260436 0.091883
0.233101 0.257797 0.092012
0.269717 0.251666 0.088432
0.308937 0.243755 0.084760
0.340274 0.241279 0.087215
0.364991 0.243784 0.091058
0.388369 0.247967 0.094673
0.410292 0.254359 0.100089
0.431602 0.263197 0.106706
0.454981 0.273366 0.113520
0.481540 0.284325 0.120215
0.511157 0.295588 0.126412
0.542849 0.306645 0.132422
0.574719 0.317020 0.138506
0.604898 0.326419 0.144000
0.633227 0.335430 0.148569
0.661667 0.344669 0.152597
0.690446 0.355074 0.156649
0.716022 0.366044 0.161384
0.739583 0.378294 0.167500
0.762249 0.391880 0.174559
0.783912 0.406182 0.180540
0.804468 0.418389 0.185382
0.823544 0.429165 0.191142
0.841955 0.439854 0.196666
0.859258 0.449067 0.200054
0.099602 0.268577 0.115247
0.105013 0.271853 0.109520
0.110259 0.279368 0.104153
0.118438 0.284165 0.099567
0.130310 0.285592 0.095388
0.148851 0.285749 0.093309
0.173010 0.286136 0.094057
0.200633 0.285345 0.095528
0.230279 0.282942 0.096546
0.265728 0.278516 0.095540
0.307949 0.269963 0.090213
0.347719 0.261893 0.089126
0.378468 0.260428 0.091258
0.403568 0.263108 0.094190
0.425806 0.268141 0.099312
0.446990 0.275648 0.105865
0.469716 0.285230 0.112901
0.495541 0.296535 0.120564
0.524524 0.308290 0.127548
0.554687 0.319525 0.133273
0.584534 0.330146 0.138919
0.614001 0.339855 0.144488
0.642126 0.349253 0.149622
0.670158 0.359010 0.154514
0.698185 0.369557 0.159153
0.723547 0.380667 0.163818
0.747157 0.393309 0.169029
0.770176 0.407222 0.175407
0.791141 0.421207 0.180556
0.811249 0.433532 0.184644
0.830508 0.444590 0.189627
0.848371 0.455151 0.195829
0.865319 0.465230 0.199432
0.101103 0.290607 0.121853
0.106255 0.294636 0.116076
0.111652 0.301806 0.109509
0.119864 0.306683 0.104731
0.130991 0.308026 0.100076
0.146802 0.308755 0.097110
0.169822 0.310170 0.097264
0.197647 0.309970 0.098929
0.228939 0.307804 0.100501
0.264582 0.304414 0.100786
0.305363 0.298262 0.097351
0.348472 0.288482 0.092743
0.387440 0.280277 0.092145
0.417716 0.278683 0.094170
0.441290 0.282402 0.097879
0.463052 0.288806 0.103162
0.485281 0.297511 0.110109
0.509859 0.308427 0.118687
0.538296 0.320418 0.126599
0.567446 0.332566 0.132847
0.595527 0.344204 0.138526
0.624225 0.354542 0.143981
0.651768 0.364341 0.149896
0.679004 0.374339 0.155513
0.705878 0.384738 0.160386
0.731198 0.395571 0.164582
0.754878 0.407796 0.168293
0.777603 0.421159 0.173362
0.798223 0.435466 0.179133
0.817922 0.448785 0.183973
0.837296 0.460396 0.188177
0.855048 0.470550 0.193863
0.871652 0.480459 0.198188
0.102847 0.313455 0.127778
0.107968 0.318243 0.122038
0.113601 0.325225 0.115139
0.121104 0.330493 0.110153
0.132865 0.331524 0.105354
0.146794 0.333217 0.101273
0.167810 0.335985 0.100496
0.195028 0.336763 0.102277
0.227268 0.335355 0.104124
0.264161 0.332824 0.105183
0.303990 0.328047 0.104110
0.346473 0.319118 0.099309
0.389603 0.307641 0.095318
0.427754 0.299010 0.094682
0.456578 0.298088 0.096438
0.480065 0.303095 0.099929
0.502445 0.311086 0.106343
0.525872 0.321100 0.115495
0.552716 0.332685 0.124273
0.580783 0.345728 0.131326
0.608363 0.358571 0.137131
0.636505 0.369979 0.142370
0.662661 0.380653 0.149061
0.688403 0.390426 0.155195
0.714276 0.400681 0.159719
0.738884 0.411603 0.163790
0.762474 0.423287 0.167077
0.784833 0.435708 0.171064
0.805386 0.450077 0.177055
0.824933 0.463926 0.182538
0.844384 0.476061 0.186289
0.862001 0.486033 0.191272
0.878457 0.495677 0.196340
0.104897 0.337818 0.133163
0.110277 0.343009 0.127723
0.116188 0.350332 0.120904
0.122539 0.356599 0.115795
0.134683 0.357707 0.110908
0.148394 0.359680 0.106003
0.167340 0.364074 0.104134
0.193498 0.366053 0.105850
0.225566 0.366177 0.107664
0.263217 0.364783 0.109189
0.303780 0.360887 0.109653
0.345715 0.352760 0.107092
0.388939 0.341255 0.101321
0.431157 0.328841 0.097184
0.467691 0.320247 0.096143
0.496669 0.320037 0.096941
0.520967 0.326570 0.101348
0.544595 0.335606 0.110096
0.569923 0.346343 0.119817
0.596621 0.359326 0.127821
0.623758 0.372897 0.133941
0.650735 0.385356 0.139467
0.675403 0.396850 0.146477
0.699181 0.406678 0.153336
0.724031 0.416809 0.157795
0.747517 0.428035 0.161773
0.770348 0.439562 0.165498
0.792646 0.451545 0.168909
0.813734 0.465671 0.173725
0.833910 0.478625 0.178644
0.853597 0.490660 0.181891
0.870766 0.501156 0.186940
0.887433 0.511411 0.192056
0.107019 0.366263 0.138925
0.112671 0.371134 0.133455
0.118824 0.378630 0.126485
0.124985 0.385448 0.121056
0.136288 0.387554 0.116092
0.150361 0.388710 0.111055
0.168324 0.393445 0.108691
0.192771 0.397204 0.109784
0.224193 0.398807 0.111448
0.261558 0.398342 0.113119
0.303189 0.395606 0.114420
0.346441 0.389501 0.113870
0.389324 0.379841 0.109832
0.431731 0.367843 0.103445
0.472589 0.354841 0.099034
0.509433 0.345540 0.096186
0.539618 0.345613 0.096855
0.565480 0.352675 0.102955
0.590928 0.362344 0.112029
0.616561 0.374577 0.120997
0.642509 0.387920 0.127822
0.667953 0.400583 0.134039
0.691470 0.412316 0.141000
0.713505 0.422929 0.148442
0.736712 0.433416 0.153790
0.759403 0.444658 0.157562
0.781042 0.456228 0.161541
0.802981 0.468043 0.165120
0.824962 0.481508 0.168399
0.846269 0.493670 0.171683
0.866660 0.505456 0.174027
0.884852 0.516389 0.177459
0.902482 0.526941 0.181202
0.109126 0.399454 0.145373
0.115220 0.404289 0.139040
0.121334 0.411348 0.131763
0.128304 0.417708 0.125767
0.138527 0.420909 0.120725
0.152350 0.421782 0.116018
0.169814 0.425437 0.113578
0.192712 0.430531 0.113968
0.222684 0.433467 0.115415
0.259262 0.433697 0.117128
0.301164 0.431864 0.118707
0.346388 0.428278 0.119206
0.390910 0.422353 0.117661
0.433342 0.413182 0.112651
0.474793 0.400458 0.105973
0.516000 0.385593 0.100145
0.553614 0.374750 0.096455
0.585929 0.373519 0.095762
0.614092 0.380636 0.100943
0.639492 0.391950 0.110224
0.664250 0.404500 0.118015
0.688283 0.416569 0.125248
0.710873 0.428113 0.132312
0.732192 0.439326 0.139299
0.754195 0.450417 0.145116
0.776313 0.461581 0.149088
0.797294 0.472963 0.152877
0.818496 0.484469 0.157178
0.840287 0.496929 0.160601
0.862505 0.509367 0.161202
0.884458 0.521526 0.161055
0.904602 0.532848 0.160916
0.922419 0.543069 0.163023
0.111680 0.436090 0.152292
0.118702 0.442204 0.144816
0.124494 0.448358 0.137275
0.131796 0.453774 0.130617
0.141689 0.457302 0.125224
0.154437 0.459143 0.120751
0.171251 0.462279 0.118201
0.193115 0.467575 0.118053
0.221423 0.471562 0.119136
0.256428 0.472847 0.120678
0.297609 0.471996 0.122256
0.343381 0.470078 0.123312
0.390367 0.467184 0.123016
0.434859 0.461863 0.120839
0.477022 0.452006 0.115652
0.519346 0.437741 0.108175
0.561205 0.420551 0.100825
0.600509 0.406488 0.093885
0.634072 0.404407 0.092589
0.661344 0.413107 0.098840
0.686556 0.423914 0.104990
0.710449 0.434335 0.111324
0.732271 0.445222 0.118896
0.753663 0.456420 0.124590
0.775558 0.467667 0.129764
0.797179 0.478812 0.134002
0.818114 0.489949 0.138138
0.838517 0.501084 0.143200
0.859069 0.512752 0.148032
0.881052 0.525309 0.147190
0.903703 0.537828 0.144788
0.924527 0.549659 0.142297
0.940899 0.559930 0.147297
0.115575 0.475684 0.159641
0.122923 0.482940 0.151501
0.128457 0.488325 0.143791
0.135046 0.493190 0.136266
0.144903 0.496719 0.129970
0.156903 0.499490 0.125301
0.172764 0.503045 0.122429
0.193744 0.508301 0.121704
0.221139 0.512891 0.122343
0.254288 0.515397 0.123527
0.293367 0.515685 0.124906
0.337935 0.514895 0.126245
0.385827 0.513252 0.126945
0.433503 0.510396 0.126190
0.478939 0.505223 0.123957
0.523093 0.495274 0.118474
0.566213 0.479500 0.110093
0.607823 0.459193 0.100853
0.645523 0.443233 0.094830
0.676895 0.441269 0.094541
0.704839 0.448365 0.095178
0.731002 0.455978 0.096487
0.753263 0.464747 0.102227
0.774415 0.475194 0.107032
0.797077 0.486116 0.110429
0.819387 0.496801 0.113633
0.840212 0.507852 0.119095
0.859754 0.518884 0.124467
0.878923 0.530277 0.129848
0.899366 0.542213 0.130338
0.920526 0.554181 0.128526
0.939771 0.565924 0.129513
0.953966 0.576896 0.143033
0.121300 0.518265 0.167553
0.126877 0.524691 0.159214
0.132364 0.529616 0.151309
0.138244 0.534835 0.142716
0.147651 0.539084 0.135064
0.159726 0.542216 0.129720
0.174630 0.546017 0.126180
0.194844 0.550748 0.124832
0.221993 0.555635 0.125091
0.254315 0.559120 0.126111
0.290859 0.560241 0.127303
0.332444 0.560103 0.128423
0.379159 0.559174 0.129614
0.428519 0.557444 0.129955
0.478237 0.555859 0.128728
0.526260 0.552199 0.126735
0.571300 0.542278 0.121731
0.612801 0.524654 0.113498
0.650694 0.501779 0.105610
0.684361 0.483974 0.100534
0.714559 0.480341 0.097250
0.743325 0.484748 0.093711
0.768141 0.490090 0.093428
0.789912 0.497589 0.096200
0.813621 0.507717 0.098037
0.836862 0.518246 0.100206
0.858300 0.528452 0.104025
0.878017 0.538918 0.107810
0.896295 0.550131 0.112314
0.914706 0.561443 0.114812
0.933305 0.572727 0.116390
0.949234 0.584146 0.126470
0.961073 0.595404 0.147535
0.127358 0.562098 0.175930
0.130796 0.566926 0.167350
0.135953 0.571262 0.159084
0.141849 0.577004 0.149333
0.150514 0.582278 0.140263
0.162614 0.585637 0.134162
0.177304 0.589642 0.129903
0.197022 0.593567 0.127951
0.223510 0.597835 0.127843
0.255121 0.601767 0.128848
0.290266 0.603657 0.130113
0.328675 0.604122 0.131010
0.372113 0.603793 0.131856
0.420340 0.602855 0.132761
0.471444 0.602008 0.132626
0.523617 0.602112 0.131242
0.573295 0.599529 0.129717
0.617460 0.588886 0.125787
0.655452 0.569500 0.118417
0.687959 0.544969 0.111234
0.717427 0.526134 0.106439
0.746131 0.522160 0.103186
0.772986 0.524850 0.100892
0.797016 0.528315 0.101135
0.821790 0.535248 0.101502
0.844725 0.545560 0.103817
0.866952 0.554350 0.104275
0.887804 0.562937 0.105468
0.906427 0.573544 0.108438
0.922848 0.584530 0.112313
0.938850 0.595797 0.116929
0.952501 0.606635 0.133732
0.963134 0.615865 0.156246
0.131568 0.604690 0.184306
0.135092 0.608873 0.175019
0.139541 0.612746 0.166311
0.145350 0.618309 0.155378
0.153621 0.623520 0.145121
0.165677 0.626786 0.138660
0.180612 0.630947 0.133909
0.200424 0.635256 0.131714
0.225537 0.638850 0.131241
0.255099 0.642116 0.131985
0.288642 0.644566 0.133270
0.325705 0.646015 0.134325
0.366135 0.646367 0.134925
0.410611 0.645574 0.135579
0.459162 0.644461 0.136552
0.511606 0.644397 0.136562
0.565931 0.645127 0.134946
0.616539 0.642543 0.133320
0.658627 0.631685 0.130249
0.691800 0.611891 0.123298
0.719534 0.588028 0.115874
0.746206 0.570980 0.111735
0.772197 0.567593 0.111543
0.797332 0.568752 0.113867
0.823339 0.570519 0.114945
0.846536 0.577021 0.117978
0.867748 0.585045 0.119738
0.888604 0.592070 0.120501
0.907717 0.601942 0.122974
0.923205 0.612035 0.126090
0.937663 0.622906 0.130597
0.951248 0.632219 0.147955
0.961925 0.637765 0.166410
0.134194 0.645786 0.192258
0.139090 0.650214 0.181675
0.143280 0.653831 0.172432
0.148452 0.658389 0.160810
0.156532 0.662825 0.149615
0.168898 0.665962 0.142987
0.184145 0.669664 0.137984
0.203954 0.674904 0.135593
0.228644 0.679115 0.134968
0.256178 0.681812 0.135392
0.286918 0.684167 0.136602
0.321886 0.686384 0.137990
0.360855 0.687621 0.139024
0.402450 0.687227 0.139646
0.446229 0.685929 0.140616
0.494625 0.684837 0.141695
0.548558 0.684546 0.141171
0.603492 0.684597 0.139205
0.652714 0.681855 0.137736
0.691596 0.671531 0.135573
0.721008 0.652939 0.129938
0.746561 0.631794 0.121767
0.771431 0.616800 0.115832
0.796509 0.612603 0.117318
0.822244 0.612036 0.123328
0.845498 0.613016 0.129484
0.865726 0.618668 0.134038
0.886085 0.625504 0.135618
0.905110 0.634652 0.138939
0.920884 0.642450 0.140399
0.935354 0.651709 0.145050
0.949235 0.659451 0.159049
0.959407 0.662374 0.171394
0.136968 0.685405 0.199453
0.142919 0.690623 0.187740
0.147513 0.694171 0.177658
0.152441 0.697826 0.166138
0.160524 0.701076 0.154589
0.173046 0.704476 0.147525
0.188016 0.707795 0.141936
0.207467 0.713026 0.139150
0.231833 0.717708 0.138435
0.258945 0.720558 0.139010
0.287814 0.722890 0.140487
0.319550 0.725490 0.142259
0.355744 0.727551 0.143734
0.395424 0.728214 0.144711
0.436373 0.727543 0.145632
0.478859 0.725567 0.146715
0.527664 0.723295 0.147279
0.582113 0.721882 0.146079
0.634600 0.721167 0.143860
0.680330 0.718957 0.142466
0.716876 0.710266 0.141222
0.744613 0.693863 0.137903
0.769567 0.675744 0.131204
0.795453 0.661991 0.124256
0.821670 0.658029 0.124001
0.843962 0.657179 0.130271
0.863419 0.658481 0.136999
0.883000 0.663469 0.139076
0.901982 0.670913 0.141743
0.918047 0.675710 0.145261
0.933398 0.681964 0.149400
0.947667 0.687558 0.157593
0.957247 0.688897 0.166838
0.141058 0.723745 0.205492
0.146818 0.728768 0.194041
0.152340 0.732341 0.183596
0.157741 0.736371 0.172238
0.166348 0.739274 0.159922
0.178627 0.742333 0.152110
0.192804 0.744956 0.145743
0.212099 0.748642 0.142829
0.235923 0.752513 0.142159
0.262542 0.755423 0.143011
0.291099 0.757605 0.144967
0.321678 0.759933 0.147091
0.354653 0.762447 0.148737
0.390675 0.764003 0.149888
0.429248 0.764299 0.150953
0.469818 0.763194 0.152152
0.514060 0.760322 0.153170
0.562883 0.757045 0.153316
0.612393 0.755248 0.151834
0.658969 0.754882 0.149262
0.701854 0.753922 0.147213
0.737309 0.748203 0.146711
0.764545 0.735695 0.146878
0.791743 0.721367 0.143408
0.820651 0.710539 0.137042
0.843807 0.706856 0.136214
0.862426 0.705646 0.137739
0.880595 0.704929 0.138007
0.899149 0.708392 0.138855
0.915325 0.710584 0.142211
0.931715 0.712618 0.145664
0.945819 0.714912 0.150023
0.954380 0.715603 0.158078
0.145889 0.759589 0.210163
0.150499 0.763678 0.198814
0.156505 0.766551 0.188322
0.162897 0.769860 0.177299
0.172386 0.773228 0.164105
0.184651 0.776048 0.155907
0.198234 0.778209 0.149319
0.217373 0.780427 0.146569
0.241167 0.782981 0.146132
0.267117 0.785784 0.147207
0.294789 0.788322 0.149426
0.325060 0.790240 0.152016
0.357646 0.792032 0.154247
0.391515 0.793746 0.155729
0.426554 0.794996 0.156803
0.464599 0.795222 0.157978
0.507170 0.793870 0.159228
0.552085 0.791040 0.159970
0.595732 0.788195 0.159472
0.638551 0.786829 0.157429
0.681719 0.786726 0.154528
0.721951 0.786563 0.152579
0.756040 0.783175 0.153025
0.785434 0.774036 0.154481
0.815658 0.763302 0.153543
0.843218 0.753773 0.150256
0.863604 0.749592 0.149376
0.880704 0.745515 0.146439
0.898308 0.742591 0.144636
0.913984 0.743420 0.144891
0.930731 0.743069 0.146697
0.944209 0.742279 0.149745
0.951925 0.742250 0.154939
0.151259 0.792428 0.214648
0.155345 0.795162 0.202276
0.160691 0.797633 0.191144
0.167310 0.800281 0.180195
0.177839 0.803328 0.167290
0.191040 0.805647 0.158947
0.204161 0.807554 0.152335
0.222128 0.809437 0.149954
0.245229 0.811160 0.149802
0.270452 0.812583 0.151174
0.297079 0.814403 0.153583
0.326413 0.816369 0.156327
0.358582 0.817990 0.158956
0.392113 0.819395 0.161101
0.426114 0.820746 0.162682
0.461941 0.821836 0.164199
0.502091 0.821942 0.165996
0.544844 0.820615 0.167363
0.585546 0.818499 0.167494
0.623912 0.816822 0.166575
0.663432 0.816141 0.164665
0.703632 0.816105 0.161906
0.740426 0.815978 0.159950
