public/LUTs/F-9870-STD.cube
# Copyright: (C) Copyright 2010-2021 by IWLTBAP SAS
# Cannot be resold, shared or otherwise redistributed
# Website: https://luts.iwltbap.com
TITLE "IWLTBAP 9870 (Rec.709, sRGB, DCI-P3)"
LUT_3D_SIZE 33
0.000000 0.000000 0.000000
0.022064 0.002777 0.002777
0.053711 0.010223 0.007782
0.083771 0.019073 0.014038
0.112610 0.028290 0.022827
0.140381 0.036255 0.030640
0.168060 0.043640 0.037476
0.195984 0.050934 0.044281
0.223480 0.057861 0.050476
0.251801 0.063690 0.055511
0.282562 0.069336 0.059631
0.313019 0.075684 0.064514
0.340973 0.083282 0.071503
0.368042 0.091797 0.079651
0.395813 0.100403 0.087738
0.423706 0.109192 0.096344
0.450958 0.117920 0.105225
0.478790 0.126587 0.113739
0.507233 0.135376 0.121948
0.534637 0.143921 0.129883
0.561890 0.152161 0.137573
0.590698 0.160461 0.145569
0.621155 0.169342 0.154236
0.652161 0.178558 0.163116
0.683289 0.187988 0.172028
0.714722 0.197205 0.180389
0.743866 0.205353 0.187469
0.773621 0.214081 0.194946
0.802704 0.223297 0.203369
0.830811 0.232147 0.211700
0.858307 0.240601 0.219757
0.883972 0.248291 0.227264
0.907928 0.254822 0.233521
0.002838 0.026550 0.004120
0.022400 0.028809 0.004730
0.049194 0.033630 0.006927
0.079865 0.041687 0.011963
0.107544 0.048401 0.019867
0.136749 0.054596 0.028076
0.167603 0.062347 0.034943
0.198029 0.069672 0.040375
0.228851 0.075531 0.045319
0.260071 0.080170 0.048889
0.291351 0.085266 0.051849
0.321960 0.091492 0.056671
0.351166 0.099609 0.065247
0.379639 0.108612 0.074890
0.407074 0.117767 0.084595
0.433411 0.126831 0.094238
0.459351 0.135651 0.103607
0.485474 0.144470 0.112579
0.511719 0.153412 0.121246
0.537506 0.162201 0.129730
0.563202 0.170654 0.138092
0.590179 0.179138 0.146790
0.619476 0.188324 0.155945
0.650726 0.197632 0.164978
0.681458 0.207001 0.173706
0.712860 0.216400 0.182159
0.743378 0.224762 0.189423
0.773468 0.233582 0.197083
0.802643 0.242554 0.205505
0.831390 0.251465 0.213867
0.859680 0.259766 0.221802
0.885498 0.267578 0.229523
0.909576 0.274628 0.236420
0.005524 0.054901 0.006683
0.022736 0.057373 0.007233
0.050537 0.060272 0.009430
0.078064 0.063416 0.012482
0.104645 0.068329 0.018005
0.133118 0.074371 0.025543
0.164124 0.080566 0.032043
0.195038 0.087769 0.036591
0.223358 0.094147 0.043091
0.255554 0.099457 0.047516
0.288330 0.104401 0.049286
0.321808 0.110321 0.053101
0.356445 0.117340 0.059204
0.388428 0.126160 0.069000
0.416504 0.135010 0.079407
0.442719 0.143707 0.089630
0.468872 0.152710 0.099670
0.495422 0.161804 0.109131
0.521942 0.170898 0.118347
0.547943 0.179688 0.127411
0.574432 0.188171 0.136261
0.602905 0.197266 0.145538
0.632690 0.206970 0.155151
0.661804 0.216736 0.164673
0.690704 0.226105 0.173767
0.719055 0.235229 0.182373
0.747925 0.244019 0.190308
0.776520 0.253113 0.198822
0.804291 0.261993 0.207428
0.832489 0.270874 0.216064
0.861145 0.279755 0.224762
0.887115 0.287842 0.232666
0.911835 0.295074 0.239807
0.008789 0.083496 0.013092
0.026062 0.085785 0.013794
0.051300 0.086151 0.014069
0.078430 0.088257 0.016876
0.104614 0.090454 0.019012
0.130310 0.094818 0.023407
0.160858 0.100861 0.030151
0.192200 0.106171 0.035309
0.221832 0.112610 0.040863
0.250854 0.118622 0.047729
0.283356 0.124603 0.050323
0.315582 0.131805 0.054871
0.348572 0.139771 0.062164
0.383087 0.148071 0.070892
0.416931 0.156433 0.079529
0.448700 0.164795 0.088135
0.477692 0.173615 0.097717
0.504883 0.182495 0.107391
0.531738 0.191071 0.116547
0.558624 0.199493 0.125610
0.586548 0.208038 0.134735
0.616180 0.217133 0.144073
0.646362 0.226715 0.153564
0.675629 0.236206 0.162811
0.703918 0.245575 0.171997
0.732361 0.254761 0.180786
0.760437 0.264008 0.189728
0.788208 0.272461 0.198578
0.815002 0.280853 0.207550
0.842529 0.289520 0.216461
0.868622 0.298431 0.225464
0.893402 0.306732 0.233734
0.917145 0.314240 0.241180
0.012177 0.112366 0.021027
0.028534 0.114319 0.021057
0.050720 0.111847 0.020111
0.076752 0.113037 0.020142
0.103424 0.114777 0.022400
0.130890 0.117554 0.024719
0.158722 0.121826 0.028992
0.189972 0.127167 0.034668
0.221008 0.132507 0.039093
0.250610 0.138916 0.044891
0.280670 0.144501 0.050568
0.313324 0.151642 0.055389
0.344604 0.160248 0.064240
0.377045 0.169281 0.073975
0.410706 0.178131 0.082703
0.444061 0.186890 0.091248
0.476471 0.195618 0.099823
0.507904 0.203918 0.107941
0.538483 0.212067 0.115753
0.568207 0.220215 0.124054
0.598297 0.228729 0.133453
0.629333 0.237976 0.143219
0.659821 0.247162 0.152588
0.689178 0.256226 0.161682
0.717377 0.265228 0.170593
0.745636 0.274109 0.179688
0.773438 0.282593 0.189392
0.800049 0.291016 0.198853
0.826782 0.299500 0.207855
0.854492 0.308319 0.216400
0.878601 0.316956 0.225037
0.902374 0.324463 0.232330
0.923981 0.331085 0.239258
0.015320 0.139252 0.027069
0.031525 0.140930 0.026550
0.049469 0.141510 0.026276
0.074341 0.137726 0.024780
0.100555 0.139557 0.024597
0.130493 0.142639 0.027466
0.158478 0.145813 0.029816
0.188080 0.149231 0.034027
0.220276 0.153961 0.038147
0.251007 0.160400 0.042786
0.280365 0.165985 0.048492
0.311371 0.172180 0.055481
0.343140 0.180481 0.064850
0.374023 0.189453 0.075592
0.407410 0.198151 0.084198
0.441193 0.206879 0.092499
0.473480 0.215851 0.101990
0.504944 0.224731 0.110840
0.536774 0.233398 0.118561
0.570587 0.242218 0.126312
0.606537 0.251221 0.134918
0.641510 0.260437 0.144165
0.673065 0.269104 0.153137
0.702362 0.277466 0.161835
0.730591 0.285767 0.170807
0.758453 0.293793 0.180115
0.785828 0.301727 0.189606
0.812134 0.310211 0.198975
0.838806 0.319519 0.208191
0.864441 0.328094 0.216522
0.887634 0.335663 0.224152
0.910675 0.342072 0.230743
0.931458 0.348572 0.237854
0.017822 0.164215 0.030334
0.033783 0.165344 0.029327
0.050110 0.166718 0.028931
0.070251 0.164825 0.027924
0.095398 0.163696 0.026459
0.126373 0.167175 0.028168
0.157562 0.171326 0.031189
0.187744 0.174896 0.033752
0.218445 0.176727 0.037842
0.251038 0.182037 0.041809
0.280823 0.188507 0.046600
0.310791 0.193939 0.054779
0.342865 0.200989 0.064056
0.374451 0.209412 0.074127
0.405457 0.218231 0.084564
0.438629 0.226898 0.093414
0.471039 0.236023 0.103058
0.502136 0.245361 0.113129
0.533844 0.254089 0.121429
0.568176 0.262878 0.129181
0.605286 0.272156 0.137909
0.642883 0.281494 0.146973
0.678619 0.290131 0.155609
0.711609 0.298309 0.163666
0.741852 0.306427 0.171631
0.770111 0.314270 0.179993
0.797577 0.322113 0.189087
0.824554 0.330261 0.198395
0.850952 0.338593 0.207123
0.875092 0.346710 0.215698
0.897675 0.354156 0.223755
0.919495 0.360596 0.230621
0.940399 0.367188 0.237671
0.019409 0.188507 0.032227
0.035187 0.189026 0.030731
0.050934 0.190063 0.029755
0.068634 0.190063 0.028992
0.092102 0.187805 0.027527
0.120117 0.191681 0.027557
0.152374 0.195557 0.030090
0.185242 0.200104 0.033691
0.218231 0.203491 0.037201
0.249420 0.204926 0.041718
0.280304 0.210083 0.045654
0.311340 0.216187 0.053467
0.343170 0.222260 0.064056
0.375000 0.229889 0.073486
0.405365 0.238495 0.084137
0.436584 0.247284 0.094452
0.469177 0.256378 0.104034
0.500549 0.265533 0.114044
0.531555 0.274231 0.123169
0.565643 0.282806 0.131561
0.602997 0.292450 0.140778
0.640656 0.302246 0.150085
0.677643 0.310791 0.158661
0.712585 0.318756 0.166321
0.745361 0.327148 0.173309
0.776947 0.335388 0.180573
0.806335 0.343170 0.189026
0.833801 0.350677 0.197540
0.859253 0.358215 0.205963
0.883392 0.365997 0.214447
0.905640 0.373138 0.223053
0.927063 0.379730 0.230255
0.947540 0.386932 0.238037
0.020233 0.212708 0.033875
0.035736 0.212616 0.031952
0.051208 0.212463 0.029999
0.067841 0.212891 0.029083
0.089935 0.209991 0.027710
0.116180 0.215149 0.027405
0.147491 0.219391 0.029266
0.180634 0.223206 0.032654
0.215820 0.227478 0.037445
0.248688 0.229858 0.040802
0.278809 0.232727 0.045624
0.311249 0.238037 0.052155
0.344147 0.244873 0.062317
0.375519 0.251190 0.073334
0.406158 0.259064 0.083221
0.436157 0.267792 0.094391
0.468475 0.276917 0.104431
0.500488 0.285828 0.114075
0.530212 0.294006 0.124115
0.563324 0.302460 0.133698
0.601074 0.312561 0.143494
0.638763 0.323029 0.153290
0.675812 0.331665 0.161865
0.711273 0.339539 0.169464
0.744904 0.348114 0.176453
0.778351 0.356750 0.183685
0.810089 0.364838 0.192169
0.839020 0.371582 0.199493
0.864868 0.378418 0.206818
0.888733 0.385498 0.214569
0.911133 0.392639 0.222870
0.932343 0.399994 0.230988
0.952515 0.408264 0.240143
0.020142 0.237579 0.035980
0.035553 0.237946 0.034149
0.051086 0.237762 0.032349
0.066895 0.237671 0.030670
0.086426 0.237366 0.029755
0.111725 0.238190 0.029388
0.143555 0.243561 0.029785
0.176788 0.247498 0.032166
0.212097 0.251434 0.036896
0.248322 0.255615 0.040924
0.278656 0.257446 0.045227
0.309845 0.261322 0.051300
0.344574 0.267273 0.060944
0.376740 0.273804 0.072083
0.407196 0.280243 0.082306
0.437225 0.288361 0.092865
0.468353 0.297028 0.104279
0.500732 0.305786 0.114105
0.530670 0.313721 0.124054
0.562439 0.322113 0.135193
0.600067 0.332550 0.145966
0.637421 0.343597 0.156189
0.673950 0.352631 0.164856
0.709900 0.360687 0.172638
0.744202 0.369385 0.180145
0.777985 0.378174 0.187805
0.810822 0.386475 0.196533
0.840698 0.392853 0.203186
0.867859 0.399078 0.209625
0.892639 0.405396 0.216370
0.915710 0.412384 0.224121
0.936829 0.420441 0.233246
0.956543 0.429871 0.243408
0.019531 0.264832 0.039093
0.035004 0.266174 0.037323
0.050507 0.266541 0.035889
0.066315 0.265686 0.033752
0.083771 0.265594 0.032349
0.106354 0.264587 0.032043
0.137299 0.267578 0.031921
0.173401 0.272125 0.032715
0.208801 0.276337 0.036774
0.244995 0.280579 0.041779
0.279724 0.283997 0.046478
0.309448 0.286285 0.052094
0.343567 0.291565 0.060242
0.377716 0.296967 0.070892
0.408539 0.302277 0.081512
0.438446 0.309113 0.091858
0.469208 0.317413 0.102997
0.501007 0.325684 0.113800
0.531433 0.333527 0.123993
0.562714 0.341919 0.136047
0.599976 0.352356 0.147339
0.637085 0.363800 0.157837
0.672241 0.373474 0.167236
0.708252 0.381775 0.175323
0.743469 0.390564 0.183655
0.777618 0.399384 0.191803
0.810883 0.407623 0.200439
0.841400 0.414062 0.207184
0.868866 0.420197 0.213409
0.894226 0.426453 0.219910
0.918365 0.433350 0.227234
0.940216 0.442200 0.236847
0.960175 0.452454 0.247986
0.019043 0.293365 0.042755
0.034302 0.294983 0.041260
0.050110 0.295105 0.039673
0.066071 0.294220 0.037354
0.082611 0.293701 0.035248
0.102783 0.293640 0.034424
0.129242 0.291107 0.034698
0.167114 0.296387 0.034760
0.206787 0.301300 0.037720
0.242340 0.305511 0.043335
0.277679 0.309143 0.049103
0.311768 0.312683 0.054138
0.342773 0.315704 0.061127
0.378265 0.321777 0.069733
0.410004 0.326141 0.080292
0.440063 0.330597 0.091217
0.470734 0.338287 0.102020
0.501740 0.346252 0.112915
0.532898 0.354004 0.123627
0.564697 0.362366 0.135864
0.600739 0.372375 0.148041
0.637878 0.383362 0.158112
0.671875 0.393738 0.168945
0.706879 0.402679 0.178101
0.742523 0.411530 0.186829
0.777344 0.420319 0.195374
0.810669 0.428406 0.203857
0.841705 0.435333 0.211365
0.869293 0.441895 0.218018
0.894958 0.448669 0.224854
0.919617 0.455994 0.232635
0.941772 0.465515 0.242737
0.962616 0.476166 0.254089
0.020538 0.320892 0.046783
0.035614 0.322937 0.046173
0.051025 0.322968 0.044159
0.066956 0.322296 0.041901
0.083038 0.321899 0.039581
0.101013 0.321686 0.037567
0.123688 0.320709 0.037262
0.160889 0.320404 0.037415
0.203827 0.325928 0.040039
0.240631 0.330292 0.045166
0.275909 0.334076 0.051788
0.311005 0.337952 0.057343
0.343781 0.340942 0.062347
0.376373 0.345673 0.070496
0.410858 0.351410 0.078522
0.441650 0.355408 0.089081
0.472229 0.359894 0.100647
0.503174 0.367493 0.111176
0.534332 0.375122 0.122742
0.567444 0.383423 0.135193
0.602570 0.392731 0.148102
0.638550 0.403046 0.158630
0.672394 0.413605 0.170502
0.706635 0.423248 0.181641
0.742157 0.432251 0.190308
0.777100 0.441132 0.198853
0.810364 0.449463 0.207703
0.841705 0.457123 0.216339
0.869476 0.464600 0.223846
0.895538 0.471954 0.231140
0.920197 0.479614 0.239594
0.942505 0.489410 0.250031
0.963074 0.499695 0.260864
0.024292 0.347626 0.051727
0.039398 0.350220 0.051117
0.054138 0.350739 0.049805
0.069702 0.350098 0.047668
0.085693 0.349304 0.045105
0.102509 0.349182 0.042664
0.121643 0.349487 0.041290
0.155518 0.344330 0.041168
0.198853 0.350220 0.042267
0.238922 0.355164 0.046539
0.274231 0.359222 0.053101
0.309662 0.363556 0.059906
0.344421 0.367645 0.065643
0.374908 0.369751 0.071014
0.408783 0.375763 0.079224
0.442291 0.380829 0.086823
0.474030 0.385132 0.098114
0.504822 0.389618 0.109406
0.536102 0.396667 0.121002
0.569702 0.404724 0.134369
0.604706 0.413483 0.147736
0.639374 0.423004 0.159515
0.673096 0.433411 0.171875
0.707184 0.443665 0.184540
0.742645 0.452881 0.193207
0.777161 0.462280 0.202393
0.810394 0.471191 0.212433
0.841797 0.479919 0.222076
0.869568 0.488068 0.230438
0.895966 0.495911 0.238342
0.920471 0.503632 0.246979
0.942444 0.513184 0.257294
0.962646 0.523041 0.267761
0.027557 0.374725 0.056274
0.042908 0.377380 0.055847
0.057953 0.377808 0.054932
0.072693 0.377167 0.053040
0.088226 0.376160 0.050171
0.104828 0.375793 0.047729
0.122650 0.376343 0.045654
0.149750 0.371552 0.044617
0.193054 0.374237 0.044952
0.234619 0.379852 0.047974
0.272644 0.384277 0.054474
0.308319 0.388855 0.061493
0.343445 0.393341 0.067963
0.377045 0.397614 0.074158
0.406769 0.399475 0.079559
0.441406 0.405487 0.086609
0.474487 0.410339 0.095154
0.506836 0.414764 0.107056
0.538208 0.419434 0.119171
0.571808 0.426300 0.133270
0.606812 0.434509 0.146759
0.641083 0.443420 0.159515
0.674500 0.453461 0.172394
0.708374 0.464264 0.186218
0.743469 0.473938 0.195618
0.777527 0.484009 0.206268
0.810577 0.494019 0.218201
0.842010 0.503204 0.228210
0.869751 0.511719 0.236877
0.895813 0.519989 0.245300
0.920166 0.527924 0.254303
0.941742 0.537140 0.264130
0.962067 0.546844 0.274597
0.030914 0.400970 0.060669
0.046570 0.403534 0.060577
0.061768 0.404327 0.059814
0.076050 0.403320 0.057800
0.091095 0.402588 0.055023
0.107239 0.402222 0.052490
0.124725 0.402832 0.050354
0.145203 0.402252 0.048187
0.186035 0.398010 0.048065
0.230621 0.404236 0.050140
0.269867 0.409180 0.055634
0.307495 0.413818 0.062805
0.342468 0.418701 0.069550
0.376526 0.423065 0.075836
0.409241 0.426819 0.081787
0.440186 0.429565 0.087708
0.474426 0.435028 0.094055
0.506989 0.439850 0.104340
0.540741 0.444763 0.117004
0.574554 0.450134 0.131348
0.609131 0.456451 0.145721
0.643280 0.464691 0.158844
0.676636 0.474396 0.172516
0.710266 0.485352 0.186890
0.744751 0.496063 0.199036
0.778687 0.506378 0.210632
0.811127 0.517395 0.224091
0.842072 0.526764 0.234283
0.870148 0.535217 0.242645
0.895630 0.543884 0.251678
0.919556 0.552338 0.261169
0.941071 0.561096 0.270477
0.961487 0.570312 0.280518
0.034363 0.426422 0.065155
0.050171 0.429413 0.065308
0.065308 0.431274 0.064575
0.079651 0.430298 0.062592
0.094360 0.429413 0.060211
0.110016 0.428986 0.057373
0.126678 0.429901 0.055115
0.144775 0.431305 0.053009
0.180115 0.422516 0.051422
0.225067 0.428864 0.052521
0.266693 0.434479 0.056671
0.305450 0.439026 0.063416
0.341797 0.443939 0.070526
0.375610 0.449066 0.076935
0.409668 0.453827 0.083557
0.442108 0.456604 0.089417
0.473907 0.460388 0.095978
0.507263 0.466034 0.102295
0.541687 0.471313 0.114502
0.578094 0.477234 0.128845
0.612518 0.482239 0.143494
0.645966 0.487946 0.157379
0.679260 0.496613 0.172272
0.712646 0.507233 0.186218
0.746704 0.518463 0.200928
0.780670 0.529022 0.214386
0.812653 0.540131 0.227936
0.842407 0.550446 0.239990
0.870483 0.558929 0.248230
0.895874 0.567810 0.257751
0.919586 0.576263 0.267059
0.941589 0.584503 0.275543
0.961578 0.593018 0.285095
0.037598 0.453278 0.069794
0.053558 0.456940 0.070129
0.069427 0.459198 0.070038
0.083954 0.458710 0.068298
0.098450 0.457794 0.066193
0.113708 0.457001 0.062500
0.129883 0.457855 0.059906
0.146881 0.460266 0.058136
0.177765 0.451263 0.056152
0.218628 0.454681 0.055664
0.262024 0.460815 0.058350
0.302307 0.465881 0.063904
0.340088 0.470215 0.071106
0.375366 0.475616 0.078094
0.409210 0.481049 0.084839
0.444092 0.485870 0.091888
0.475525 0.488312 0.097717
0.506989 0.492706 0.104248
0.542419 0.498810 0.112000
0.580444 0.505127 0.126740
0.616638 0.510773 0.141510
0.649658 0.514954 0.155396
0.682495 0.521118 0.170990
0.715271 0.529907 0.185394
0.749359 0.540833 0.200378
0.783081 0.551605 0.216339
0.815125 0.562317 0.229584
0.843933 0.573517 0.243958
0.871216 0.582611 0.253845
0.897003 0.591064 0.263123
0.921387 0.598999 0.271667
0.943909 0.606873 0.279694
0.963287 0.615204 0.289398
0.041504 0.480865 0.075104
0.057709 0.484589 0.075653
0.073639 0.488434 0.075867
0.088257 0.488251 0.074188
0.102844 0.487305 0.071991
0.117828 0.486450 0.068481
0.133698 0.486206 0.064392
0.150116 0.488892 0.062531
0.175354 0.484283 0.060608
0.212524 0.481354 0.060089
0.257599 0.487579 0.062012
0.299316 0.493591 0.065948
0.337616 0.498169 0.072510
0.374664 0.503143 0.079315
0.409973 0.508942 0.086456
0.444550 0.513611 0.093567
0.478760 0.518646 0.100525
0.508636 0.521027 0.105835
0.542694 0.526245 0.113739
0.581451 0.532501 0.124695
0.620331 0.539276 0.140472
0.654144 0.544006 0.154053
0.687042 0.548859 0.169647
0.719116 0.554962 0.184998
0.751831 0.563629 0.199554
0.785889 0.574219 0.216949
0.818054 0.584839 0.231323
0.847015 0.595825 0.245544
0.873535 0.605530 0.257965
0.899536 0.613556 0.267456
0.924652 0.621124 0.275757
0.946747 0.628815 0.284119
0.966217 0.636963 0.293182
0.045410 0.509094 0.080566
0.061615 0.512817 0.081024
0.077667 0.517029 0.081299
0.092407 0.517303 0.079681
0.106964 0.516541 0.077515
0.121826 0.516296 0.074799
0.137268 0.515167 0.069611
0.153137 0.516357 0.065735
0.174164 0.515686 0.064423
0.205841 0.507751 0.063904
0.252258 0.514404 0.065735
0.297211 0.521057 0.068939
0.336212 0.526459 0.074524
0.373322 0.531342 0.080933
0.409851 0.536865 0.088348
0.445709 0.542114 0.095886
0.479614 0.546539 0.102539
0.513000 0.551941 0.109100
0.543793 0.553925 0.115082
0.582581 0.560272 0.125214
0.621552 0.566803 0.138885
0.659180 0.573456 0.153320
0.692230 0.578278 0.168182
0.724854 0.583618 0.184753
0.756317 0.589874 0.199493
0.789093 0.597687 0.216309
0.821564 0.607758 0.232819
0.850739 0.618225 0.247101
0.877747 0.627655 0.259491
0.903168 0.635925 0.270752
0.927887 0.643555 0.279755
0.949524 0.650787 0.287781
0.969604 0.658356 0.294830
0.049103 0.537567 0.085876
0.065247 0.541656 0.086182
0.081329 0.545502 0.086243
0.096405 0.545837 0.084839
0.110687 0.545471 0.082428
0.125427 0.545227 0.080170
0.140656 0.543884 0.074707
0.156250 0.544189 0.069763
0.175049 0.544739 0.067749
0.202179 0.538330 0.066833
0.245758 0.541077 0.068298
0.293427 0.548401 0.070862
0.335205 0.554535 0.076050
0.372711 0.559631 0.082306
0.409393 0.564850 0.089752
0.445526 0.570190 0.097595
0.480957 0.575287 0.104797
0.514740 0.580200 0.111237
0.548981 0.585205 0.118134
0.583008 0.587708 0.126343
0.623291 0.594971 0.138092
0.661072 0.601624 0.152313
0.697388 0.607788 0.166931
0.730499 0.612579 0.183929
0.762817 0.618713 0.199890
0.794281 0.624908 0.216034
0.825775 0.632233 0.232727
0.854950 0.641296 0.248566
0.881622 0.650055 0.260864
0.907166 0.658203 0.272400
0.931152 0.666077 0.282440
0.952606 0.672760 0.289185
0.972931 0.679840 0.294861
0.052582 0.565643 0.090637
0.068756 0.569489 0.090851
0.084717 0.572937 0.090637
0.099792 0.574341 0.089294
0.114197 0.573303 0.086853
0.128662 0.572601 0.083984
0.143799 0.571167 0.078522
0.159668 0.572144 0.074799
0.177948 0.572327 0.072357
0.201813 0.568146 0.070251
0.242279 0.567841 0.071381
0.289917 0.575104 0.073364
0.332703 0.581604 0.077362
0.372223 0.587311 0.084106
0.409546 0.592651 0.091553
0.445740 0.598236 0.099060
0.481354 0.603363 0.106018
0.516968 0.608582 0.113373
0.552826 0.614014 0.121155
0.587372 0.618042 0.128693
0.624176 0.622620 0.139526
0.662994 0.630188 0.151886
0.700348 0.636230 0.165741
0.735413 0.641998 0.182159
0.768341 0.647034 0.199524
0.799957 0.653168 0.216644
0.830475 0.659485 0.232300
0.859161 0.666321 0.248688
0.885101 0.673065 0.261810
0.910461 0.680573 0.273376
0.934265 0.688232 0.282928
0.955444 0.694916 0.289246
0.975800 0.701843 0.294891
0.055634 0.592865 0.094666
0.071625 0.596161 0.094574
0.087555 0.599243 0.094208
0.102905 0.601440 0.093140
0.117340 0.600464 0.090668
0.131897 0.599152 0.087555
0.147034 0.597839 0.081940
0.162964 0.599152 0.078857
0.181030 0.599945 0.076965
0.203430 0.597321 0.074585
0.242218 0.594818 0.075500
0.289490 0.602081 0.076965
0.332123 0.608612 0.080078
0.371277 0.614624 0.085846
0.409546 0.620209 0.093506
0.446930 0.626343 0.101349
0.482697 0.632050 0.108246
0.518616 0.636963 0.115814
0.556183 0.642853 0.124969
0.593231 0.648895 0.134125
0.626892 0.651520 0.142334
0.664703 0.658051 0.153656
0.701508 0.665039 0.165985
0.739197 0.670929 0.180420
0.773163 0.676544 0.197723
0.804749 0.681610 0.215698
0.834991 0.687531 0.232635
0.862976 0.693298 0.248230
0.888672 0.698425 0.261505
0.913330 0.703766 0.273438
0.936829 0.710571 0.282715
0.958130 0.717102 0.289337
0.978912 0.723846 0.294952
0.058319 0.618744 0.097992
0.074493 0.621613 0.097992
0.090485 0.625549 0.097778
0.106323 0.628082 0.097229
0.120728 0.627258 0.094788
0.135437 0.626495 0.092163
0.150421 0.625061 0.086243
0.166077 0.625580 0.082184
0.182892 0.627533 0.079895
0.204346 0.626923 0.078308
0.241821 0.622040 0.079773
0.288147 0.628967 0.080658
0.331970 0.635925 0.082947
0.371613 0.642426 0.088379
0.410095 0.648132 0.095764
0.447632 0.653961 0.103790
0.484467 0.660400 0.111633
0.521484 0.666138 0.119720
0.559082 0.671509 0.128723
0.597748 0.678101 0.139069
0.633728 0.683502 0.148376
0.666138 0.685516 0.156494
0.703094 0.692932 0.167267
0.740967 0.699829 0.181244
0.777252 0.705627 0.196503
0.809814 0.710236 0.214569
0.839600 0.715668 0.232269
0.867371 0.720551 0.247803
0.892517 0.724854 0.260590
0.917053 0.729431 0.272736
0.939880 0.733704 0.282440
0.961151 0.739136 0.289215
0.981903 0.745361 0.295013
0.060913 0.644257 0.101044
0.077026 0.647705 0.101013
0.093262 0.650757 0.101074
0.109192 0.654846 0.100739
0.123932 0.654053 0.098694
0.138763 0.653595 0.095734
0.153961 0.652924 0.090729
0.169739 0.653961 0.087128
0.185913 0.656097 0.084229
0.205658 0.656128 0.082062
0.241425 0.648956 0.083466
0.285522 0.655518 0.083984
0.330261 0.662567 0.085785
0.372925 0.669891 0.091034
0.411652 0.676086 0.098297
0.448700 0.681396 0.105957
0.485474 0.687469 0.114105
0.523438 0.693848 0.122589
0.562744 0.699951 0.132416
0.600983 0.705688 0.142700
0.638306 0.712250 0.153168
0.672028 0.716095 0.161713
0.704681 0.719452 0.170288
0.741852 0.726257 0.182465
0.779419 0.732574 0.196411
0.814301 0.738159 0.213501
0.844513 0.742279 0.232208
0.872040 0.747589 0.247498
0.896637 0.750061 0.259979
0.921417 0.754150 0.272430
0.943756 0.758301 0.281494
0.964325 0.761902 0.288544
0.984009 0.766479 0.294159
0.063568 0.669189 0.104156
0.079681 0.672760 0.104095
0.095642 0.676788 0.103821
0.111847 0.679993 0.103760
0.126740 0.680725 0.101959
0.141693 0.679657 0.097900
0.157166 0.679779 0.094086
0.173157 0.681335 0.091339
0.189301 0.683411 0.088715
0.208099 0.683380 0.086060
0.242676 0.675201 0.087341
0.285980 0.681488 0.087555
0.329865 0.688538 0.088745
0.373810 0.695984 0.093292
0.413818 0.702789 0.100494
0.451111 0.708405 0.108276
0.487000 0.713928 0.116394
0.524841 0.720154 0.125275
0.564423 0.726410 0.135193
0.603516 0.732513 0.146027
0.640991 0.738770 0.156616
0.677399 0.744873 0.166962
0.708191 0.746124 0.174286
0.743103 0.751556 0.184784
0.780731 0.758636 0.198181
0.817200 0.764587 0.212097
0.848022 0.768555 0.229980
0.875153 0.772247 0.246735
0.900452 0.775513 0.259979
0.924988 0.778381 0.271881
0.947052 0.781921 0.280731
0.967407 0.785034 0.287598
0.986389 0.788452 0.293335
0.065918 0.695007 0.106903
0.082092 0.697968 0.106934
0.098053 0.701111 0.106567
0.114014 0.704773 0.106384
0.129395 0.706146 0.105225
0.144531 0.705658 0.101471
0.160004 0.705353 0.097198
0.175873 0.706390 0.093994
0.192139 0.708801 0.091766
0.211884 0.708649 0.089905
0.245331 0.701385 0.091095
0.286987 0.706543 0.091156
0.330078 0.713318 0.091888
0.375214 0.720856 0.095917
0.415680 0.727539 0.102417
0.452423 0.733185 0.109650
0.488678 0.739044 0.118225
0.526154 0.745483 0.127716
0.565765 0.751556 0.137512
0.604858 0.757568 0.148376
0.643066 0.764099 0.159485
0.680511 0.770844 0.170624
0.714539 0.774719 0.180298
