public/LUTs/F-9870-STD.cube
# Copyright: (C) Copyright 2010-2021 by IWLTBAP SAS
# Cannot be resold, shared or otherwise redistributed
# Website: https://luts.iwltbap.com
TITLE "IWLTBAP 9870 (Rec.709, sRGB, DCI-P3)"
LUT_3D_SIZE 5
0.000000 0.000000 0.000000
0.223480 0.057861 0.050476
0.450958 0.117920 0.105225
0.683289 0.187988 0.172028
0.907928 0.254822 0.233521
0.020233 0.212708 0.033875
0.215820 0.227478 0.037445
0.468475 0.276917 0.104431
0.744904 0.348114 0.176453
0.952515 0.408264 0.240143
0.034363 0.426422 0.065155
0.180115 0.422516 0.051422
0.473907 0.460388 0.095978
0.746704 0.518463 0.200928
0.961578 0.593018 0.285095
0.060913 0.644257 0.101044
0.185913 0.656097 0.084229
0.485474 0.687469 0.114105
0.779419 0.732574 0.196411
0.984009 0.766479 0.294159
0.075470 0.829559 0.114532
0.206482 0.837097 0.102814
0.480347 0.861237 0.121033
0.769928 0.908173 0.202820
0.992584 0.927460 0.284149
0.074890 0.069366 0.275909
0.248779 0.069550 0.305573
0.481934 0.076202 0.285431
0.685089 0.144165 0.283661
0.887756 0.223907 0.339172
0.082733 0.270203 0.255707
0.210693 0.263794 0.252472
0.455872 0.290131 0.287659
0.743561 0.373199 0.354736
0.920105 0.438293 0.421570
0.092560 0.451447 0.259369
0.191132 0.467377 0.242767
0.435181 0.458862 0.289673
0.778076 0.563141 0.390137
0.961945 0.620667 0.454407
0.082001 0.663025 0.270782
0.201172 0.680603 0.256775
0.429657 0.685638 0.291321
0.755859 0.736755 0.353424
0.983795 0.783813 0.450256
0.083435 0.835754 0.262939
0.209259 0.853638 0.256592
0.465088 0.866913 0.274628
0.760712 0.915222 0.351715
0.993805 0.939850 0.425537
0.107513 0.107635 0.451660
0.258423 0.138550 0.495483
0.453278 0.122223 0.525269
0.690796 0.107269 0.524017
0.898743 0.176819 0.499329
0.140869 0.333862 0.486755
0.267151 0.335999 0.489655
0.444946 0.313080 0.520050
0.713715 0.303284 0.508392
0.915649 0.373444 0.516846
0.138428 0.485046 0.461334
0.266541 0.489166 0.459351
0.418579 0.491302 0.478943
0.712860 0.547058 0.542847
0.941010 0.640259 0.631531
0.139679 0.660919 0.452515
0.232178 0.691040 0.434875
0.349243 0.698334 0.428925
0.698303 0.735321 0.542725
0.979156 0.808746 0.637177
0.099182 0.837158 0.428833
0.222137 0.849762 0.424408
0.353302 0.876740 0.421204
0.733582 0.918640 0.521515
0.989838 0.956238 0.603210
0.132721 0.140381 0.619812
0.308411 0.181396 0.698395
0.450256 0.178101 0.711090
0.648071 0.164062 0.736786
0.888519 0.141144 0.754547
0.184662 0.352966 0.699158
0.311920 0.355835 0.703461
0.452301 0.346313 0.724152
0.661346 0.339874 0.752991
0.906281 0.320068 0.756500
0.179962 0.544952 0.688660
0.303345 0.560059 0.692322
0.444153 0.555206 0.715698
0.677216 0.538452 0.766357
0.928986 0.545013 0.768402
0.181122 0.697449 0.666351
0.306519 0.704010 0.661346
0.432098 0.710236 0.665131
0.658875 0.745239 0.732391
0.956421 0.818054 0.816681
0.175354 0.836639 0.643860
0.284515 0.845459 0.633484
0.376343 0.857574 0.612579
0.678253 0.908783 0.719513
0.979126 0.975586 0.809479
0.157074 0.163635 0.784210
0.326569 0.204773 0.854492
0.454681 0.205017 0.856537
0.630859 0.194092 0.877991
0.847168 0.172668 0.902222
0.195129 0.356384 0.845947
0.320923 0.352539 0.850616
0.452515 0.352173 0.861450
0.639343 0.346436 0.888062
0.862274 0.331329 0.914459
0.191681 0.543427 0.831848
0.319977 0.548065 0.838928
0.458801 0.539490 0.858459
0.654022 0.527527 0.908508
0.886047 0.525024 0.938232
0.188171 0.708344 0.818298
0.314880 0.716370 0.819763
0.450012 0.736359 0.841583
0.664948 0.763062 0.928375
0.929993 0.766174 0.970062
0.193420 0.856567 0.816956
0.319366 0.864044 0.821411
0.447937 0.879822 0.831940
0.625580 0.919525 0.881989
0.989288 0.989471 0.988403
