public/LUTs/F-9870-STD.cube
# Copyright: (C) Copyright 2010-2021 by IWLTBAP SAS
# Cannot be resold, shared or otherwise redistributed
# Website: https://luts.iwltbap.com
TITLE "IWLTBAP 9870 (Rec.709, sRGB, DCI-P3)"
LUT_3D_SIZE 9
0.000000 0.000000 0.000000
0.112610 0.028290 0.022827
0.223480 0.057861 0.050476
0.340973 0.083282 0.071503
0.450958 0.117920 0.105225
0.561890 0.152161 0.137573
0.683289 0.187988 0.172028
0.802704 0.223297 0.203369
0.907928 0.254822 0.233521
0.012177 0.112366 0.021027
0.103424 0.114777 0.022400
0.221008 0.132507 0.039093
0.344604 0.160248 0.064240
0.476471 0.195618 0.099823
0.598297 0.228729 0.133453
0.717377 0.265228 0.170593
0.826782 0.299500 0.207855
0.923981 0.331085 0.239258
0.020233 0.212708 0.033875
0.089935 0.209991 0.027710
0.215820 0.227478 0.037445
0.344147 0.244873 0.062317
0.468475 0.276917 0.104431
0.601074 0.312561 0.143494
0.744904 0.348114 0.176453
0.864868 0.378418 0.206818
0.952515 0.408264 0.240143
0.020538 0.320892 0.046783
0.083038 0.321899 0.039581
0.203827 0.325928 0.040039
0.343781 0.340942 0.062347
0.472229 0.359894 0.100647
0.602570 0.392731 0.148102
0.742157 0.432251 0.190308
0.869476 0.464600 0.223846
0.963074 0.499695 0.260864
0.034363 0.426422 0.065155
0.094360 0.429413 0.060211
0.180115 0.422516 0.051422
0.341797 0.443939 0.070526
0.473907 0.460388 0.095978
0.612518 0.482239 0.143494
0.746704 0.518463 0.200928
0.870483 0.558929 0.248230
0.961578 0.593018 0.285095
0.049103 0.537567 0.085876
0.110687 0.545471 0.082428
0.175049 0.544739 0.067749
0.335205 0.554535 0.076050
0.480957 0.575287 0.104797
0.623291 0.594971 0.138092
0.762817 0.618713 0.199890
0.881622 0.650055 0.260864
0.972931 0.679840 0.294861
0.060913 0.644257 0.101044
0.123932 0.654053 0.098694
0.185913 0.656097 0.084229
0.330261 0.662567 0.085785
0.485474 0.687469 0.114105
0.638306 0.712250 0.153168
0.779419 0.732574 0.196411
0.896637 0.750061 0.259979
0.984009 0.766479 0.294159
0.069855 0.742004 0.111053
0.133972 0.754181 0.109741
0.197083 0.757172 0.098389
0.328094 0.759552 0.097412
0.489471 0.785004 0.120026
0.643219 0.809784 0.162689
0.782379 0.826538 0.202698
0.908173 0.844818 0.258118
0.991608 0.853088 0.290192
0.075470 0.829559 0.114532
0.139069 0.834290 0.108917
0.206482 0.837097 0.102814
0.333191 0.840454 0.103088
0.480347 0.861237 0.121033
0.624603 0.883728 0.158173
0.769928 0.908173 0.202820
0.900360 0.921356 0.246948
0.992584 0.927460 0.284149
0.052307 0.056396 0.165863
0.136963 0.053406 0.175659
0.251495 0.042572 0.166534
0.363068 0.061646 0.145691
0.458160 0.094849 0.157776
0.558716 0.130798 0.187988
0.671326 0.166077 0.219177
0.789246 0.202820 0.251556
0.896851 0.237244 0.282715
0.048706 0.148712 0.143036
0.111481 0.144684 0.138275
0.228882 0.143829 0.148804
0.354492 0.175842 0.170685
0.485229 0.213013 0.199982
0.620422 0.250183 0.234222
0.740295 0.285492 0.265594
0.844727 0.316986 0.295685
0.913940 0.342957 0.322906
0.055695 0.233368 0.138916
0.108978 0.239532 0.133331
0.202454 0.232239 0.148926
0.355103 0.258484 0.163361
0.509369 0.300079 0.202148
0.677856 0.337250 0.233948
0.784119 0.368500 0.270020
0.871887 0.395996 0.299774
0.939575 0.420929 0.328613
0.047852 0.349243 0.147949
0.105469 0.351837 0.142853
0.184723 0.345520 0.149353
0.327484 0.342377 0.164001
0.472321 0.370087 0.188721
0.641571 0.420288 0.244965
0.802277 0.457947 0.280731
0.899109 0.488464 0.313538
0.960602 0.513458 0.343475
0.054169 0.449005 0.161041
0.114197 0.454529 0.156799
0.172821 0.454285 0.148499
0.320618 0.443481 0.167450
0.460480 0.460632 0.186249
0.605042 0.486145 0.221924
0.776978 0.544769 0.292908
0.896301 0.587799 0.342163
0.964874 0.606171 0.366058
0.065430 0.555450 0.178162
0.124695 0.565186 0.171722
0.182007 0.564087 0.160675
0.309265 0.553436 0.172455
0.462097 0.575867 0.185608
0.610657 0.596375 0.212677
0.760651 0.621918 0.266724
0.894653 0.668213 0.342072
0.973785 0.690063 0.368744
0.069366 0.654602 0.182892
0.132202 0.668518 0.179169
0.192505 0.671173 0.171967
0.304169 0.664825 0.178558
0.466187 0.689758 0.188843
0.627533 0.715668 0.223328
0.773956 0.736877 0.263641
0.898376 0.754486 0.327209
0.984802 0.775635 0.366211
0.075134 0.748962 0.186432
0.138672 0.761230 0.184082
0.201080 0.769318 0.180084
0.311707 0.763184 0.181549
0.478760 0.788940 0.193634
0.636566 0.814301 0.233551
0.780884 0.833221 0.275635
0.909790 0.850616 0.324493
0.993256 0.859131 0.360657
0.078674 0.832336 0.186249
0.142120 0.843048 0.184418
0.208282 0.847961 0.181580
0.325592 0.844269 0.179230
0.473724 0.863098 0.189911
0.623566 0.886627 0.227417
0.768311 0.912537 0.271484
0.901642 0.926544 0.314697
0.993469 0.932709 0.349121
0.074890 0.069366 0.275909
0.149628 0.076355 0.290222
0.248779 0.069550 0.305573
0.379089 0.047729 0.312683
0.481934 0.076202 0.285431
0.580780 0.107330 0.274078
0.685089 0.144165 0.283661
0.787628 0.183258 0.305786
0.887756 0.223907 0.339172
0.086853 0.190460 0.273590
0.148346 0.189270 0.272400
0.228333 0.172577 0.283875
0.366974 0.152649 0.285980
0.498352 0.177368 0.260986
0.610443 0.218597 0.277954
0.722168 0.259613 0.311401
0.826691 0.291504 0.338806
0.905029 0.323120 0.370422
0.082733 0.270203 0.255707
0.144104 0.267975 0.251526
0.210693 0.263794 0.252472
0.336670 0.257629 0.271729
0.455872 0.290131 0.287659
0.597321 0.331512 0.321991
0.743561 0.373199 0.354736
0.851562 0.405182 0.385101
0.920105 0.438293 0.421570
0.091858 0.351196 0.254364
0.155762 0.356384 0.252625
0.211243 0.346375 0.242004
0.316742 0.347046 0.266754
0.459625 0.376007 0.290527
0.640503 0.432587 0.339874
0.803223 0.467316 0.364990
0.889282 0.494385 0.394989
0.949707 0.527985 0.437286
0.092560 0.451447 0.259369
0.139435 0.473755 0.254944
0.191132 0.467377 0.242767
0.303772 0.457275 0.271301
0.435181 0.458862 0.289673
0.595367 0.495453 0.319916
0.778076 0.563141 0.390137
0.899811 0.598450 0.422974
0.961945 0.620667 0.454407
0.079468 0.567078 0.264435
0.139587 0.578796 0.263245
0.197784 0.574493 0.254944
0.281921 0.575073 0.267426
0.427795 0.570282 0.287842
0.587006 0.595917 0.314331
0.747162 0.627533 0.358490
0.899139 0.683197 0.430634
0.974304 0.703094 0.455505
0.082001 0.663025 0.270782
0.143555 0.674774 0.268097
0.201172 0.680603 0.256775
0.265686 0.690582 0.256958
0.429657 0.685638 0.291321
0.599152 0.712494 0.315918
0.755859 0.736755 0.353424
0.893402 0.759735 0.406677
0.983795 0.783813 0.450256
0.083527 0.754303 0.269775
0.144196 0.765503 0.262390
0.206116 0.772797 0.257233
0.276062 0.787231 0.264923
0.452332 0.788239 0.289398
0.618317 0.815643 0.323273
0.769714 0.839630 0.365112
0.903992 0.856934 0.401947
0.992096 0.865845 0.441132
0.083435 0.835754 0.262939
0.145966 0.844330 0.259338
0.209259 0.853638 0.256592
0.313232 0.854248 0.267670
0.465088 0.866913 0.274628
0.617249 0.889832 0.307068
0.760712 0.915222 0.351715
0.895905 0.931152 0.394257
0.993805 0.939850 0.425537
0.092438 0.091217 0.367218
0.171204 0.107941 0.390411
0.246216 0.104736 0.399017
0.350372 0.096283 0.412689
0.473297 0.077087 0.422394
0.585693 0.091736 0.407806
0.690186 0.123871 0.392792
0.801544 0.161560 0.391479
0.897034 0.198212 0.400238
0.112000 0.215210 0.383087
0.174774 0.215790 0.383911
0.239410 0.202057 0.390930
0.341095 0.195099 0.403961
0.464874 0.174072 0.413666
0.605316 0.189178 0.394165
0.734528 0.229126 0.385925
0.829742 0.266663 0.395477
0.904358 0.297974 0.421753
0.111664 0.311554 0.375732
0.174316 0.313599 0.374084
0.237183 0.310089 0.378418
0.330627 0.295166 0.392822
0.454681 0.267548 0.397278
0.602112 0.290375 0.378998
0.742035 0.338348 0.397888
0.841217 0.380188 0.431244
0.906067 0.405823 0.457581
0.110535 0.377136 0.356018
0.174683 0.379395 0.353485
0.234344 0.375641 0.351685
0.312744 0.374573 0.361206
0.445953 0.376221 0.391449
0.575409 0.408112 0.407227
0.728119 0.462341 0.451874
0.857483 0.500702 0.483887
0.930939 0.541840 0.526581
0.121429 0.458130 0.357666
0.187073 0.467072 0.358459
0.247406 0.465973 0.354401
0.313477 0.455170 0.350006
0.427185 0.462738 0.380707
0.584991 0.502472 0.416016
0.774902 0.575073 0.483856
0.895416 0.606171 0.507965
0.957062 0.633820 0.545319
0.119263 0.558838 0.357239
0.167755 0.579254 0.353516
0.220184 0.588959 0.348083
0.282837 0.583252 0.345062
0.408325 0.580383 0.382294
0.556946 0.592438 0.409576
0.741028 0.638763 0.455750
0.898560 0.696930 0.520386
0.971344 0.716309 0.545380
0.092896 0.668610 0.350800
0.151886 0.680847 0.348755
0.213226 0.689331 0.347015
0.275391 0.691193 0.343750
0.377014 0.700348 0.370941
0.567474 0.710693 0.409912
0.733063 0.738281 0.448303
0.881531 0.766724 0.494446
0.983032 0.796478 0.540833
0.090302 0.757599 0.350098
0.151703 0.766266 0.346619
0.212921 0.773376 0.341766
0.274963 0.784576 0.335693
0.397125 0.801788 0.383545
0.589020 0.814850 0.408997
0.750732 0.840729 0.454895
0.891846 0.861053 0.491730
0.991577 0.874207 0.527130
0.089478 0.836914 0.344666
0.151093 0.844635 0.339264
0.214569 0.852081 0.339142
0.277832 0.866791 0.333008
0.450684 0.869049 0.368774
0.605011 0.893616 0.391174
0.751282 0.916901 0.437378
0.888397 0.936371 0.484344
0.992828 0.947754 0.508972
0.107513 0.107635 0.451660
0.194336 0.138916 0.493744
0.258423 0.138550 0.495483
0.347412 0.130310 0.510254
0.453278 0.122223 0.525269
0.566010 0.105133 0.533569
0.690796 0.107269 0.524017
0.794922 0.139343 0.505554
0.898743 0.176819 0.499329
0.135864 0.231537 0.491272
0.199066 0.233307 0.493011
0.261414 0.230408 0.495209
0.345917 0.223846 0.511169
0.448608 0.217621 0.523926
0.558716 0.204437 0.531799
0.711426 0.204346 0.520691
0.833954 0.240051 0.500885
0.911682 0.272980 0.503540
0.140869 0.333862 0.486755
0.204224 0.337860 0.487976
0.267151 0.335999 0.489655
0.340637 0.325989 0.504089
0.444946 0.313080 0.520050
0.557495 0.300415 0.529175
0.713715 0.303284 0.508392
0.845581 0.339905 0.497498
0.915649 0.373444 0.516846
0.134857 0.418213 0.471710
0.198517 0.421295 0.470886
0.261108 0.422028 0.472626
0.328888 0.425201 0.489105
0.436371 0.411011 0.511108
0.560577 0.386688 0.514587
0.720947 0.409760 0.495728
0.845581 0.452728 0.513580
0.914917 0.490417 0.549164
0.138428 0.485046 0.461334
0.203552 0.488403 0.459839
0.266541 0.489166 0.459351
0.326477 0.485596 0.457825
0.418579 0.491302 0.478943
0.564789 0.496368 0.511810
0.712860 0.547058 0.542847
0.859863 0.604340 0.591705
0.941010 0.640259 0.631531
0.146820 0.561493 0.457214
0.213470 0.573456 0.459564
0.277649 0.579712 0.459747
0.333130 0.579681 0.452728
0.402618 0.576752 0.453339
0.537903 0.589447 0.496796
0.731232 0.647186 0.551147
0.896149 0.709778 0.613922
0.966522 0.732605 0.644379
0.139679 0.660919 0.452515
0.184265 0.677521 0.441711
0.232178 0.691040 0.434875
0.286438 0.695526 0.428680
0.349243 0.698334 0.428925
0.532593 0.711609 0.507660
0.698303 0.735321 0.542725
0.878265 0.780151 0.593536
0.979156 0.808746 0.637177
0.102112 0.760376 0.432129
0.161560 0.768494 0.429626
0.223419 0.773987 0.428375
0.284180 0.780609 0.425049
0.350739 0.791107 0.428589
0.531342 0.819580 0.508789
0.715454 0.840393 0.542664
0.869232 0.864258 0.586151
0.986908 0.882660 0.619476
0.099182 0.837158 0.428833
0.160370 0.843597 0.426086
0.222137 0.849762 0.424408
0.282654 0.856506 0.417938
0.353302 0.876740 0.421204
0.574341 0.892670 0.480896
0.733582 0.918640 0.521515
0.876160 0.941620 0.573730
0.989838 0.956238 0.603210
0.119171 0.123047 0.533752
0.220306 0.164215 0.599060
0.283417 0.163361 0.599731
0.350006 0.161865 0.603333
0.449982 0.154510 0.623383
0.550568 0.146423 0.635590
0.668549 0.129272 0.646332
0.794861 0.123322 0.645508
0.894165 0.154785 0.629333
0.159760 0.247559 0.601349
0.222809 0.248444 0.602722
0.285828 0.247070 0.603973
0.351562 0.245941 0.608337
0.450958 0.242096 0.626190
0.549744 0.235565 0.637573
0.672668 0.220428 0.650848
0.810272 0.214386 0.644775
0.903778 0.243011 0.623260
0.166565 0.346527 0.595825
0.230560 0.352386 0.596527
0.293793 0.350311 0.599487
0.357666 0.346313 0.606110
0.448914 0.334167 0.628876
0.551514 0.330902 0.641388
0.671509 0.320312 0.654083
0.822174 0.312866 0.640747
0.910797 0.341644 0.623688
0.162323 0.441956 0.588837
0.224426 0.450317 0.589722
0.288239 0.449249 0.592407
0.353943 0.446899 0.596832
0.447052 0.436066 0.626678
0.554901 0.426331 0.643524
0.679962 0.414886 0.654724
0.831787 0.413666 0.631592
0.918579 0.450928 0.630493
0.160156 0.523468 0.576416
0.222382 0.526611 0.573517
0.285126 0.528137 0.573853
0.348755 0.530090 0.577087
0.422638 0.544464 0.607269
0.546509 0.531250 0.636292
0.691406 0.507599 0.645294
0.843597 0.531708 0.624268
0.923706 0.580200 0.650909
0.162476 0.591919 0.564270
0.227112 0.596649 0.563354
0.289581 0.598694 0.561554
0.352325 0.599976 0.562805
0.416107 0.601105 0.565033
0.529816 0.615753 0.600220
0.700714 0.633636 0.644714
0.857574 0.695587 0.690887
0.952789 0.735291 0.729523
0.164368 0.664093 0.554626
0.229584 0.676086 0.555847
0.292267 0.684357 0.554565
0.353088 0.686218 0.553833
0.402771 0.693085 0.544830
0.505341 0.699585 0.568848
0.665314 0.722717 0.626709
0.872040 0.790833 0.694946
0.972687 0.821381 0.738434
0.155823 0.754822 0.546570
0.197449 0.766205 0.532959
0.247772 0.773254 0.523804
0.306732 0.775513 0.521088
0.359192 0.783936 0.511322
0.471130 0.796082 0.548065
0.665283 0.834534 0.636414
0.842133 0.867920 0.682465
0.979126 0.894196 0.721985
0.119659 0.837158 0.520233
0.172852 0.842285 0.511200
0.232117 0.846375 0.506744
0.293762 0.851746 0.505768
0.354218 0.858368 0.501709
0.484833 0.884460 0.550598
0.688080 0.915985 0.607086
0.855194 0.944366 0.658630
0.981415 0.965149 0.702972
0.132721 0.140381 0.619812
0.242615 0.179840 0.693665
0.308411 0.181396 0.698395
0.372253 0.181000 0.699982
0.450256 0.178101 0.711090
0.547821 0.174194 0.727386
0.648071 0.164062 0.736786
0.769653 0.150818 0.751801
0.888519 0.141144 0.754547
0.178986 0.260986 0.698425
0.242462 0.261566 0.700195
0.306122 0.260895 0.701782
0.370239 0.259857 0.703278
0.453430 0.259674 0.716064
0.551300 0.255005 0.732056
0.656189 0.246368 0.744202
0.780334 0.231628 0.756958
0.897980 0.225067 0.756104
0.184662 0.352966 0.699158
0.249756 0.358459 0.700928
0.311920 0.355835 0.703461
0.374756 0.352966 0.706421
0.452301 0.346313 0.724152
0.553375 0.346649 0.739197
0.661346 0.339874 0.752991
0.787323 0.324829 0.764069
0.906281 0.320068 0.756500
0.187347 0.451508 0.692383
0.249847 0.459229 0.694336
0.313782 0.457886 0.697021
0.378418 0.455933 0.700348
0.454102 0.444946 0.726074
0.555634 0.438721 0.746735
0.668457 0.433655 0.759583
0.794189 0.421753 0.770721
0.916565 0.424744 0.760895
0.179962 0.544952 0.688660
0.240845 0.556824 0.690308
0.303345 0.560059 0.692322
0.367371 0.559631 0.695251
0.444153 0.555206 0.715698
0.550415 0.548767 0.746124
0.677216 0.538452 0.766357
0.808258 0.525360 0.776062
0.928986 0.545013 0.768402
0.179169 0.627075 0.676117
0.243164 0.631714 0.675812
0.305878 0.633942 0.674469
0.368958 0.635712 0.676819
0.436523 0.645325 0.691528
0.525726 0.663239 0.727661
0.673218 0.649597 0.768188
0.827484 0.636047 0.775757
0.935669 0.672546 0.769196
0.181122 0.697449 0.666351
0.244751 0.702301 0.665253
0.306519 0.704010 0.661346
0.369110 0.705963 0.662354
0.432098 0.710236 0.665131
0.511261 0.721008 0.680481
0.658875 0.745239 0.732391
0.839355 0.772491 0.779968
0.956421 0.818054 0.816681
0.178711 0.764252 0.652985
0.238861 0.767700 0.648407
0.300751 0.773010 0.647400
0.362823 0.777374 0.647247
0.424927 0.781738 0.647186
0.495911 0.790833 0.654541
0.644470 0.812103 0.704651
0.808472 0.852417 0.764587
0.963013 0.899872 0.817444
0.175354 0.836639 0.643860
0.232513 0.840576 0.639038
0.284515 0.845459 0.633484
0.334106 0.850464 0.625519
0.376343 0.857574 0.612579
0.468689 0.871735 0.633850
0.678253 0.908783 0.719513
0.857361 0.959717 0.785583
0.979126 0.975586 0.809479
0.146698 0.154602 0.705261
0.253418 0.188721 0.772491
0.329041 0.203003 0.791656
0.392487 0.202484 0.792023
0.456604 0.201813 0.792511
0.551788 0.194397 0.806396
0.646912 0.190979 0.819336
0.755859 0.187317 0.834229
0.872192 0.176300 0.845734
0.194977 0.271332 0.785339
0.260681 0.273987 0.789734
0.325226 0.274261 0.791443
0.390808 0.274780 0.794067
0.458069 0.274994 0.796967
0.554688 0.268799 0.810822
0.650787 0.266541 0.824463
0.761627 0.262390 0.839233
0.876678 0.251495 0.849121
0.195404 0.352264 0.786499
0.258942 0.355682 0.788025
0.322083 0.354248 0.789764
0.386139 0.353027 0.793213
0.453064 0.352600 0.799103
0.554047 0.352173 0.816467
0.654358 0.351257 0.831055
0.763733 0.346375 0.844788
0.880890 0.335785 0.855377
0.200500 0.448975 0.778137
0.264160 0.455902 0.779266
0.328217 0.453552 0.784790
0.392731 0.449738 0.791962
0.457794 0.444641 0.800964
0.552826 0.439301 0.824982
0.660675 0.439453 0.838867
0.769409 0.436218 0.852936
0.887299 0.426056 0.863464
0.192993 0.540924 0.770081
0.255249 0.549622 0.773285
0.320068 0.552155 0.777313
0.387390 0.550446 0.785156
0.457489 0.548187 0.795593
0.548859 0.540619 0.830536
0.670715 0.539764 0.851685
0.782043 0.536621 0.863525
0.897064 0.531525 0.875458
0.185669 0.636780 0.768921
0.250000 0.645660 0.772949
0.315186 0.654114 0.777649
0.381317 0.657562 0.786041
0.449005 0.658997 0.796234
0.539948 0.661560 0.827972
0.681030 0.644897 0.865356
0.805359 0.651825 0.878113
0.914551 0.650330 0.885223
0.188324 0.709961 0.755066
0.251373 0.713806 0.754669
0.317993 0.723663 0.761414
0.385101 0.733612 0.768707
0.451202 0.741241 0.777039
0.541840 0.764435 0.811859
0.682892 0.771606 0.863342
0.824951 0.770660 0.891663
0.936951 0.781342 0.896149
0.191742 0.783936 0.752289
0.256134 0.790100 0.755157
0.319672 0.797455 0.759155
0.383148 0.805939 0.763367
0.448242 0.816772 0.770264
0.544678 0.836761 0.800659
0.709869 0.865143 0.856750
0.840332 0.884003 0.888641
0.958862 0.900909 0.909485
0.191254 0.855865 0.749817
0.253357 0.857941 0.749847
0.315765 0.862061 0.751343
0.378418 0.868011 0.753906
0.443146 0.876740 0.759766
0.514465 0.890961 0.773132
0.688690 0.919678 0.833221
0.850494 0.950958 0.879303
0.982483 0.984955 0.910919
0.157074 0.163635 0.784210
0.259125 0.194153 0.843384
0.326569 0.204773 0.854492
0.390045 0.205292 0.855682
0.454681 0.205017 0.856537
0.528595 0.201385 0.860565
0.630859 0.194092 0.877991
0.733551 0.180756 0.887604
0.847168 0.172668 0.902222
0.196381 0.275787 0.851288
0.258087 0.275238 0.851013
0.322479 0.275116 0.853180
0.389374 0.275146 0.856598
0.457153 0.276093 0.861298
0.533966 0.273010 0.866180
0.635376 0.266388 0.883057
0.740601 0.253387 0.893188
0.855103 0.246796 0.907135
0.195129 0.356384 0.845947
0.257996 0.355103 0.848053
0.320923 0.352539 0.850616
0.385101 0.351074 0.854492
0.452515 0.352173 0.861450
0.535583 0.352264 0.872925
0.639343 0.346436 0.888062
0.744232 0.336914 0.900452
0.862274 0.331329 0.914459
0.199249 0.452057 0.836334
0.263214 0.454346 0.839508
0.326874 0.449890 0.845245
0.391113 0.444305 0.853638
0.455994 0.435669 0.862823
0.531006 0.430725 0.877228
0.645416 0.430328 0.895477
0.752380 0.424438 0.908752
0.870453 0.421631 0.923523
0.191681 0.543427 0.831848
0.254883 0.550201 0.834900
0.319977 0.548065 0.838928
0.388428 0.543640 0.846344
0.458801 0.539490 0.858459
0.531891 0.530884 0.879333
0.654022 0.527527 0.908508
0.768219 0.523743 0.923340
0.886047 0.525024 0.938232
0.185699 0.636780 0.831848
0.248627 0.643585 0.833679
0.314514 0.648773 0.839722
0.380493 0.647980 0.845642
0.449799 0.645935 0.856049
0.524506 0.646271 0.875397
0.661591 0.629486 0.924713
0.795776 0.639313 0.942322
0.905457 0.640259 0.953705
0.188171 0.708344 0.818298
0.250458 0.710510 0.816284
0.314880 0.716370 0.819763
0.383148 0.728271 0.830994
0.450012 0.736359 0.841583
0.523590 0.753113 0.864594
0.664948 0.763062 0.928375
0.820679 0.760956 0.960236
0.929993 0.766174 0.970062
0.189545 0.779175 0.812622
0.255005 0.785919 0.816803
0.320618 0.794708 0.823059
0.384979 0.804504 0.829315
0.452393 0.818359 0.841125
0.524017 0.836517 0.859802
0.686523 0.870239 0.925903
0.837433 0.878784 0.967010
0.959625 0.889404 0.983124
0.193420 0.856567 0.816956
0.256134 0.859467 0.818481
0.319366 0.864044 0.821411
0.382172 0.869934 0.824127
0.447937 0.879822 0.831940
0.516266 0.895660 0.846161
0.625580 0.919525 0.881989
0.821442 0.956757 0.948059
0.989288 0.989471 0.988403
