public/LUTs/Fizati.cube
# Copyright: (C) Copyright 2010-2018 by IWLTBAP SAS
# Cannot be resold, shared or otherwise redistributed
# Website: https://luts.iwltbap.com
TITLE "IWLTBAP Fizati (Rec.709, sRGB, DCI-P3)"
LUT_3D_SIZE 33
0.001923 0.001923 0.001923
0.031555 0.001678 0.006622
0.082794 0.001251 0.018219
0.136536 0.000793 0.028839
0.187805 0.000336 0.043274
0.236450 0.000000 0.061646
0.279053 0.000000 0.078735
0.317169 0.000000 0.091309
0.350525 0.000000 0.102173
0.383820 0.000000 0.108795
0.415070 0.000000 0.115509
0.444580 0.000000 0.120850
0.471771 0.000000 0.125336
0.498901 0.000000 0.128906
0.527588 0.000000 0.132690
0.554718 0.000000 0.135986
0.580475 0.000000 0.137207
0.605347 0.000000 0.136902
0.630829 0.000000 0.135254
0.658447 0.000000 0.133026
0.686432 0.000000 0.131683
0.714539 0.000000 0.129761
0.742004 0.000000 0.127136
0.768921 0.000000 0.124542
0.796234 0.000000 0.122253
0.825287 0.000000 0.118866
0.852814 0.000000 0.120544
0.879913 0.000000 0.121521
0.902802 0.000000 0.121429
0.921783 0.000000 0.121552
0.935303 0.000000 0.122925
0.951813 0.000000 0.123444
0.968262 0.000000 0.124359
0.050598 0.001434 0.033569
0.039551 0.017334 0.024750
0.077209 0.021179 0.019043
0.131165 0.020874 0.024872
0.180908 0.018555 0.033936
0.230133 0.015717 0.047150
0.271393 0.012939 0.060425
0.310425 0.010620 0.070801
0.346405 0.009216 0.080688
0.378540 0.006927 0.089417
0.409241 0.006012 0.096222
0.438171 0.005066 0.102692
0.467010 0.005035 0.107819
0.494965 0.005005 0.112122
0.524017 0.005829 0.117188
0.551239 0.006622 0.121674
0.577606 0.006989 0.124237
0.603577 0.007782 0.125610
0.630219 0.008148 0.125549
0.658661 0.008911 0.124634
0.686493 0.009247 0.124023
0.713715 0.009979 0.121857
0.740692 0.010712 0.119995
0.767670 0.011383 0.118011
0.795013 0.012085 0.116302
0.826538 0.009613 0.118103
0.854156 0.009979 0.119629
0.881897 0.010345 0.121002
0.904205 0.010712 0.120911
0.920654 0.011078 0.122437
0.936005 0.011444 0.123413
0.952881 0.011810 0.123901
0.968994 0.012177 0.125000
0.142120 0.000305 0.096527
0.128296 0.010559 0.084991
0.115234 0.041443 0.066071
0.133606 0.041077 0.044281
0.180328 0.040680 0.041321
0.226318 0.040405 0.039551
0.264465 0.034973 0.043121
0.302094 0.030884 0.053345
0.338348 0.027130 0.061554
0.372833 0.024078 0.071136
0.404236 0.021088 0.078644
0.433350 0.018890 0.085327
0.461884 0.017853 0.091248
0.490936 0.016510 0.096466
0.520874 0.016724 0.102081
0.547638 0.018127 0.106476
0.575562 0.019501 0.111206
0.602112 0.020477 0.113708
0.629211 0.021820 0.115143
0.657745 0.022797 0.115814
0.686005 0.023743 0.115631
0.712860 0.025024 0.113800
0.739838 0.026306 0.112610
0.766998 0.027191 0.111542
0.796783 0.019073 0.114136
0.828094 0.019806 0.117004
0.855774 0.020508 0.118774
0.883362 0.021240 0.120087
0.904419 0.021942 0.121643
0.921417 0.022644 0.122986
0.937927 0.023376 0.123474
0.953674 0.024078 0.124573
0.970581 0.024780 0.125397
0.232788 0.000000 0.159363
0.221161 0.000000 0.149597
0.207642 0.027618 0.129425
0.189270 0.064758 0.106964
0.184631 0.063171 0.072357
0.229523 0.058380 0.063629
0.266083 0.055756 0.058350
0.299835 0.052887 0.054138
0.329865 0.049896 0.050476
0.362732 0.047577 0.054474
0.396942 0.042664 0.063263
0.427765 0.038666 0.070160
0.456116 0.035736 0.075195
0.484802 0.033508 0.081146
0.515686 0.032043 0.086609
0.543335 0.031708 0.091461
0.571625 0.033478 0.096649
0.599579 0.035248 0.100708
0.627136 0.036682 0.103607
0.655762 0.038452 0.105621
0.684479 0.039856 0.105591
0.711792 0.041565 0.104675
0.739563 0.036407 0.106445
0.768433 0.028900 0.109497
0.798096 0.029907 0.112457
0.829346 0.030945 0.115417
0.857910 0.031952 0.117432
0.885132 0.032959 0.119019
0.904877 0.033997 0.121490
0.923187 0.035004 0.122559
0.937836 0.036041 0.124023
0.955292 0.037048 0.124664
0.973419 0.038086 0.125244
0.306488 0.000000 0.211487
0.301056 0.000000 0.204926
0.290039 0.001984 0.188690
0.273926 0.048157 0.166229
0.248322 0.087738 0.139526
0.238525 0.082550 0.096161
0.265289 0.078461 0.080505
0.302094 0.072418 0.073578
0.332886 0.066956 0.067291
0.361328 0.062408 0.062134
0.389221 0.063660 0.061035
0.419708 0.061340 0.061493
0.449707 0.060516 0.063446
0.477661 0.057251 0.066650
0.507233 0.054657 0.070862
0.537689 0.052429 0.076691
0.565887 0.051514 0.082092
0.595337 0.052521 0.087402
0.623871 0.054504 0.091309
0.653046 0.056488 0.094238
0.683502 0.051697 0.097229
0.712982 0.043213 0.100433
0.741211 0.039917 0.103485
0.769714 0.041077 0.106781
0.799744 0.042297 0.110107
0.831177 0.043518 0.113586
0.860016 0.044739 0.116150
0.886536 0.045990 0.118591
0.905640 0.047272 0.122009
0.924530 0.048523 0.123352
0.941895 0.049805 0.124115
0.959839 0.051086 0.124817
0.977020 0.052399 0.126129
0.380127 0.000000 0.261230
0.374847 0.000000 0.255188
0.366028 0.000000 0.244873
0.353241 0.003937 0.226471
0.338470 0.069672 0.201630
0.304077 0.108032 0.171387
0.289001 0.101959 0.121399
0.295288 0.098663 0.093262
0.331177 0.091522 0.085663
0.359467 0.085602 0.078308
0.389038 0.081451 0.073639
0.416962 0.079498 0.070312
0.444916 0.078186 0.068451
0.474487 0.075348 0.068970
0.505981 0.071350 0.071167
0.535370 0.066345 0.073303
0.564087 0.063080 0.076111
0.592560 0.063568 0.080017
0.621887 0.064178 0.084473
0.654266 0.059540 0.089630
0.684479 0.052460 0.093811
0.713959 0.053131 0.097595
0.744110 0.054260 0.101593
0.773651 0.055481 0.105377
0.803558 0.056732 0.108887
0.834015 0.058044 0.112274
0.862823 0.059418 0.115265
0.887054 0.060791 0.118866
0.907990 0.062195 0.121704
0.927460 0.063629 0.123108
0.944031 0.065094 0.124634
0.962494 0.066589 0.125366
0.981445 0.068085 0.126038
0.429108 0.000000 0.295746
0.432129 0.000000 0.295624
0.431610 0.000000 0.292542
0.420868 0.000000 0.281616
0.407135 0.023926 0.258026
0.388916 0.096069 0.234406
0.357910 0.127258 0.204254
0.334167 0.123474 0.147095
0.327515 0.121246 0.107178
0.355591 0.115814 0.097321
0.386383 0.109741 0.089966
0.415680 0.104126 0.084015
0.442719 0.100800 0.079498
0.472290 0.098267 0.077118
0.501434 0.095917 0.075104
0.532593 0.090546 0.075500
0.562592 0.083160 0.077209
0.592712 0.075592 0.079498
0.622986 0.071442 0.082855
0.653778 0.069550 0.086243
0.683716 0.070129 0.090088
0.713593 0.070862 0.094330
0.744141 0.071777 0.098572
0.774933 0.072815 0.102661
0.805206 0.073944 0.106506
0.835907 0.075195 0.110168
0.863190 0.076508 0.113770
0.887299 0.077881 0.118378
0.909668 0.079315 0.120911
0.928925 0.080841 0.122681
0.948303 0.082367 0.123322
0.967377 0.083954 0.124146
0.985779 0.085571 0.125702
0.471191 0.000000 0.333038
0.472351 0.000000 0.330933
0.477081 0.000000 0.331268
0.473480 0.000000 0.325867
0.462311 0.000000 0.308136
0.449371 0.054962 0.284851
0.432343 0.123871 0.262909
0.406372 0.145874 0.234863
0.376740 0.146881 0.174042
0.367188 0.144592 0.126709
0.380981 0.142212 0.107422
0.412781 0.136414 0.100769
0.441254 0.130676 0.094055
0.469604 0.125671 0.088287
0.499695 0.121307 0.084442
0.529663 0.118683 0.081787
0.558502 0.114563 0.079620
0.589111 0.106476 0.079803
0.621002 0.096313 0.082062
0.652344 0.093079 0.084442
0.681854 0.092865 0.087158
0.711914 0.092926 0.090424
0.742859 0.093292 0.094452
0.774292 0.093872 0.098877
0.804932 0.094666 0.102936
0.834961 0.095612 0.107178
0.862061 0.096710 0.111725
0.888184 0.097931 0.115967
0.910522 0.099243 0.119171
0.931213 0.100647 0.120697
0.950653 0.102142 0.121735
0.971313 0.103699 0.122925
0.991547 0.105316 0.124023
0.511810 0.000000 0.368256
0.509644 0.000000 0.364441
0.509644 0.000000 0.361969
0.514252 0.000000 0.361633
0.510803 0.000000 0.353119
0.499756 0.003510 0.334381
0.487640 0.091858 0.310669
0.470642 0.145447 0.289734
0.451965 0.162292 0.265198
0.418335 0.173004 0.203796
0.407562 0.169067 0.147369
0.411438 0.169891 0.117523
0.438019 0.164673 0.109253
0.468048 0.158630 0.102631
0.498352 0.153290 0.096771
0.528564 0.147858 0.091858
0.556610 0.143860 0.087738
0.586426 0.139038 0.084747
0.616119 0.134644 0.082825
0.647369 0.125610 0.082977
0.678986 0.121490 0.085327
0.709869 0.120453 0.087708
0.740875 0.119843 0.090759
0.772461 0.119629 0.093872
0.803833 0.119751 0.098236
0.832825 0.120117 0.103485
0.860809 0.120758 0.108276
0.888397 0.121552 0.112396
0.912964 0.122559 0.115662
0.934692 0.123688 0.117462
0.954742 0.124969 0.119080
0.975220 0.126343 0.120331
0.995972 0.127838 0.121521
0.542023 0.000000 0.395386
0.542236 0.000000 0.393799
0.543365 0.000000 0.392822
0.545044 0.000000 0.390625
0.549347 0.000000 0.388702
0.546722 0.000000 0.379639
0.540100 0.046387 0.358185
0.525635 0.121155 0.337494
0.511932 0.165405 0.319336
0.495636 0.179657 0.294952
0.460114 0.203979 0.241302
0.445923 0.196259 0.169464
0.445160 0.199738 0.126984
0.462830 0.194397 0.116058
0.494110 0.189667 0.110229
0.526764 0.182953 0.103668
0.555511 0.177612 0.097778
0.584595 0.172638 0.093140
0.614807 0.167877 0.089905
0.645569 0.162292 0.087128
0.675323 0.155670 0.084381
0.705627 0.154724 0.084045
0.737488 0.152649 0.086578
0.769562 0.151154 0.089630
0.801117 0.150177 0.092743
0.830719 0.149658 0.097412
0.859497 0.149475 0.102509
0.888000 0.149597 0.107117
0.913635 0.149994 0.110809
0.935913 0.150635 0.112762
0.958069 0.151489 0.114258
0.978882 0.152496 0.116486
1.000000 0.153687 0.117828
0.579132 0.000000 0.426422
0.579803 0.000000 0.425476
0.579651 0.000000 0.424927
0.581940 0.000000 0.422821
0.581299 0.000000 0.419281
0.585571 0.000000 0.416077
0.586334 0.000000 0.402191
0.576874 0.078552 0.383270
0.563049 0.142975 0.364136
0.552612 0.183533 0.347565
0.541901 0.195740 0.325562
0.505554 0.222107 0.273346
0.485413 0.221649 0.190643
0.481171 0.228577 0.138458
0.497131 0.225067 0.123138
0.521667 0.218933 0.113495
0.553680 0.213348 0.107605
0.582977 0.209167 0.102173
0.613281 0.204010 0.097473
0.643494 0.198944 0.093536
0.674408 0.192871 0.090088
0.704742 0.187012 0.087128
0.734528 0.186981 0.084595
0.765015 0.189697 0.083862
0.797119 0.187134 0.086670
0.829498 0.185211 0.090515
0.858307 0.183807 0.094818
0.886719 0.182922 0.099426
0.913971 0.182404 0.103455
0.937805 0.182281 0.106201
0.961121 0.182434 0.108276
0.981720 0.182831 0.110291
1.000000 0.183502 0.112732
0.617065 0.000000 0.458710
0.618286 0.000000 0.458221
0.616516 0.000000 0.456757
0.618408 0.000000 0.455383
0.619873 0.000000 0.454254
0.621338 0.000000 0.451660
0.624786 0.000000 0.443207
0.620239 0.021393 0.427734
0.615784 0.100830 0.410461
0.606628 0.164215 0.395355
0.599884 0.198517 0.379669
0.590302 0.209198 0.355988
0.549286 0.238892 0.300171
0.525177 0.246368 0.211792
0.519836 0.254608 0.153748
0.531006 0.256348 0.127686
0.551178 0.251099 0.116852
0.579895 0.246674 0.110291
0.610291 0.242889 0.105286
0.641144 0.238495 0.100403
0.672211 0.233063 0.096191
0.702423 0.227386 0.091919
0.732727 0.223206 0.088745
0.762970 0.218658 0.085815
0.792694 0.224304 0.082581
0.823883 0.227905 0.081390
0.856995 0.224854 0.085388
0.886292 0.222473 0.090179
0.913910 0.220673 0.093719
0.937988 0.219391 0.096558
0.960266 0.218567 0.099335
0.980164 0.218079 0.102051
1.000000 0.217957 0.104706
0.650391 0.000000 0.488495
0.651703 0.000000 0.488281
0.653137 0.000000 0.487793
0.655945 0.000000 0.488434
0.654358 0.000000 0.486572
0.657837 0.000000 0.486572
0.658234 0.000000 0.480896
0.656250 0.000000 0.469208
0.654297 0.057098 0.450684
0.649536 0.134949 0.434479
0.643372 0.187775 0.422455
0.641846 0.216309 0.407562
0.638947 0.222565 0.386719
0.601562 0.252655 0.329315
0.568878 0.275940 0.240173
0.560516 0.281464 0.170929
0.565247 0.289124 0.130829
0.584808 0.284180 0.120056
0.605591 0.280548 0.110779
0.636780 0.277679 0.106171
0.668274 0.274017 0.101440
0.699066 0.269653 0.096680
0.728668 0.265625 0.092194
0.759827 0.262756 0.088959
0.791107 0.258881 0.085785
0.822388 0.258667 0.082703
0.852905 0.264709 0.079590
0.882751 0.269318 0.077484
0.911407 0.265778 0.081635
0.934265 0.262939 0.085205
0.956543 0.260712 0.088043
0.978394 0.259033 0.090851
1.000000 0.257843 0.093628
0.684570 0.000000 0.519501
0.686066 0.000000 0.519592
0.686707 0.000000 0.518616
0.690460 0.000000 0.519958
0.691467 0.000000 0.519897
0.694885 0.000000 0.520477
0.693939 0.000000 0.516632
0.694336 0.000000 0.511292
0.689484 0.016602 0.491455
0.687592 0.103851 0.472321
0.683105 0.162354 0.459839
0.676910 0.214966 0.448730
0.680450 0.234528 0.434998
0.684052 0.236450 0.415771
0.652771 0.262695 0.356995
0.614288 0.300781 0.271881
0.602203 0.307404 0.187744
0.598572 0.323212 0.132202
0.618927 0.318848 0.121765
0.640381 0.316101 0.113068
0.663483 0.313202 0.104584
0.695801 0.310425 0.100128
0.726318 0.307587 0.095276
0.756195 0.304993 0.090729
0.788391 0.303253 0.087494
0.819977 0.301178 0.084229
0.851074 0.298401 0.080872
0.881165 0.301697 0.077301
0.905182 0.308167 0.073395
0.927551 0.313934 0.069885
0.952332 0.309875 0.073547
0.976410 0.306549 0.076691
1.000000 0.303894 0.079865
0.721954 0.000000 0.553101
0.724915 0.000000 0.554108
0.723053 0.000000 0.551697
0.724030 0.000000 0.550690
0.728577 0.000000 0.552460
0.729065 0.000000 0.551849
0.730042 0.000000 0.551086
0.726379 0.000000 0.545197
0.725647 0.000000 0.532959
0.723511 0.072632 0.512207
0.723083 0.133331 0.498444
0.716461 0.192291 0.484741
0.711334 0.236786 0.475311
0.720093 0.250641 0.462189
0.731995 0.249878 0.446350
0.707092 0.272461 0.387146
0.661774 0.318298 0.296265
0.642303 0.333984 0.204956
0.634308 0.352753 0.138885
0.651337 0.354126 0.120392
0.674469 0.351562 0.111847
0.698669 0.349731 0.104187
0.722717 0.348480 0.096924
0.753632 0.346680 0.092194
0.784943 0.345520 0.087952
0.816864 0.345642 0.084564
0.848419 0.345337 0.081024
0.878845 0.345062 0.077179
0.902588 0.346069 0.073273
0.925476 0.348602 0.068665
0.949341 0.354584 0.063782
0.974152 0.361572 0.058838
1.000000 0.357086 0.062866
0.761108 0.000000 0.586761
0.763214 0.000000 0.587952
0.764252 0.000000 0.587585
0.762512 0.000000 0.584717
0.766571 0.000000 0.586304
0.768036 0.000000 0.585327
0.768188 0.000000 0.584717
0.766449 0.000000 0.581573
0.763947 0.000000 0.572662
0.761871 0.034241 0.556000
0.761322 0.103333 0.538086
0.758942 0.165497 0.523499
0.753784 0.214813 0.512207
0.748322 0.257874 0.502594
0.760925 0.266235 0.489349
0.777557 0.261139 0.474152
0.757965 0.283752 0.416046
0.707916 0.334167 0.320160
0.682953 0.360443 0.222900
0.672577 0.380951 0.149994
0.682953 0.391235 0.117126
0.706299 0.389130 0.108551
0.730743 0.388245 0.101196
0.755585 0.387787 0.094116
0.780853 0.387512 0.087250
0.812622 0.387573 0.083038
0.844818 0.388580 0.079376
0.875610 0.389893 0.075378
0.899872 0.392212 0.071350
0.923523 0.395782 0.066498
0.948059 0.400330 0.061371
0.973541 0.405334 0.056152
1.000000 0.410675 0.050812
0.800385 0.000000 0.619171
0.800690 0.000000 0.619751
0.802734 0.000000 0.620758
0.801483 0.000000 0.619415
0.801758 0.000000 0.618164
0.802917 0.000000 0.616669
0.805267 0.000000 0.616333
0.805939 0.000000 0.615540
0.802521 0.000000 0.610474
0.800171 0.000000 0.598419
0.799530 0.069153 0.580292
0.798065 0.138733 0.561798
0.795471 0.191742 0.549896
0.792633 0.236328 0.540466
0.790771 0.274689 0.531982
0.807587 0.280457 0.520569
0.825531 0.273590 0.503754
0.811218 0.290802 0.447296
0.756653 0.349152 0.344177
0.725098 0.390656 0.245178
0.710999 0.410736 0.162659
0.712708 0.430023 0.111877
0.736633 0.428436 0.103424
0.761230 0.427734 0.095642
0.786438 0.427795 0.088470
0.812347 0.428406 0.081726
0.839905 0.430450 0.076050
0.871155 0.432922 0.072052
0.897034 0.435425 0.067657
0.921448 0.439331 0.062775
0.946716 0.443665 0.057556
0.972900 0.448578 0.052124
1.000000 0.453400 0.046387
0.839142 0.000000 0.651215
0.839264 0.000000 0.651398
0.839447 0.000000 0.651733
0.839722 0.000000 0.651794
0.838684 0.000000 0.650574
0.837616 0.000000 0.647522
0.840942 0.000000 0.647278
0.843414 0.000000 0.647217
0.839478 0.000000 0.643799
0.836456 0.000000 0.637024
0.835815 0.027802 0.621613
0.834839 0.113129 0.599670
0.832123 0.171021 0.583984
0.829041 0.215668 0.573364
0.827393 0.257446 0.564636
0.829681 0.291107 0.557312
0.850311 0.295410 0.546448
0.871918 0.284485 0.532654
0.866364 0.298218 0.480377
0.806732 0.363464 0.367950
0.769653 0.413788 0.271271
0.749573 0.441040 0.176208
0.740387 0.470245 0.104248
0.764679 0.468933 0.095490
0.790100 0.468811 0.087830
0.816040 0.469666 0.080872
0.843140 0.471710 0.074829
0.869751 0.474213 0.068665
0.894135 0.477325 0.062805
0.919312 0.481171 0.057648
0.945343 0.485413 0.052338
0.972229 0.490082 0.046783
1.000000 0.495972 0.040985
0.877136 0.000000 0.683380
0.876709 0.000000 0.683075
0.876129 0.000000 0.682861
0.876373 0.000000 0.682861
0.876495 0.000000 0.682068
0.874054 0.000000 0.678680
0.879181 0.000000 0.680023
0.877380 0.000000 0.676971
0.877869 0.000000 0.676239
0.874023 0.000000 0.671600
0.871765 0.000000 0.659576
0.870392 0.088776 0.637390
0.868286 0.151520 0.619659
0.865387 0.196930 0.606903
0.863037 0.239655 0.596680
0.860626 0.279358 0.588837
0.868134 0.311127 0.582550
0.892975 0.307800 0.573029
0.918304 0.295563 0.561157
0.917358 0.307861 0.511780
0.853851 0.377075 0.390991
0.810944 0.434143 0.289368
0.786255 0.469269 0.187622
0.773590 0.500763 0.107849
0.791199 0.509369 0.084351
0.817108 0.510101 0.076996
0.841370 0.511841 0.070343
0.865875 0.514404 0.064056
0.891113 0.517548 0.057922
0.917114 0.521423 0.052002
0.943909 0.525665 0.046051
0.971527 0.531097 0.040161
1.000000 0.536560 0.033997
0.916443 0.000000 0.716400
0.916321 0.000000 0.716278
0.915527 0.000000 0.715607
0.913452 0.000000 0.713837
0.915863 0.000000 0.713776
0.913971 0.000000 0.712372
0.914520 0.000000 0.711029
0.917877 0.000000 0.710602
0.914490 0.000000 0.706604
0.911407 0.000000 0.703766
0.907471 0.000000 0.694183
0.904388 0.065277 0.674438
0.901886 0.135254 0.655273
0.899506 0.184021 0.640961
0.897583 0.226624 0.628937
0.895081 0.264526 0.619965
0.894745 0.304718 0.612701
0.907379 0.328125 0.608490
0.934692 0.320923 0.600037
0.966492 0.306427 0.591034
0.966400 0.318146 0.542847
0.900452 0.392395 0.415009
0.851776 0.455078 0.306915
0.822083 0.496765 0.198730
0.804260 0.530853 0.113098
0.811798 0.550629 0.070892
0.836517 0.552124 0.063782
0.861908 0.554596 0.057190
0.888031 0.557709 0.050903
0.914856 0.563477 0.044922
0.942444 0.568848 0.038910
0.970795 0.573517 0.032654
1.000000 0.578217 0.026276
0.956299 0.000000 0.750458
0.956268 0.000000 0.750366
0.955872 0.000000 0.749481
0.953278 0.000000 0.746948
0.953735 0.000000 0.746124
0.953705 0.000000 0.745300
0.953430 0.000000 0.744507
0.954529 0.000000 0.742859
0.955811 0.000000 0.741119
0.951172 0.000000 0.737335
0.946594 0.000000 0.730164
0.942627 0.036285 0.714447
0.939453 0.112640 0.695190
0.935394 0.169006 0.677185
0.933136 0.214325 0.663696
0.931122 0.251617 0.653351
0.930115 0.290192 0.644409
0.929810 0.325684 0.638428
0.947174 0.344147 0.635437
0.978516 0.334290 0.628998
1.000000 0.316406 0.620544
0.979584 0.327728 0.574585
0.914764 0.405487 0.440033
0.869965 0.475983 0.324371
0.841949 0.525635 0.212158
0.828156 0.561127 0.119202
0.831573 0.592621 0.055115
0.857880 0.596252 0.048431
0.884857 0.600983 0.042084
0.912537 0.605438 0.035736
0.940918 0.609741 0.029358
0.970062 0.613678 0.022766
1.000000 0.617401 0.016022
0.992188 0.000000 0.781525
0.992157 0.000000 0.781555
0.992340 0.000000 0.781403
0.990387 0.000000 0.779236
0.990204 0.000000 0.778107
0.991211 0.000000 0.776855
0.990845 0.000000 0.776062
0.990387 0.000000 0.775330
0.992432 0.000000 0.773224
0.989960 0.000000 0.770325
0.984955 0.000000 0.764954
0.981384 0.000000 0.754242
0.978973 0.082886 0.737793
0.974579 0.148682 0.718201
0.970886 0.199524 0.700531
0.969177 0.237335 0.689514
0.967987 0.277130 0.679047
0.966980 0.309601 0.671631
0.966339 0.343689 0.665680
0.990784 0.356964 0.664215
1.000000 0.344910 0.659454
1.000000 0.323944 0.650757
0.983856 0.336151 0.607086
0.925018 0.425018 0.465759
0.885376 0.498077 0.344055
0.861969 0.558319 0.231110
0.852386 0.598175 0.126556
0.854706 0.636993 0.040924
0.881653 0.642151 0.030853
0.910156 0.645508 0.024170
0.939362 0.648956 0.017456
0.969299 0.651978 0.010529
1.000000 0.654907 0.003418
1.000000 0.000000 0.810944
1.000000 0.000000 0.810852
1.000000 0.000000 0.810760
1.000000 0.000000 0.810181
1.000000 0.000000 0.809692
1.000000 0.000000 0.808441
1.000000 0.000000 0.806976
1.000000 0.000000 0.805847
1.000000 0.000000 0.803497
1.000000 0.000000 0.801514
1.000000 0.000000 0.797211
1.000000 0.000000 0.790833
1.000000 0.052002 0.777374
1.000000 0.128174 0.755463
1.000000 0.184631 0.736328
1.000000 0.224152 0.724182
1.000000 0.265594 0.712402
1.000000 0.299011 0.703705
1.000000 0.331055 0.696564
1.000000 0.364746 0.690643
1.000000 0.372437 0.690796
1.000000 0.358643 0.685486
1.000000 0.352753 0.673920
0.987671 0.394745 0.638245
0.934937 0.475769 0.489655
0.900635 0.543945 0.362061
0.882019 0.600128 0.244904
0.876862 0.637512 0.134613
0.883301 0.671875 0.041626
0.907745 0.683807 0.010010
0.937805 0.686432 0.003021
0.968750 0.687469 0.000061
1.000000 0.687469 0.000061
1.000000 0.000000 0.842896
1.000000 0.000000 0.844971
1.000000 0.000000 0.844727
1.000000 0.000000 0.844391
1.000000 0.000000 0.843201
1.000000 0.000000 0.839752
1.000000 0.000000 0.840820
1.000000 0.000000 0.839630
1.000000 0.000000 0.836212
1.000000 0.000000 0.831360
1.000000 0.000000 0.829102
1.000000 0.000000 0.823944
1.000000 0.038513 0.811554
1.000000 0.115234 0.791443
1.000000 0.171722 0.773132
1.000000 0.215790 0.759155
1.000000 0.257874 0.746338
1.000000 0.291656 0.737030
1.000000 0.322754 0.728973
1.000000 0.354004 0.721954
1.000000 0.386566 0.716064
1.000000 0.391083 0.717651
1.000000 0.392120 0.708038
1.000000 0.412598 0.696228
0.990997 0.447144 0.667236
0.944489 0.525024 0.514801
0.915710 0.590515 0.381897
0.902069 0.640503 0.259705
0.901489 0.676392 0.143311
0.913116 0.704071 0.048798
0.937500 0.718719 0.000061
0.968750 0.718719 0.000061
1.000000 0.718719 0.000061
1.000000 0.000000 0.874268
1.000000 0.000000 0.874054
1.000000 0.000000 0.873901
1.000000 0.000000 0.873688
1.000000 0.000000 0.874542
1.000000 0.000000 0.873718
1.000000 0.000000 0.868774
1.000000 0.000000 0.867676
1.000000 0.000000 0.866150
1.000000 0.000000 0.862610
1.000000 0.000000 0.861359
1.000000 0.000000 0.857391
1.000000 0.027954 0.846893
1.000000 0.101166 0.829315
1.000000 0.160187 0.811157
1.000000 0.209625 0.795258
1.000000 0.252258 0.781525
1.000000 0.286743 0.771240
1.000000 0.317780 0.762573
1.000000 0.347412 0.755005
1.000000 0.378296 0.748077
1.000000 0.410156 0.742188
1.000000 0.425171 0.741089
1.000000 0.449646 0.730133
1.000000 0.469421 0.721008
0.993866 0.498291 0.697235
0.954041 0.572632 0.540955
0.931702 0.629425 0.405609
0.924042 0.675201 0.284698
0.928772 0.707245 0.170593
0.944000 0.731537 0.072968
0.968750 0.749969 0.000061
1.000000 0.749969 0.000061
1.000000 0.111145 0.883087
1.000000 0.110352 0.882751
1.000000 0.109039 0.882172
1.000000 0.097626 0.882874
1.000000 0.097076 0.882538
1.000000 0.096222 0.882172
1.000000 0.095947 0.881561
1.000000 0.096222 0.881317
1.000000 0.101776 0.875793
1.000000 0.079834 0.878815
1.000000 0.100677 0.874512
1.000000 0.099030 0.873108
1.000000 0.106110 0.869171
1.000000 0.137939 0.858215
1.000000 0.184814 0.842133
1.000000 0.235809 0.824677
1.000000 0.274170 0.810791
1.000000 0.302826 0.801483
1.000000 0.330170 0.792267
1.000000 0.355713 0.785156
1.000000 0.384308 0.777771
1.000000 0.415070 0.770844
1.000000 0.444580 0.765656
1.000000 0.479858 0.760803
1.000000 0.501099 0.753021
1.000000 0.518799 0.744080
0.996338 0.545837 0.726135
0.964081 0.612183 0.571045
0.947906 0.666779 0.436249
0.945312 0.707306 0.313354
0.954224 0.738647 0.198273
0.972900 0.760162 0.098450
1.000000 0.779266 0.009216
1.000000 0.223389 0.891327
1.000000 0.222717 0.890930
1.000000 0.216644 0.892212
1.000000 0.214752 0.890808
1.000000 0.207245 0.891541
1.000000 0.206909 0.891235
1.000000 0.206360 0.890778
1.000000 0.205658 0.889740
1.000000 0.204590 0.888336
1.000000 0.203888 0.887817
1.000000 0.202789 0.886719
1.000000 0.208130 0.883148
1.000000 0.212860 0.879700
1.000000 0.228699 0.872070
1.000000 0.249756 0.862030
1.000000 0.287781 0.845612
1.000000 0.326508 0.831390
1.000000 0.348297 0.823242
1.000000 0.371948 0.813141
1.000000 0.395386 0.805969
1.000000 0.422211 0.799255
1.000000 0.444550 0.794373
1.000000 0.468811 0.789398
