public/LUTs/Fizati.cube
# Copyright: (C) Copyright 2010-2018 by IWLTBAP SAS
# Cannot be resold, shared or otherwise redistributed
# Website: https://luts.iwltbap.com
TITLE "IWLTBAP Fizati (Rec.709, sRGB, DCI-P3)"
LUT_3D_SIZE 9
0.001923 0.001923 0.001923
0.187805 0.000336 0.043274
0.350525 0.000000 0.102173
0.471771 0.000000 0.125336
0.580475 0.000000 0.137207
0.686432 0.000000 0.131683
0.796234 0.000000 0.122253
0.902802 0.000000 0.121429
0.968262 0.000000 0.124359
0.306488 0.000000 0.211487
0.248322 0.087738 0.139526
0.332886 0.066956 0.067291
0.449707 0.060516 0.063446
0.565887 0.051514 0.082092
0.683502 0.051697 0.097229
0.799744 0.042297 0.110107
0.905640 0.047272 0.122009
0.977020 0.052399 0.126129
0.511810 0.000000 0.368256
0.510803 0.000000 0.353119
0.451965 0.162292 0.265198
0.438019 0.164673 0.109253
0.556610 0.143860 0.087738
0.678986 0.121490 0.085327
0.803833 0.119751 0.098236
0.912964 0.122559 0.115662
0.995972 0.127838 0.121521
0.650391 0.000000 0.488495
0.654358 0.000000 0.486572
0.654297 0.057098 0.450684
0.638947 0.222565 0.386719
0.565247 0.289124 0.130829
0.668274 0.274017 0.101440
0.791107 0.258881 0.085785
0.911407 0.265778 0.081635
1.000000 0.257843 0.093628
0.800385 0.000000 0.619171
0.801758 0.000000 0.618164
0.802521 0.000000 0.610474
0.795471 0.191742 0.549896
0.825531 0.273590 0.503754
0.710999 0.410736 0.162659
0.786438 0.427795 0.088470
0.897034 0.435425 0.067657
1.000000 0.453400 0.046387
0.956299 0.000000 0.750458
0.953735 0.000000 0.746124
0.955811 0.000000 0.741119
0.939453 0.112640 0.695190
0.930115 0.290192 0.644409
1.000000 0.316406 0.620544
0.841949 0.525635 0.212158
0.884857 0.600983 0.042084
1.000000 0.617401 0.016022
1.000000 0.000000 0.874268
1.000000 0.000000 0.874542
1.000000 0.000000 0.866150
1.000000 0.027954 0.846893
1.000000 0.252258 0.781525
1.000000 0.378296 0.748077
1.000000 0.469421 0.721008
0.924042 0.675201 0.284698
1.000000 0.749969 0.000061
1.000000 0.368835 0.910278
1.000000 0.368286 0.910156
1.000000 0.367950 0.908783
1.000000 0.361877 0.906769
1.000000 0.423767 0.873749
1.000000 0.507843 0.844604
1.000000 0.582611 0.831787
1.000000 0.670227 0.821320
1.000000 0.806763 0.402679
1.000000 0.597046 0.956116
1.000000 0.597656 0.956635
1.000000 0.601868 0.956635
1.000000 0.604858 0.952911
1.000000 0.623627 0.946106
1.000000 0.684052 0.926331
1.000000 0.731659 0.919739
1.000000 0.791046 0.921936
1.000000 0.844177 0.923431
0.000000 0.090820 0.188782
0.167419 0.013794 0.200012
0.344025 0.000000 0.204956
0.459412 0.000977 0.215027
0.565704 0.000916 0.228546
0.674683 0.000000 0.233215
0.790131 0.000000 0.227753
0.892853 0.000000 0.210388
0.963440 0.000000 0.195099
0.132629 0.159058 0.259125
0.107239 0.155426 0.183838
0.305176 0.120361 0.181152
0.437317 0.092255 0.187592
0.554504 0.071899 0.199707
0.673309 0.060120 0.208221
0.786194 0.061768 0.206238
0.892120 0.075623 0.200500
0.964355 0.086487 0.182281
0.392700 0.135345 0.368378
0.382690 0.137451 0.347229
0.341461 0.235870 0.268280
0.409821 0.221008 0.179626
0.532440 0.211914 0.164032
0.656891 0.195801 0.163910
0.779144 0.180695 0.171387
0.897064 0.160980 0.182281
0.984924 0.150665 0.187744
0.544586 0.110199 0.477203
0.541840 0.109955 0.468384
0.549316 0.168091 0.436737
0.547974 0.290497 0.381836
0.532959 0.318726 0.203186
0.655060 0.310516 0.185394
0.777252 0.305573 0.174774
0.902527 0.288239 0.177643
1.000000 0.276550 0.184326
0.718048 0.053986 0.603027
0.723511 0.052917 0.600891
0.722321 0.076416 0.588837
0.735046 0.242462 0.539368
0.748901 0.337524 0.498016
0.682190 0.435272 0.228546
0.772949 0.442719 0.184052
0.895691 0.447754 0.170685
1.000000 0.462708 0.156799
0.910522 0.000000 0.744873
0.910278 0.000000 0.742096
0.904053 0.027405 0.728577
0.893433 0.161774 0.686676
0.890472 0.320526 0.637634
0.942291 0.382141 0.611237
0.835938 0.541718 0.279266
0.884735 0.600769 0.156372
1.000000 0.617310 0.136719
1.000000 0.000000 0.877869
1.000000 0.000000 0.873230
1.000000 0.013947 0.860260
1.000000 0.092560 0.840576
1.000000 0.283234 0.772919
1.000000 0.399231 0.739349
1.000000 0.467499 0.724609
0.921997 0.676697 0.349487
1.000000 0.749969 0.125031
1.000000 0.358093 0.918396
1.000000 0.352905 0.918793
1.000000 0.350616 0.915619
1.000000 0.355957 0.909058
1.000000 0.414978 0.876678
1.000000 0.500061 0.844604
1.000000 0.577759 0.830200
1.000000 0.670410 0.822632
1.000000 0.808258 0.459900
1.000000 0.594940 0.958740
1.000000 0.594055 0.957611
1.000000 0.594269 0.957275
1.000000 0.594208 0.956024
1.000000 0.615723 0.945709
1.000000 0.679443 0.924408
1.000000 0.731842 0.917572
1.000000 0.788513 0.921051
1.000000 0.844421 0.925079
0.000000 0.200836 0.371094
0.083221 0.068054 0.368439
0.329437 0.009216 0.346802
0.482605 0.007355 0.314606
0.577209 0.013428 0.306702
0.679596 0.013702 0.319519
0.785461 0.010986 0.325134
0.891266 0.006470 0.320831
0.957275 0.003235 0.307190
0.000000 0.232483 0.303802
0.002808 0.195648 0.321106
0.273102 0.144745 0.328278
0.445862 0.115356 0.307037
0.559540 0.110321 0.303223
0.669067 0.100647 0.311279
0.780487 0.093842 0.316376
0.890717 0.091797 0.312286
0.958771 0.092224 0.299744
0.171448 0.264954 0.394409
0.154968 0.249298 0.360962
0.207916 0.270874 0.304108
0.404663 0.250092 0.295654
0.536896 0.232330 0.291565
0.655792 0.217316 0.293457
0.774231 0.206299 0.294312
0.887970 0.203888 0.291656
0.964661 0.205109 0.284698
0.348236 0.297791 0.489380
0.438202 0.281342 0.500336
0.475464 0.265442 0.457306
0.444794 0.351379 0.383148
0.515839 0.346497 0.290771
0.639587 0.346649 0.276581
0.765472 0.340546 0.274475
0.890320 0.327698 0.278595
0.984406 0.320923 0.280273
0.639496 0.247253 0.606567
0.643768 0.231781 0.599457
0.645569 0.221069 0.586487
0.635681 0.311066 0.526154
0.654633 0.403046 0.491241
0.645996 0.462036 0.302460
0.763062 0.463135 0.284668
0.886902 0.467224 0.276550
1.000000 0.476074 0.268341
0.802368 0.205048 0.717163
0.804932 0.189911 0.712494
0.801575 0.183807 0.701019
0.793884 0.236816 0.665314
0.814819 0.373291 0.624634
0.856354 0.446045 0.603973
0.798218 0.574951 0.336456
0.884064 0.607391 0.270264
1.000000 0.618408 0.256958
0.970551 0.182312 0.843689
0.973633 0.172485 0.842529
0.969513 0.176056 0.833771
0.966064 0.198639 0.819733
0.965637 0.339355 0.754852
0.975983 0.446625 0.728638
1.000000 0.494843 0.721008
0.916412 0.687073 0.404022
1.000000 0.749969 0.250031
1.000000 0.313782 0.943451
1.000000 0.319794 0.941925
1.000000 0.316650 0.937408
1.000000 0.323608 0.930084
1.000000 0.391815 0.891571
1.000000 0.492126 0.850006
1.000000 0.572083 0.833069
1.000000 0.669281 0.825470
1.000000 0.812561 0.509125
1.000000 0.576233 0.970459
1.000000 0.583344 0.965759
1.000000 0.583893 0.965454
1.000000 0.582794 0.963135
1.000000 0.603790 0.950806
1.000000 0.673157 0.926758
1.000000 0.727295 0.918854
1.000000 0.786713 0.919922
1.000000 0.844330 0.925751
0.000000 0.297485 0.515594
0.003723 0.182709 0.517761
0.224030 0.050354 0.501678
0.491089 0.012054 0.468201
0.625519 0.020966 0.432495
0.704803 0.029816 0.410767
0.795410 0.027771 0.408112
0.891663 0.024628 0.417297
0.948212 0.017731 0.415588
0.000000 0.305145 0.416565
0.000000 0.269287 0.458466
0.143829 0.181915 0.468597
0.442902 0.116638 0.451935
0.596436 0.115143 0.424591
0.686066 0.124420 0.407196
0.786346 0.124695 0.411316
0.889893 0.123657 0.417999
0.950653 0.117981 0.415527
0.179718 0.329651 0.472992
0.048096 0.309265 0.413330
0.000000 0.281342 0.408081
0.378845 0.267456 0.439667
0.553162 0.242249 0.419159
0.663544 0.238037 0.405151
0.774658 0.235748 0.406586
0.886658 0.231934 0.411804
0.955078 0.231262 0.405975
0.233459 0.355316 0.517395
0.227295 0.351562 0.508179
0.210724 0.337189 0.473083
0.310577 0.378510 0.418549
0.515198 0.367950 0.408264
0.640839 0.357056 0.399475
0.760834 0.352905 0.398895
0.882050 0.350128 0.397125
0.965820 0.351746 0.394318
0.303131 0.391632 0.575684
0.348419 0.394592 0.589966
0.406403 0.392456 0.595245
0.559753 0.395020 0.548767
0.541229 0.464752 0.488190
0.628815 0.470947 0.405304
0.755768 0.476562 0.393982
0.880920 0.479767 0.389435
0.990631 0.475433 0.391235
0.619995 0.422241 0.724670
0.718018 0.378937 0.728790
0.726807 0.351135 0.712738
0.711609 0.361786 0.662384
0.707153 0.435547 0.609161
0.738556 0.514740 0.590698
0.764008 0.595612 0.414246
0.880096 0.607666 0.391693
1.000000 0.621246 0.378479
0.880676 0.351837 0.832092
0.886017 0.335205 0.827972
0.888458 0.319427 0.819061
0.885498 0.313293 0.802826
0.868317 0.408478 0.740845
0.889343 0.501953 0.715210
0.952454 0.563751 0.710968
0.908783 0.703064 0.459137
1.000000 0.749969 0.375000
1.000000 0.333740 0.973480
1.000000 0.320282 0.973114
1.000000 0.311218 0.969574
1.000000 0.312744 0.960968
1.000000 0.381317 0.906982
1.000000 0.488007 0.860840
1.000000 0.572296 0.841003
1.000000 0.669769 0.829254
1.000000 0.822235 0.552948
1.000000 0.567444 0.988708
1.000000 0.568085 0.988190
1.000000 0.569000 0.980804
1.000000 0.565002 0.979584
1.000000 0.576599 0.971710
1.000000 0.659149 0.936615
1.000000 0.722321 0.922943
1.000000 0.784302 0.923218
1.000000 0.846283 0.928925
0.000000 0.368500 0.609650
0.000000 0.303772 0.635529
0.027954 0.166382 0.618561
0.372589 0.051117 0.603699
0.636871 0.015289 0.574677
0.749634 0.028625 0.534424
0.810699 0.054718 0.504395
0.894318 0.048676 0.503235
0.938110 0.029053 0.508240
0.000000 0.368225 0.527802
0.000000 0.341858 0.564026
0.011963 0.257446 0.589813
0.319550 0.144531 0.582001
0.601105 0.097534 0.558990
0.726227 0.110779 0.528290
0.797516 0.137787 0.505890
0.891937 0.141693 0.506744
0.938538 0.131622 0.511078
0.115112 0.394958 0.532532
0.000000 0.371796 0.475525
0.000000 0.337372 0.521942
0.238037 0.285828 0.562500
0.551422 0.231598 0.549072
0.695648 0.233093 0.525146
0.783691 0.242798 0.505859
0.889648 0.242645 0.508270
0.944305 0.244934 0.513611
0.288788 0.430817 0.624268
0.259979 0.418335 0.600616
0.145081 0.390442 0.529816
0.023895 0.363525 0.485321
0.483337 0.375153 0.541077
0.651764 0.355957 0.520905
0.763458 0.358337 0.508179
0.880737 0.361511 0.508575
0.950439 0.361542 0.511902
0.277161 0.433533 0.618378
0.280884 0.434662 0.620087
0.287903 0.434479 0.616669
0.282043 0.424011 0.576355
0.419434 0.483368 0.519989
0.615753 0.480804 0.517975
0.744415 0.480530 0.511078
0.872803 0.480499 0.510193
0.964417 0.482330 0.508148
0.301636 0.462982 0.650909
0.311401 0.466309 0.656281
0.338257 0.472504 0.665955
0.455597 0.490692 0.668274
0.636536 0.514008 0.635315
0.631897 0.570648 0.589386
0.743408 0.594482 0.522217
0.875000 0.605072 0.513123
0.995361 0.614319 0.506897
0.506836 0.539032 0.797333
0.539703 0.534912 0.802856
0.633942 0.520966 0.818207
0.806244 0.470703 0.808472
0.788391 0.494141 0.740112
0.790649 0.549683 0.701355
0.844452 0.621002 0.699188
0.888153 0.719116 0.540680
0.999481 0.734314 0.516144
0.976990 0.489410 0.965820
0.983917 0.471649 0.960846
0.992371 0.453247 0.955322
1.000000 0.429138 0.952057
0.992676 0.449829 0.903534
0.991089 0.530273 0.851288
1.000000 0.613708 0.829132
1.000000 0.681793 0.825653
1.000000 0.827026 0.618774
1.000000 0.572632 1.000000
1.000000 0.572235 1.000000
1.000000 0.569489 1.000000
1.000000 0.571991 1.000000
1.000000 0.568848 0.996460
1.000000 0.628601 0.959106
1.000000 0.709106 0.933594
1.000000 0.782837 0.927368
1.000000 0.845795 0.930084
0.000000 0.422028 0.672546
0.000000 0.403839 0.711029
0.000000 0.289062 0.712921
0.152252 0.158722 0.698059
0.535797 0.058167 0.685791
0.758453 0.017090 0.664062
0.850067 0.039734 0.627411
0.898132 0.082581 0.598694
0.935577 0.075531 0.597473
0.000000 0.420410 0.614502
0.000000 0.401978 0.649109
0.000000 0.340698 0.685211
0.077332 0.224792 0.678223
0.489563 0.132111 0.672729
0.732117 0.084625 0.650848
0.836548 0.110016 0.618896
0.895172 0.154999 0.596008
0.935516 0.159058 0.599609
0.000000 0.438721 0.548889
0.000000 0.423828 0.569489
0.000000 0.392944 0.617462
0.031860 0.333130 0.662842
0.427124 0.248444 0.657043
0.693939 0.212921 0.641083
0.810333 0.224457 0.614532
0.888977 0.248383 0.598694
0.935547 0.256409 0.604919
0.308472 0.491180 0.697296
0.255280 0.473022 0.659119
0.000000 0.442810 0.570526
0.000000 0.402863 0.582428
0.354553 0.386322 0.644470
0.643158 0.341156 0.635406
0.778748 0.343994 0.615173
0.881104 0.360382 0.606506
0.936249 0.364594 0.609375
0.389587 0.516876 0.751740
0.369324 0.513428 0.742493
0.327728 0.501282 0.714355
0.224274 0.464630 0.629700
0.241730 0.469391 0.579529
0.578430 0.477661 0.631531
0.739746 0.468201 0.619110
0.866547 0.477814 0.615204
0.942535 0.482574 0.618164
0.330688 0.509064 0.717407
0.332611 0.509857 0.718689
0.336243 0.511505 0.718201
0.351532 0.514740 0.717651
0.412781 0.528259 0.651276
0.533875 0.587524 0.620911
0.715820 0.593842 0.623260
0.854095 0.600952 0.622314
0.961090 0.603912 0.623688
0.348267 0.536224 0.740448
0.355469 0.538239 0.744598
0.374420 0.547974 0.759094
0.414825 0.559723 0.757996
0.559143 0.595276 0.747772
0.728363 0.609833 0.722809
0.729248 0.669830 0.688507
0.861664 0.714874 0.641998
0.989258 0.727386 0.636597
0.492889 0.632507 0.892242
0.526306 0.631104 0.901062
0.583984 0.627899 0.913910
0.692657 0.617615 0.933167
0.922607 0.571442 0.918457
0.909515 0.592377 0.852966
0.921600 0.652283 0.818573
0.968750 0.733032 0.815430
1.000000 0.834625 0.681885
1.000000 0.658569 1.000000
1.000000 0.620941 1.000000
1.000000 0.604858 1.000000
1.000000 0.594971 1.000000
1.000000 0.586426 1.000000
1.000000 0.605103 1.000000
1.000000 0.687988 0.957550
1.000000 0.780579 0.937592
1.000000 0.848450 0.933472
0.000000 0.478333 0.734100
0.000000 0.464874 0.765442
0.000000 0.398926 0.786224
0.002716 0.275848 0.783813
0.321381 0.165649 0.770477
0.671692 0.068207 0.762970
0.860504 0.018005 0.745941
0.913300 0.050507 0.713043
0.932983 0.113434 0.691437
0.000000 0.473816 0.691833
0.000000 0.460602 0.721313
0.000000 0.428894 0.766693
0.000000 0.314148 0.768799
0.274780 0.215424 0.758759
0.644470 0.131439 0.752350
0.846405 0.078918 0.736969
0.910187 0.114960 0.708405
0.932800 0.175659 0.687958
0.000000 0.489929 0.642029
0.000000 0.476440 0.658081
0.000000 0.451263 0.701691
0.000000 0.396271 0.748169
0.198181 0.300812 0.749817
0.599823 0.236603 0.743774
0.821533 0.201477 0.730743
0.904205 0.220795 0.704865
0.931671 0.261475 0.691681
0.234314 0.534454 0.720581
0.114594 0.519867 0.678894
0.000000 0.489990 0.617767
0.000000 0.453064 0.665161
0.075806 0.421570 0.736389
0.540588 0.353577 0.737122
0.781921 0.325439 0.725464
0.896515 0.334625 0.703644
0.930939 0.361633 0.700531
0.446381 0.593567 0.854034
0.406982 0.585266 0.832367
0.355377 0.560364 0.786285
0.170197 0.518860 0.687073
0.000000 0.477539 0.646545
0.480591 0.489136 0.725800
0.732849 0.450012 0.721863
0.873138 0.454712 0.709808
0.931702 0.475128 0.709290
0.489929 0.599579 0.872833
0.479126 0.598114 0.868530
0.451599 0.594543 0.855377
0.409607 0.584290 0.826080
0.341125 0.549072 0.748535
0.391022 0.575592 0.671143
0.675934 0.581238 0.718719
0.841309 0.580139 0.715515
0.935059 0.594482 0.720856
0.391205 0.590363 0.821350
0.393555 0.592010 0.824371
0.398163 0.593445 0.825714
0.408386 0.595856 0.826233
0.431671 0.602112 0.813507
0.531219 0.633179 0.743286
0.627777 0.683258 0.708435
0.826691 0.705536 0.727722
0.952942 0.715637 0.733490
0.391510 0.629059 0.849518
0.404724 0.631531 0.856995
0.422363 0.636078 0.866150
0.445862 0.644928 0.879974
0.525482 0.667603 0.877716
0.702637 0.700775 0.874298
0.852722 0.704407 0.834106
0.864288 0.778809 0.806580
0.974365 0.832672 0.767426
0.518524 0.750824 1.000000
0.538513 0.753204 1.000000
0.577850 0.754791 1.000000
0.655579 0.752136 1.000000
0.785034 0.735657 1.000000
1.000000 0.678650 1.000000
1.000000 0.709686 0.992218
1.000000 0.782288 0.959808
1.000000 0.860474 0.942688
0.000000 0.540253 0.805725
0.000000 0.525574 0.823212
0.000000 0.502686 0.869476
0.000000 0.386414 0.865479
0.034943 0.275146 0.861603
0.490173 0.181854 0.854675
0.808136 0.075867 0.850281
0.923035 0.018463 0.840546
0.940399 0.037476 0.816437
0.000000 0.538544 0.783325
0.000000 0.524963 0.801849
0.000000 0.503784 0.839325
0.000000 0.410706 0.854645
0.027130 0.303528 0.855591
0.465576 0.220581 0.850403
0.791870 0.128632 0.845764
0.920227 0.069855 0.835388
0.940002 0.098175 0.813873
0.000000 0.558075 0.751648
0.000000 0.544281 0.764160
0.000000 0.517517 0.792694
0.000000 0.475891 0.846802
0.017151 0.372620 0.851288
0.419434 0.293732 0.844910
0.768066 0.233765 0.842651
0.916565 0.190308 0.832855
0.938599 0.208099 0.813446
0.000000 0.598175 0.750092
0.000000 0.582275 0.719757
0.000000 0.562164 0.736450
0.000000 0.520935 0.773926
0.010559 0.478943 0.840546
0.342896 0.395844 0.842590
0.724854 0.342957 0.840057
0.910614 0.318176 0.830658
0.936493 0.324615 0.811523
0.435089 0.662262 0.918884
0.407135 0.647949 0.892670
0.311707 0.625214 0.838135
0.000000 0.588501 0.726685
0.000000 0.539734 0.753937
0.250336 0.523865 0.834656
0.668152 0.461395 0.835358
0.893158 0.440979 0.826752
0.933960 0.445648 0.808075
0.611542 0.699829 1.000000
0.582214 0.697388 1.000000
0.529175 0.691406 0.983765
0.447571 0.671356 0.934326
0.286285 0.622894 0.821960
0.024231 0.576080 0.741180
0.605804 0.595978 0.829651
0.854614 0.560089 0.826447
0.932892 0.562408 0.817627
0.575012 0.702454 1.000000
0.569702 0.701630 1.000000
0.564911 0.701111 1.000000
0.552551 0.698486 0.994904
0.500641 0.689911 0.960571
0.431122 0.655487 0.876221
0.519440 0.690948 0.786957
0.803131 0.687958 0.826996
0.934418 0.691376 0.827240
0.472992 0.700348 0.960327
0.472260 0.699829 0.960327
0.476929 0.702942 0.964539
0.487885 0.706818 0.969055
0.496552 0.711243 0.969086
0.554382 0.724274 0.939880
0.666565 0.762817 0.871490
0.774231 0.817169 0.832581
0.937775 0.830048 0.845886
0.422424 0.736725 0.964142
0.425140 0.736694 0.965759
0.445770 0.740509 0.974426
0.486206 0.748138 0.990051
0.551422 0.762238 0.986969
0.660339 0.804779 0.985168
0.861359 0.837372 0.994293
0.980255 0.847778 0.954620
0.997528 0.910919 0.939636
0.000000 0.607452 0.884552
0.000000 0.594421 0.894867
0.000000 0.567535 0.920349
0.000000 0.498505 0.947388
0.000000 0.379486 0.949432
0.225342 0.298370 0.947327
0.697205 0.201843 0.944031
0.917847 0.054108 0.944183
0.943604 0.000000 0.947815
0.000000 0.609222 0.881134
0.000000 0.595581 0.889862
0.000000 0.569946 0.911774
0.000000 0.513611 0.942963
0.000000 0.395782 0.945618
0.204315 0.316071 0.945953
0.689667 0.234436 0.945068
0.916779 0.102875 0.946045
0.943634 0.012177 0.943390
0.000000 0.631195 0.867615
0.000000 0.615875 0.871674
0.000000 0.590637 0.889832
0.000000 0.559174 0.935577
0.000000 0.450256 0.943542
0.135864 0.366791 0.944855
0.664734 0.299225 0.945190
0.914551 0.209320 0.943390
0.943604 0.138794 0.944458
0.000000 0.677612 0.842377
0.000000 0.661438 0.844421
0.000000 0.636444 0.856750
0.000000 0.597198 0.886230
0.000000 0.552826 0.940125
0.059875 0.455292 0.944397
0.614838 0.391724 0.944244
0.909515 0.330811 0.944244
0.945953 0.291443 0.943024
0.385162 0.735596 0.974060
0.327728 0.726135 0.948456
0.167023 0.710175 0.898102
0.000000 0.673096 0.841583
0.000000 0.614960 0.874634
0.031799 0.567322 0.930573
0.554138 0.500885 0.941315
0.890198 0.446747 0.941162
0.945709 0.419647 0.940613
0.639252 0.803345 1.000000
0.601898 0.800385 1.000000
0.543488 0.789215 1.000000
0.470825 0.755859 1.000000
0.180908 0.713928 0.904480
0.000000 0.646271 0.868896
0.491302 0.628510 0.939941
0.847137 0.565704 0.942047
0.943237 0.542999 0.942139
0.705200 0.810852 1.000000
0.698975 0.812103 1.000000
0.696777 0.812683 1.000000
0.692749 0.813477 1.000000
0.569763 0.799500 1.000000
0.428986 0.748871 0.986572
0.367706 0.715698 0.878540
0.800385 0.703064 0.942383
0.943268 0.673279 0.942566
0.661530 0.819427 1.000000
0.666290 0.818451 1.000000
0.666504 0.818451 1.000000
0.662048 0.816620 1.000000
0.672852 0.818909 1.000000
0.621979 0.814728 1.000000
0.632111 0.810181 0.985779
0.783813 0.859009 0.941559
0.937378 0.825958 0.946381
0.562958 0.811035 1.000000
0.559723 0.807739 1.000000
0.563873 0.809753 1.000000
0.570526 0.813721 1.000000
0.593201 0.816956 1.000000
0.690887 0.844330 1.000000
0.791595 0.887360 0.994568
0.885010 0.928406 0.960144
0.927582 0.946198 0.937958
