public/LUTs/Fizati.cube
# Copyright: (C) Copyright 2010-2018 by IWLTBAP SAS
# Cannot be resold, shared or otherwise redistributed
# Website: https://luts.iwltbap.com
TITLE "IWLTBAP Fizati (Rec.709, sRGB, DCI-P3)"
LUT_3D_SIZE 5
0.001923 0.001923 0.001923
0.350525 0.000000 0.102173
0.580475 0.000000 0.137207
0.796234 0.000000 0.122253
0.968262 0.000000 0.124359
0.511810 0.000000 0.368256
0.451965 0.162292 0.265198
0.556610 0.143860 0.087738
0.803833 0.119751 0.098236
0.995972 0.127838 0.121521
0.800385 0.000000 0.619171
0.802521 0.000000 0.610474
0.825531 0.273590 0.503754
0.786438 0.427795 0.088470
1.000000 0.453400 0.046387
1.000000 0.000000 0.874268
1.000000 0.000000 0.866150
1.000000 0.252258 0.781525
1.000000 0.469421 0.721008
1.000000 0.749969 0.000061
1.000000 0.597046 0.956116
1.000000 0.601868 0.956635
1.000000 0.623627 0.946106
1.000000 0.731659 0.919739
1.000000 0.844177 0.923431
0.000000 0.200836 0.371094
0.329437 0.009216 0.346802
0.577209 0.013428 0.306702
0.785461 0.010986 0.325134
0.957275 0.003235 0.307190
0.171448 0.264954 0.394409
0.207916 0.270874 0.304108
0.536896 0.232330 0.291565
0.774231 0.206299 0.294312
0.964661 0.205109 0.284698
0.639496 0.247253 0.606567
0.645569 0.221069 0.586487
0.654633 0.403046 0.491241
0.763062 0.463135 0.284668
1.000000 0.476074 0.268341
0.970551 0.182312 0.843689
0.969513 0.176056 0.833771
0.965637 0.339355 0.754852
1.000000 0.494843 0.721008
1.000000 0.749969 0.250031
1.000000 0.576233 0.970459
1.000000 0.583893 0.965454
1.000000 0.603790 0.950806
1.000000 0.727295 0.918854
1.000000 0.844330 0.925751
0.000000 0.368500 0.609650
0.027954 0.166382 0.618561
0.636871 0.015289 0.574677
0.810699 0.054718 0.504395
0.938110 0.029053 0.508240
0.115112 0.394958 0.532532
0.000000 0.337372 0.521942
0.551422 0.231598 0.549072
0.783691 0.242798 0.505859
0.944305 0.244934 0.513611
0.277161 0.433533 0.618378
0.287903 0.434479 0.616669
0.419434 0.483368 0.519989
0.744415 0.480530 0.511078
0.964417 0.482330 0.508148
0.506836 0.539032 0.797333
0.633942 0.520966 0.818207
0.788391 0.494141 0.740112
0.844452 0.621002 0.699188
0.999481 0.734314 0.516144
1.000000 0.572632 1.000000
1.000000 0.569489 1.000000
1.000000 0.568848 0.996460
1.000000 0.709106 0.933594
1.000000 0.845795 0.930084
0.000000 0.478333 0.734100
0.000000 0.398926 0.786224
0.321381 0.165649 0.770477
0.860504 0.018005 0.745941
0.932983 0.113434 0.691437
0.000000 0.489929 0.642029
0.000000 0.451263 0.701691
0.198181 0.300812 0.749817
0.821533 0.201477 0.730743
0.931671 0.261475 0.691681
0.446381 0.593567 0.854034
0.355377 0.560364 0.786285
0.000000 0.477539 0.646545
0.732849 0.450012 0.721863
0.931702 0.475128 0.709290
0.391205 0.590363 0.821350
0.398163 0.593445 0.825714
0.431671 0.602112 0.813507
0.627777 0.683258 0.708435
0.952942 0.715637 0.733490
0.518524 0.750824 1.000000
0.577850 0.754791 1.000000
0.785034 0.735657 1.000000
1.000000 0.709686 0.992218
1.000000 0.860474 0.942688
0.000000 0.607452 0.884552
0.000000 0.567535 0.920349
0.000000 0.379486 0.949432
0.697205 0.201843 0.944031
0.943604 0.000000 0.947815
0.000000 0.631195 0.867615
0.000000 0.590637 0.889832
0.000000 0.450256 0.943542
0.664734 0.299225 0.945190
0.943604 0.138794 0.944458
0.385162 0.735596 0.974060
0.167023 0.710175 0.898102
0.000000 0.614960 0.874634
0.554138 0.500885 0.941315
0.945709 0.419647 0.940613
0.705200 0.810852 1.000000
0.696777 0.812683 1.000000
0.569763 0.799500 1.000000
0.367706 0.715698 0.878540
0.943268 0.673279 0.942566
0.562958 0.811035 1.000000
0.563873 0.809753 1.000000
0.593201 0.816956 1.000000
0.791595 0.887360 0.994568
0.927582 0.946198 0.937958
