public/LUTs/H-9890-STD.cube
# Copyright: (C) Copyright 2010-2021 by IWLTBAP SAS
# Cannot be resold, shared or otherwise redistributed
# Website: https://luts.iwltbap.com
TITLE "IWLTBAP 9890 (Rec.709, sRGB, DCI-P3)"
LUT_3D_SIZE 5
0.044373 0.053253 0.061859
0.276855 0.056274 0.043976
0.516144 0.066956 0.040100
0.752533 0.073090 0.043762
0.946533 0.070801 0.046112
0.000000 0.243195 0.186157
0.305603 0.246429 0.064545
0.544586 0.267120 0.047363
0.769928 0.277710 0.046539
0.950409 0.283325 0.047150
0.000000 0.454346 0.365540
0.239349 0.470428 0.275787
0.580841 0.486053 0.084900
0.778168 0.503906 0.050537
0.952484 0.508392 0.049561
0.000000 0.677612 0.555145
0.000000 0.704773 0.512756
0.606598 0.707611 0.296448
0.808289 0.729584 0.099640
0.951324 0.740326 0.049377
0.000000 0.895935 0.723602
0.000000 0.921783 0.682983
0.546906 0.936188 0.569794
0.864899 0.940125 0.347046
0.957611 0.951813 0.115509
0.033264 0.063751 0.202454
0.235596 0.069275 0.182922
0.511536 0.073090 0.196014
0.754486 0.074249 0.225250
0.947021 0.071198 0.244446
0.036163 0.243866 0.270233
0.248596 0.247528 0.240417
0.532898 0.270508 0.232025
0.767426 0.281952 0.240906
0.949951 0.285858 0.250793
0.012939 0.463623 0.400696
0.134308 0.479034 0.411438
0.557892 0.490662 0.291687
0.779877 0.504974 0.266266
0.952606 0.509247 0.266876
0.000000 0.684174 0.590576
0.000000 0.702820 0.596802
0.511444 0.716125 0.495392
0.807556 0.730347 0.319458
0.952026 0.740448 0.275909
0.000000 0.897552 0.771851
0.000000 0.915100 0.769928
0.445435 0.934143 0.697479
0.834290 0.939667 0.538849
0.957977 0.951477 0.346222
0.031006 0.080475 0.338745
0.179718 0.092560 0.350403
0.453949 0.110199 0.345428
0.744385 0.103790 0.382385
0.947021 0.077545 0.452515
0.033264 0.258087 0.402374
0.189331 0.267395 0.407349
0.470795 0.287781 0.397491
0.760712 0.293915 0.429840
0.949982 0.288177 0.470306
0.036438 0.470795 0.521606
0.198578 0.480347 0.515869
0.459076 0.503143 0.485626
0.772644 0.511353 0.477844
0.952484 0.513123 0.487427
0.157318 0.683258 0.662933
0.212402 0.696259 0.633209
0.326691 0.723267 0.639893
0.779816 0.728516 0.528259
0.952850 0.741302 0.513092
0.000000 0.903931 0.796356
0.000000 0.913696 0.800476
0.242340 0.923462 0.796600
0.745331 0.931274 0.709808
0.956421 0.949463 0.574829
0.034058 0.106567 0.485809
0.157288 0.122589 0.508881
0.362122 0.150970 0.536896
0.679626 0.170837 0.534546
0.936890 0.149017 0.564606
0.036438 0.280273 0.550323
0.165802 0.292419 0.561768
0.365967 0.317627 0.571991
0.689301 0.337158 0.566620
0.943481 0.324677 0.604767
0.036163 0.485443 0.645294
0.165802 0.496307 0.637207
0.353333 0.515350 0.611572
0.684052 0.529449 0.611877
0.948212 0.525726 0.674500
0.035919 0.694763 0.775635
0.177887 0.702576 0.760620
0.368988 0.706421 0.715179
0.632629 0.715393 0.689240
0.946228 0.739532 0.721069
0.190247 0.898407 0.910858
0.327515 0.898041 0.887482
0.404602 0.894806 0.819397
0.589233 0.906464 0.826263
0.946198 0.943390 0.774353
0.038177 0.140869 0.645386
0.159576 0.156403 0.665833
0.306061 0.186188 0.702393
0.559052 0.221741 0.730713
0.899231 0.234741 0.729309
0.039642 0.307983 0.702942
0.160828 0.320374 0.710480
0.297272 0.345184 0.723022
0.545563 0.374664 0.739960
0.910736 0.386108 0.755920
0.039398 0.503296 0.789551
0.153961 0.513306 0.778076
0.280396 0.530548 0.758728
0.518433 0.543335 0.759918
0.907379 0.555450 0.798920
0.037689 0.706390 0.895782
0.158813 0.714233 0.882385
0.290558 0.720276 0.850128
0.497833 0.705170 0.808716
0.881195 0.728210 0.841858
0.093964 0.908752 0.967194
0.243408 0.910248 0.962677
0.397125 0.897552 0.944824
0.595856 0.879639 0.906281
0.914185 0.935608 0.930359
