public/LUTs/H-9890-STD.cube
# Copyright: (C) Copyright 2010-2021 by IWLTBAP SAS
# Cannot be resold, shared or otherwise redistributed
# Website: https://luts.iwltbap.com
TITLE "IWLTBAP 9890 (Rec.709, sRGB, DCI-P3)"
LUT_3D_SIZE 9
0.044373 0.053253 0.061859
0.156281 0.053711 0.051514
0.276855 0.056274 0.043976
0.397308 0.061737 0.040100
0.516144 0.066956 0.040100
0.634308 0.071198 0.041748
0.752533 0.073090 0.043762
0.870941 0.073090 0.045288
0.946533 0.070801 0.046112
0.027985 0.146576 0.111176
0.167023 0.143616 0.062622
0.293030 0.149231 0.049377
0.414368 0.155212 0.044403
0.530823 0.162354 0.043091
0.645630 0.168365 0.043976
0.760773 0.172791 0.045044
0.876984 0.175140 0.045898
0.948334 0.175751 0.046539
0.000000 0.243195 0.186157
0.137451 0.241943 0.140259
0.305603 0.246429 0.064545
0.428162 0.260681 0.050537
0.544586 0.267120 0.047363
0.657288 0.272949 0.046539
0.769928 0.277710 0.046539
0.883850 0.281250 0.046936
0.950409 0.283325 0.047150
0.000000 0.344604 0.272156
0.036163 0.353027 0.236176
0.304321 0.349731 0.140991
0.448242 0.364044 0.074860
0.552643 0.380432 0.052643
0.664764 0.384674 0.049561
0.776520 0.388458 0.048370
0.889221 0.391907 0.047974
0.951965 0.394196 0.048187
0.000000 0.454346 0.365540
0.000000 0.465515 0.343903
0.239349 0.470428 0.275787
0.466614 0.470337 0.154602
0.580841 0.486053 0.084900
0.668915 0.500275 0.053741
0.778168 0.503906 0.050537
0.890869 0.506439 0.049561
0.952484 0.508392 0.049561
0.000000 0.566528 0.461395
0.000000 0.576233 0.450165
0.095032 0.591858 0.399200
0.430145 0.590698 0.295502
0.613922 0.592072 0.175293
0.699860 0.607391 0.090820
0.781372 0.619690 0.054108
0.888947 0.623077 0.050720
0.952026 0.624268 0.050171
0.000000 0.677612 0.555145
0.000000 0.686218 0.547852
0.000000 0.704773 0.512756
0.354034 0.709991 0.435638
0.606598 0.707611 0.296448
0.742188 0.712769 0.196991
0.808289 0.729584 0.099640
0.892365 0.738739 0.054993
0.951324 0.740326 0.049377
0.000000 0.786530 0.643951
0.000000 0.794952 0.636292
0.000000 0.811157 0.610626
0.269287 0.824127 0.549530
0.566406 0.824127 0.450500
0.753998 0.824799 0.306732
0.848602 0.836212 0.225250
0.912109 0.852142 0.112091
0.953186 0.856842 0.056946
0.000000 0.895935 0.723602
0.000000 0.905701 0.711456
0.000000 0.921783 0.682983
0.260101 0.934143 0.635681
0.546906 0.936188 0.569794
0.738129 0.937195 0.472260
0.864899 0.940125 0.347046
0.925598 0.946655 0.246368
0.957611 0.951813 0.115509
0.037445 0.058014 0.133179
0.136597 0.059235 0.119354
0.263702 0.060089 0.107697
0.393127 0.062958 0.105042
0.515778 0.068115 0.107697
0.635101 0.071991 0.115753
0.753143 0.073486 0.124237
0.871490 0.073090 0.131378
0.946686 0.070801 0.136963
0.039398 0.145081 0.161133
0.143036 0.144592 0.141724
0.274658 0.149475 0.125854
0.404999 0.156372 0.117432
0.527161 0.164154 0.117981
0.643982 0.170380 0.123169
0.759766 0.174500 0.129547
0.876129 0.176819 0.134949
0.948151 0.177032 0.138733
0.048523 0.239166 0.208557
0.103210 0.244690 0.205444
0.282013 0.246429 0.153412
0.418121 0.260223 0.139252
0.540619 0.268158 0.133942
0.655365 0.274536 0.134186
0.768646 0.279236 0.136963
0.882935 0.282654 0.139984
0.950195 0.284302 0.142212
0.000000 0.348602 0.288971
0.018860 0.355377 0.289886
0.253998 0.355042 0.244263
0.432556 0.365021 0.172089
0.550262 0.380524 0.152252
0.664032 0.385590 0.146332
0.775940 0.389496 0.145142
0.888733 0.392731 0.145844
0.951874 0.394897 0.146790
0.000000 0.458527 0.384094
0.000000 0.466522 0.385559
0.172546 0.475372 0.355804
0.436707 0.474335 0.252167
0.573486 0.487701 0.187347
0.668549 0.500824 0.158936
0.779022 0.504120 0.153198
0.891235 0.506653 0.152008
0.952545 0.508667 0.152466
0.000000 0.570038 0.481079
0.000000 0.577759 0.483368
0.020416 0.594269 0.463104
0.379425 0.595490 0.388245
0.597931 0.594910 0.265076
0.697784 0.608582 0.196930
0.781891 0.619934 0.162720
0.889984 0.623016 0.157104
0.952209 0.624329 0.156158
0.000000 0.680023 0.576202
0.000000 0.687317 0.578674
0.000000 0.702728 0.565369
0.289673 0.713104 0.508270
0.571136 0.711426 0.395599
0.734314 0.714325 0.287720
0.808624 0.729950 0.208374
0.892944 0.738831 0.166718
0.951599 0.740356 0.155945
0.000000 0.787750 0.668793
0.000000 0.794952 0.669495
0.000000 0.809082 0.655701
0.185577 0.825470 0.609802
0.524750 0.826019 0.529236
0.733673 0.826660 0.405701
0.846893 0.836243 0.320557
0.912750 0.852142 0.223846
0.953339 0.856873 0.172089
0.000000 0.895996 0.755432
0.000000 0.904633 0.748169
0.000000 0.918549 0.730164
0.174133 0.933624 0.690430
0.506653 0.935974 0.635193
0.714355 0.937164 0.551117
0.853760 0.940247 0.443481
0.925690 0.946411 0.345428
0.957794 0.951721 0.229828
0.033264 0.063751 0.202454
0.116455 0.066162 0.196381
0.235596 0.069275 0.182922
0.374664 0.072754 0.178619
0.511536 0.073090 0.196014
0.635834 0.073486 0.213470
0.754486 0.074249 0.225250
0.872467 0.073486 0.235809
0.947021 0.071198 0.244446
0.034607 0.149231 0.226624
0.119934 0.149475 0.217926
0.241821 0.152374 0.203583
0.386719 0.159851 0.203400
0.521698 0.167053 0.215454
0.642975 0.172516 0.223328
0.759766 0.175964 0.232361
0.876434 0.177673 0.240906
0.948242 0.177460 0.247314
0.036163 0.243866 0.270233
0.123932 0.244019 0.259705
0.248596 0.247528 0.240417
0.397827 0.260834 0.233032
0.532898 0.270508 0.232025
0.652985 0.277283 0.235352
0.767426 0.281952 0.240906
0.881927 0.284729 0.246704
0.949951 0.285858 0.250793
0.070587 0.346191 0.334229
0.144928 0.347900 0.323029
0.210205 0.360779 0.320312
0.405731 0.367432 0.269806
0.543304 0.381714 0.258179
0.662445 0.387543 0.253723
0.775208 0.391479 0.253876
0.887970 0.394287 0.256195
0.951691 0.396027 0.258331
0.012939 0.463623 0.400696
0.027344 0.469696 0.403503
0.134308 0.479034 0.411438
0.375031 0.482605 0.368378
0.557892 0.490662 0.291687
0.668060 0.501831 0.271606
0.779877 0.504974 0.266266
0.891602 0.507507 0.265686
0.952606 0.509247 0.266876
0.000000 0.575531 0.495453
0.000000 0.582214 0.499634
0.010986 0.595612 0.504456
0.301361 0.601776 0.476196
0.561188 0.600006 0.369354
0.691376 0.610504 0.305145
0.782532 0.620361 0.278320
0.891663 0.623077 0.274017
0.952545 0.624573 0.273438
0.000000 0.684174 0.590576
0.000000 0.690552 0.593445
0.000000 0.702820 0.596802
0.185822 0.716553 0.575439
0.511444 0.716125 0.495392
0.716461 0.716431 0.382233
0.807556 0.730347 0.319458
0.893738 0.738953 0.283844
0.952026 0.740448 0.275909
0.000000 0.790894 0.682465
0.000000 0.797089 0.684570
0.000000 0.807770 0.686859
0.037689 0.826080 0.665253
0.458771 0.827332 0.606567
0.696686 0.827911 0.506714
0.839813 0.835724 0.414978
0.913208 0.851746 0.337097
0.953522 0.856873 0.290466
0.000000 0.897552 0.771851
0.000000 0.904144 0.773224
0.000000 0.915100 0.769928
0.049530 0.931549 0.741486
0.445435 0.934143 0.697479
0.675598 0.936249 0.628693
0.834290 0.939667 0.538849
0.925171 0.945618 0.445831
0.957977 0.951477 0.346222
0.031281 0.071198 0.270294
0.098663 0.074615 0.271454
0.206390 0.079773 0.267303
0.342133 0.086151 0.258331
0.488892 0.092255 0.256317
0.629150 0.087158 0.288971
0.753784 0.080139 0.318939
0.873474 0.074615 0.340149
0.947357 0.071594 0.352081
0.032135 0.154968 0.294830
0.101807 0.157074 0.293976
0.210602 0.161438 0.288696
0.349426 0.169037 0.279755
0.500488 0.177246 0.282318
0.637878 0.179535 0.309570
0.759552 0.178925 0.333405
0.876984 0.178925 0.346466
0.948547 0.178070 0.355804
0.033539 0.250214 0.331482
0.105591 0.251953 0.330048
0.215546 0.256409 0.324158
0.357361 0.265015 0.314545
0.513763 0.275970 0.320312
0.647369 0.281952 0.337311
0.765869 0.284851 0.346558
0.881561 0.286652 0.354431
0.949982 0.286804 0.360809
0.035645 0.354706 0.392670
0.112274 0.357025 0.389801
0.221161 0.362213 0.381287
0.364532 0.371613 0.362793
0.523010 0.384888 0.356018
0.656219 0.391479 0.355469
0.773499 0.394989 0.358704
0.887146 0.397095 0.363342
0.951508 0.397888 0.367310
0.072693 0.463074 0.466400
0.143860 0.465790 0.463257
0.242676 0.471222 0.450165
0.318054 0.489838 0.446259
0.526886 0.494965 0.390625
0.662170 0.503906 0.379730
0.779327 0.507263 0.376526
0.891663 0.509308 0.377289
0.952637 0.510559 0.379181
0.115509 0.573395 0.525360
0.124237 0.580322 0.521240
0.142487 0.591705 0.521698
0.240204 0.605621 0.531677
0.485229 0.608765 0.485809
0.673859 0.613220 0.409668
0.781952 0.621338 0.392731
0.893250 0.623810 0.389587
0.952881 0.625305 0.389374
0.000000 0.689514 0.603943
0.000000 0.695129 0.606384
0.000000 0.705017 0.611877
0.106598 0.717377 0.617157
0.420715 0.721039 0.583984
0.672363 0.719360 0.488068
0.800598 0.730530 0.428772
0.894165 0.739044 0.401001
0.952576 0.740784 0.395477
0.000000 0.795319 0.695160
0.000000 0.800323 0.698090
0.000000 0.808868 0.701019
0.000000 0.823425 0.702515
0.361877 0.827423 0.674500
0.634705 0.827332 0.602295
0.819336 0.833069 0.508484
0.910950 0.850189 0.449066
0.953613 0.856781 0.408875
0.000000 0.900085 0.785248
0.000000 0.905579 0.786652
0.000000 0.913391 0.787567
0.000000 0.925873 0.785187
0.357361 0.929504 0.752960
0.615356 0.931641 0.700470
0.800171 0.937592 0.629272
0.921906 0.943665 0.544830
0.957825 0.950897 0.462250
0.031006 0.080475 0.338745
0.088348 0.085083 0.344849
0.179718 0.092560 0.350403
0.303650 0.101624 0.350281
0.453949 0.110199 0.345428
0.604889 0.116058 0.344269
0.744385 0.103790 0.382385
0.869446 0.090210 0.420624
0.947021 0.077545 0.452515
0.032135 0.163239 0.364441
0.092102 0.166840 0.368591
0.184021 0.173615 0.372681
0.309631 0.182678 0.371826
0.462311 0.192749 0.366180
0.614807 0.200165 0.364777
0.752228 0.194702 0.401520
0.874756 0.187775 0.434875
0.948578 0.180176 0.462189
0.033264 0.258087 0.402374
0.096497 0.261292 0.405151
0.189331 0.267395 0.407349
0.315918 0.276855 0.404877
0.470795 0.287781 0.397491
0.626404 0.294983 0.399506
0.760712 0.293915 0.429840
0.880493 0.290771 0.455688
0.949982 0.288177 0.470306
0.034882 0.362762 0.450928
0.102173 0.366119 0.452423
0.194092 0.372131 0.452087
0.319427 0.381500 0.445984
0.475281 0.392395 0.435181
0.635376 0.399170 0.441528
0.767273 0.399963 0.461578
0.885223 0.400177 0.471924
0.951233 0.399780 0.478180
0.036438 0.470795 0.521606
0.108307 0.474487 0.520721
0.198578 0.480347 0.515869
0.320740 0.488831 0.502960
0.459076 0.503143 0.485626
0.638550 0.508392 0.473175
0.772644 0.511353 0.477844
0.890228 0.512726 0.483124
0.952484 0.513123 0.487427
0.074799 0.578217 0.596344
0.142212 0.581512 0.592651
0.226990 0.586090 0.582550
0.317810 0.596710 0.555267
0.398376 0.616150 0.561920
0.636078 0.616028 0.500671
0.774933 0.622559 0.499634
0.892456 0.625305 0.500671
0.952972 0.626617 0.502167
0.157318 0.683258 0.662933
0.203522 0.686859 0.650330
0.212402 0.696259 0.633209
0.201660 0.711578 0.631287
0.326691 0.723267 0.639893
0.588104 0.722656 0.594330
0.779816 0.728516 0.528259
0.891937 0.738464 0.515320
0.952850 0.741302 0.513092
0.037689 0.796600 0.715820
0.024719 0.802277 0.713654
0.018066 0.810150 0.712982
0.061615 0.818359 0.716644
0.262421 0.824615 0.718811
0.543304 0.823853 0.682129
0.767792 0.827637 0.609283
0.900787 0.845612 0.554352
0.953125 0.856018 0.526031
0.000000 0.903931 0.796356
0.000000 0.908234 0.798523
0.000000 0.913696 0.800476
0.000000 0.920593 0.799255
0.242340 0.923462 0.796600
0.531067 0.922913 0.761383
0.745331 0.931274 0.709808
0.907593 0.940460 0.641327
0.956421 0.949463 0.574829
0.032410 0.092255 0.410278
0.086029 0.097778 0.418640
0.163361 0.107178 0.430664
0.267548 0.118652 0.440613
0.407715 0.130463 0.442780
0.567719 0.139313 0.439178
0.718506 0.142120 0.437531
0.856750 0.124542 0.474426
0.944122 0.102844 0.520355
0.033539 0.174500 0.437073
0.089874 0.178925 0.443481
0.167725 0.187378 0.453308
0.272491 0.198395 0.461334
0.413635 0.210815 0.461823
0.575226 0.220520 0.456848
0.726959 0.224518 0.454529
0.864136 0.212646 0.491791
0.946289 0.198242 0.532928
0.034332 0.268158 0.475586
0.094330 0.272217 0.479919
0.173248 0.279541 0.486389
0.277435 0.290253 0.490570
0.418610 0.302551 0.487671
0.581879 0.312225 0.481323
0.735962 0.316620 0.480499
0.872345 0.308136 0.518311
0.948700 0.298981 0.552887
0.035126 0.371185 0.522888
0.097931 0.375092 0.525024
0.176971 0.381805 0.526550
0.278992 0.391693 0.524261
0.417938 0.403290 0.516266
0.582764 0.412781 0.509125
0.742798 0.416016 0.515198
0.879272 0.410370 0.551117
0.950562 0.404663 0.578094
0.036163 0.478333 0.574799
0.100769 0.482605 0.574036
0.178101 0.488831 0.569672
0.275452 0.497711 0.559479
0.411102 0.508026 0.544647
0.578186 0.516479 0.537384
0.747040 0.518951 0.556458
0.883057 0.516815 0.584076
0.951599 0.515350 0.597198
0.036163 0.584290 0.649048
0.104584 0.588348 0.645996
0.182465 0.593689 0.638000
0.279907 0.600159 0.622437
0.416504 0.606903 0.598358
0.541199 0.622223 0.593872
0.745544 0.623413 0.585785
0.883270 0.627045 0.599335
0.952026 0.628754 0.607971
0.075653 0.689362 0.723602
0.142487 0.692535 0.717773
0.219055 0.696106 0.705261
0.319122 0.699463 0.679230
0.363647 0.713287 0.651276
0.485840 0.722870 0.663055
0.733032 0.722321 0.611816
0.880493 0.735321 0.619080
0.951538 0.741150 0.624023
0.158325 0.792419 0.791351
0.219055 0.794189 0.782440
0.286987 0.796722 0.760590
0.287598 0.805725 0.733643
0.301666 0.813721 0.728760
0.442719 0.816895 0.733215
0.686615 0.818146 0.695587
0.876343 0.835785 0.645081
0.951111 0.853638 0.638336
0.226074 0.896576 0.832336
0.218475 0.901733 0.822968
0.204956 0.907257 0.815796
0.196869 0.911163 0.810272
0.281281 0.910553 0.807739
0.434113 0.912720 0.806610
0.670715 0.918671 0.776520
0.864197 0.935730 0.731079
0.952820 0.946930 0.679962
0.034058 0.106567 0.485809
0.088348 0.112549 0.494659
0.157288 0.122589 0.508881
0.243225 0.135986 0.525360
0.362122 0.150970 0.536896
0.515778 0.163940 0.538361
0.679626 0.170837 0.534546
0.829010 0.169281 0.533936
0.936890 0.149017 0.564606
0.035400 0.187988 0.512634
0.091705 0.192963 0.519409
0.161316 0.202057 0.531006
0.246887 0.214417 0.544342
0.365173 0.229156 0.552673
0.519287 0.242249 0.552155
0.684967 0.249603 0.548279
0.836090 0.249725 0.547638
0.939972 0.233215 0.579865
0.036438 0.280273 0.550323
0.095764 0.284729 0.554688
0.165802 0.292419 0.561768
0.250122 0.303833 0.569275
0.365967 0.317627 0.571991
0.519806 0.330170 0.568970
0.689301 0.337158 0.566620
0.843964 0.338348 0.568054
0.943481 0.324677 0.604767
0.036682 0.380737 0.595703
0.097595 0.385193 0.596985
0.167511 0.392090 0.597931
0.249268 0.401917 0.596558
0.361542 0.414490 0.591064
0.515045 0.425629 0.585999
0.689575 0.431946 0.588318
0.850372 0.433472 0.596619
0.946564 0.422943 0.637970
0.036163 0.485443 0.645294
0.097229 0.489960 0.643066
0.165802 0.496307 0.637207
0.244812 0.504974 0.626007
0.353333 0.515350 0.611572
0.505829 0.524048 0.604431
0.684052 0.529449 0.611877
0.852234 0.531464 0.630676
0.948212 0.525726 0.674500
0.035919 0.590881 0.699341
0.096100 0.595367 0.695709
0.164062 0.600800 0.687592
0.242004 0.607147 0.674103
0.349304 0.613495 0.654938
0.497925 0.618042 0.637848
0.673340 0.622894 0.636505
0.850677 0.628387 0.671417
0.948334 0.630981 0.707336
0.035919 0.694763 0.775635
0.103882 0.698456 0.770874
0.177887 0.702576 0.760620
0.261261 0.706024 0.742310
0.368988 0.706421 0.715179
0.511200 0.703827 0.680939
0.632629 0.715393 0.689240
0.843781 0.726776 0.697388
0.946228 0.739532 0.721069
0.084900 0.797699 0.848785
0.153198 0.800171 0.843140
0.228088 0.802277 0.831085
0.314148 0.801788 0.808838
0.418732 0.795807 0.769104
0.468323 0.798767 0.738037
0.594360 0.806976 0.752594
0.828583 0.821106 0.722626
0.945343 0.848083 0.740417
0.190247 0.898407 0.910858
0.252655 0.899200 0.903259
0.327515 0.898041 0.887482
0.399658 0.894470 0.853699
0.404602 0.894806 0.819397
0.448639 0.896027 0.814728
0.589233 0.906464 0.826263
0.806671 0.923859 0.808075
0.946198 0.943390 0.774353
0.035919 0.122894 0.564667
0.092102 0.129120 0.573151
0.157288 0.139069 0.587006
0.231232 0.152863 0.605103
0.327362 0.169281 0.623077
0.460541 0.186188 0.633331
0.623413 0.198608 0.633850
0.788574 0.202667 0.630890
0.924561 0.196899 0.631500
0.037201 0.203186 0.590424
0.095398 0.208618 0.596893
0.160583 0.217651 0.607697
0.233429 0.230164 0.622009
0.327606 0.245941 0.635315
0.459229 0.262054 0.642151
0.623779 0.274109 0.642944
0.792847 0.278687 0.641937
0.927521 0.274536 0.643219
0.038177 0.293671 0.626129
0.097931 0.298309 0.629883
0.162842 0.306061 0.635773
0.233765 0.317383 0.643188
0.324615 0.331818 0.648987
0.454010 0.346649 0.651276
0.621490 0.357605 0.653839
0.796753 0.361877 0.657867
0.930847 0.359589 0.662170
0.038696 0.391815 0.669098
0.098663 0.396088 0.669189
0.162354 0.402893 0.668396
0.230652 0.412781 0.666290
0.317688 0.425354 0.662476
0.444427 0.437714 0.660278
0.614807 0.446503 0.666290
0.797760 0.450775 0.677734
0.933350 0.451202 0.688202
0.037689 0.493835 0.716797
0.096100 0.498230 0.713013
0.158813 0.504425 0.705627
0.225311 0.512726 0.694122
0.309814 0.522644 0.680664
0.433838 0.531158 0.673401
0.604034 0.536591 0.680756
0.791687 0.540985 0.699249
0.933746 0.545502 0.719116
0.036438 0.597107 0.768646
0.094696 0.601532 0.762573
0.158081 0.607147 0.751129
0.224731 0.613739 0.733398
0.307831 0.619812 0.712250
0.426575 0.621979 0.696747
0.589844 0.622131 0.699341
0.776398 0.627777 0.719757
0.931244 0.639130 0.751862
0.036682 0.700684 0.826080
0.097595 0.704681 0.821899
0.163605 0.708984 0.813202
0.233948 0.712524 0.798737
0.319031 0.712585 0.776245
0.431427 0.706848 0.749329
0.580841 0.702728 0.730957
0.761200 0.711243 0.740051
0.930542 0.735168 0.791199
0.040833 0.802765 0.900604
0.117096 0.805725 0.896881
0.193237 0.808258 0.888123
0.271545 0.808167 0.870972
0.358948 0.801849 0.842285
0.465210 0.789276 0.805969
0.603760 0.783234 0.779541
0.743713 0.805084 0.788116
0.931396 0.838257 0.820587
0.127289 0.903625 0.945496
0.197327 0.904907 0.943390
0.273132 0.904388 0.938690
0.353577 0.899445 0.929291
0.441498 0.887787 0.894714
0.542114 0.875549 0.851379
0.609619 0.886871 0.833954
0.741333 0.914215 0.868317
0.934662 0.939392 0.858643
0.038177 0.140869 0.645386
0.096100 0.146851 0.653259
0.159576 0.156403 0.665833
0.226990 0.169495 0.682739
0.306061 0.186188 0.702393
0.412872 0.204529 0.719971
0.559052 0.221741 0.730713
0.731110 0.233063 0.732208
0.899231 0.234741 0.729309
0.038910 0.219818 0.669617
0.097931 0.225037 0.675568
0.160828 0.233734 0.685059
0.226990 0.245941 0.697815
0.303497 0.261414 0.712097
0.407593 0.278839 0.724854
0.554108 0.294861 0.734711
0.731110 0.305420 0.739838
0.904907 0.307343 0.739685
0.039642 0.307983 0.702942
0.099365 0.312714 0.706055
0.160828 0.320374 0.710480
0.224365 0.331207 0.716461
0.297272 0.345184 0.723022
0.398163 0.360779 0.730042
0.545563 0.374664 0.739960
0.729248 0.383759 0.750763
0.910736 0.386108 0.755920
0.039886 0.403717 0.743408
0.098663 0.407959 0.742645
0.158081 0.414581 0.740906
0.218475 0.423950 0.738556
0.288208 0.435944 0.736633
0.386078 0.448608 0.737823
0.533295 0.458862 0.747681
0.722687 0.465607 0.764099
0.912903 0.469849 0.776825
0.039398 0.503296 0.789551
0.096100 0.507416 0.785095
0.153961 0.513306 0.778076
0.212616 0.521149 0.768616
0.280396 0.530548 0.758728
0.375031 0.538727 0.753632
0.518433 0.543335 0.759918
0.708923 0.547180 0.778107
0.907379 0.555450 0.798920
0.038177 0.604553 0.841339
0.094330 0.608337 0.835541
0.152649 0.613647 0.825897
0.212006 0.619873 0.812653
0.279449 0.625854 0.797302
0.369812 0.627808 0.783813
0.503723 0.624756 0.779755
0.688629 0.625732 0.792053
0.893860 0.640564 0.819611
0.037689 0.706390 0.895782
0.096497 0.709869 0.891144
0.158813 0.714233 0.882385
0.221924 0.718475 0.868896
0.290558 0.720276 0.850128
0.376068 0.715393 0.827515
0.497833 0.705170 0.808716
0.673004 0.705170 0.810425
0.881195 0.728210 0.841858
0.043304 0.808319 0.938690
0.111267 0.811157 0.937805
0.179504 0.813995 0.935486
0.248779 0.815155 0.930939
0.321411 0.811615 0.913239
0.405426 0.800446 0.883545
0.519287 0.788300 0.852051
0.683289 0.793182 0.840546
0.886719 0.823975 0.873047
0.093964 0.908752 0.967194
0.168213 0.910187 0.965912
0.243408 0.910248 0.962677
0.319550 0.906708 0.956024
0.397125 0.897552 0.944824
0.483948 0.885101 0.930847
0.595856 0.879639 0.906281
0.747620 0.894897 0.904053
0.914185 0.935608 0.930359
