public/LUTs/H-9890-STD.cube
# Copyright: (C) Copyright 2010-2021 by IWLTBAP SAS
# Cannot be resold, shared or otherwise redistributed
# Website: https://luts.iwltbap.com
TITLE "IWLTBAP 9890 (Rec.709, sRGB, DCI-P3)"
LUT_3D_SIZE 33
0.044373 0.053253 0.061859
0.070984 0.053253 0.057800
0.098663 0.053253 0.055725
0.126984 0.053711 0.053558
0.156281 0.053711 0.051514
0.185822 0.054138 0.049377
0.216156 0.055023 0.047363
0.246521 0.055450 0.045685
0.276855 0.056274 0.043976
0.307281 0.057587 0.042664
0.337372 0.058807 0.041504
0.367340 0.060089 0.040588
0.397308 0.061737 0.040100
0.427155 0.062958 0.039886
0.456848 0.064575 0.039886
0.486603 0.066162 0.039886
0.516144 0.066956 0.040100
0.545746 0.068512 0.040344
0.575226 0.069275 0.041046
0.604828 0.070435 0.041504
0.634308 0.071198 0.041748
0.663757 0.071991 0.042206
0.693390 0.072357 0.042664
0.722870 0.072754 0.043091
0.752533 0.073090 0.043762
0.782013 0.073486 0.043976
0.811707 0.073486 0.044403
0.841309 0.073090 0.044830
0.870941 0.073090 0.045288
0.900696 0.072754 0.045502
0.921051 0.072357 0.045898
0.933777 0.071594 0.046112
0.946533 0.070801 0.046112
0.047516 0.074951 0.070862
0.070984 0.075714 0.064911
0.100769 0.075348 0.057983
0.130219 0.075714 0.055359
0.159821 0.075714 0.053009
0.189758 0.076477 0.050720
0.220215 0.076813 0.048584
0.250824 0.077545 0.046722
0.281281 0.078308 0.045044
0.311707 0.079742 0.043762
0.341888 0.081177 0.042419
0.371826 0.082214 0.041748
0.401550 0.084015 0.041046
0.431213 0.085419 0.040833
0.460785 0.087158 0.040588
0.490295 0.088837 0.040588
0.519623 0.090210 0.040833
0.548920 0.091553 0.041046
0.578217 0.092560 0.041504
0.607574 0.093872 0.041962
0.637024 0.094849 0.042419
0.666199 0.095825 0.042664
0.695496 0.096497 0.043091
0.724945 0.097137 0.043518
0.754395 0.097778 0.043976
0.783752 0.098114 0.044403
0.813263 0.098114 0.044830
0.842743 0.098114 0.045044
0.872345 0.098114 0.045502
0.901947 0.098114 0.045685
0.921539 0.097778 0.045898
0.934174 0.097443 0.046112
0.946899 0.097137 0.046326
0.045959 0.097778 0.080078
0.064362 0.098755 0.079407
0.101135 0.098114 0.065674
0.132874 0.098114 0.057617
0.163116 0.098419 0.054810
0.193237 0.099060 0.052429
0.223816 0.099701 0.050171
0.254669 0.100311 0.048187
0.285339 0.101288 0.046326
0.315918 0.102539 0.044830
0.346222 0.103760 0.043762
0.376160 0.105316 0.042664
0.405853 0.107178 0.041962
0.435364 0.108673 0.041504
0.464752 0.110474 0.041504
0.494110 0.111938 0.041290
0.523285 0.113708 0.041504
0.552307 0.115204 0.041748
0.581451 0.116638 0.042206
0.610565 0.117798 0.042419
0.639709 0.118927 0.042877
0.668884 0.120056 0.043091
0.698029 0.120880 0.043518
0.727112 0.121735 0.043976
0.756409 0.122284 0.044403
0.785675 0.122864 0.044617
0.814880 0.123413 0.045044
0.844299 0.123688 0.045288
0.873688 0.123688 0.045502
0.903320 0.123688 0.045898
0.922058 0.123688 0.046112
0.934692 0.123413 0.046326
0.947357 0.123138 0.046326
0.037445 0.121735 0.093689
0.054535 0.122559 0.093689
0.093231 0.121460 0.082520
0.134003 0.120331 0.063782
0.165558 0.121460 0.057129
0.196228 0.122284 0.054291
0.227173 0.123138 0.051880
0.258301 0.123962 0.049774
0.289337 0.125061 0.047760
0.319946 0.126160 0.046112
0.350403 0.127533 0.044830
0.380432 0.129120 0.043976
0.410065 0.130737 0.043091
0.439575 0.132568 0.042664
0.468811 0.134155 0.042419
0.497986 0.135986 0.042206
0.527008 0.137756 0.042206
0.555847 0.139313 0.042419
0.584778 0.140839 0.042877
0.613647 0.142334 0.043091
0.642578 0.143616 0.043304
0.671570 0.144592 0.043762
0.700439 0.145813 0.043976
0.729401 0.146576 0.044403
0.758453 0.147552 0.044617
0.787598 0.148041 0.045044
0.816742 0.148529 0.045288
0.846039 0.148987 0.045502
0.875275 0.149475 0.045898
0.904633 0.149475 0.046112
0.922577 0.149475 0.046326
0.935211 0.149475 0.046326
0.947815 0.149475 0.046539
0.027985 0.146576 0.111176
0.040802 0.146576 0.109741
0.083710 0.145325 0.099335
0.128143 0.143616 0.081482
0.167023 0.143616 0.062622
0.198792 0.145569 0.056763
0.230316 0.147064 0.053925
0.261597 0.148041 0.051514
0.293030 0.149231 0.049377
0.323914 0.150696 0.047546
0.354492 0.151886 0.046326
0.384644 0.153564 0.045044
0.414368 0.155212 0.044403
0.443848 0.157074 0.043762
0.472900 0.158691 0.043518
0.501953 0.160553 0.043304
0.530823 0.162354 0.043091
0.559570 0.163940 0.043304
0.588287 0.165497 0.043518
0.616943 0.167053 0.043762
0.645630 0.168365 0.043976
0.674316 0.169708 0.044189
0.703094 0.170807 0.044403
0.731903 0.171875 0.044830
0.760773 0.172791 0.045044
0.789734 0.173615 0.045288
0.818695 0.174255 0.045502
0.847778 0.174713 0.045685
0.876984 0.175140 0.045898
0.906219 0.175537 0.046326
0.923218 0.175751 0.046326
0.935730 0.175751 0.046539
0.948334 0.175751 0.046539
0.016113 0.170990 0.128754
0.033508 0.170807 0.126099
0.071838 0.169250 0.115784
0.120575 0.167267 0.098694
0.164551 0.166168 0.078033
0.200256 0.167725 0.062225
0.232513 0.170380 0.056427
0.264526 0.172791 0.053558
0.296082 0.174255 0.051300
0.327362 0.175751 0.049377
0.358337 0.177246 0.047760
0.388580 0.178711 0.046539
0.418335 0.180389 0.045685
0.447784 0.182251 0.045044
0.476929 0.183899 0.044617
0.505829 0.185760 0.044189
0.534668 0.187378 0.044189
0.563171 0.189178 0.044189
0.591736 0.190796 0.044189
0.620270 0.192169 0.044403
0.648682 0.193726 0.044617
0.677246 0.194916 0.044830
0.705811 0.196289 0.045044
0.734467 0.197449 0.045288
0.763092 0.198395 0.045502
0.791840 0.199188 0.045685
0.820679 0.199951 0.045898
0.849670 0.200714 0.046112
0.878693 0.201294 0.046112
0.907776 0.201660 0.046326
0.923859 0.202057 0.046539
0.936340 0.202240 0.046539
0.948853 0.202240 0.046722
0.004303 0.195709 0.146790
0.023682 0.195312 0.142944
0.056458 0.193939 0.133453
0.110321 0.192169 0.117706
0.158813 0.190186 0.096222
0.201904 0.189392 0.073425
0.234680 0.192749 0.062225
0.267120 0.196472 0.056427
0.298981 0.199554 0.053375
0.330475 0.201660 0.051300
0.361511 0.203033 0.049561
0.392059 0.204712 0.048187
0.421997 0.206390 0.047150
0.451630 0.208252 0.046326
0.480713 0.209900 0.045685
0.509644 0.211731 0.045288
0.538269 0.213379 0.045044
0.566742 0.214996 0.044830
0.595123 0.216614 0.044830
0.623413 0.218018 0.045044
0.651764 0.219635 0.045044
0.680023 0.220856 0.045288
0.708496 0.222260 0.045502
0.736938 0.223328 0.045685
0.765472 0.224335 0.045685
0.794037 0.225372 0.045898
0.822784 0.226227 0.046112
0.851532 0.226929 0.046326
0.880493 0.227600 0.046326
0.909515 0.228119 0.046539
0.924469 0.228485 0.046722
0.936920 0.228790 0.046722
0.949371 0.229156 0.046936
0.001190 0.219452 0.166229
0.007843 0.220520 0.161133
0.039612 0.219269 0.152039
0.097229 0.217499 0.137512
0.149506 0.215698 0.117706
0.197540 0.214081 0.093048
0.236511 0.214661 0.074493
0.269806 0.219116 0.062988
0.301941 0.223633 0.056580
0.333435 0.227295 0.053741
0.364441 0.229980 0.051514
0.395142 0.231506 0.049957
0.425415 0.233215 0.048767
0.454895 0.234894 0.047760
0.484192 0.236542 0.047150
0.513000 0.238373 0.046539
0.541595 0.239960 0.046112
0.570007 0.241455 0.045898
0.598236 0.243073 0.045685
0.626465 0.244507 0.045685
0.654663 0.245941 0.045685
0.682861 0.247375 0.045898
0.710968 0.248474 0.045898
0.739288 0.249725 0.046112
0.767731 0.250824 0.046112
0.796173 0.251770 0.046326
0.824768 0.252716 0.046326
0.853394 0.253632 0.046539
0.882202 0.254272 0.046539
0.911072 0.254852 0.046722
0.925140 0.255341 0.046936
0.937500 0.255798 0.046936
0.949890 0.256134 0.046936
0.000000 0.243195 0.186157
0.001556 0.245300 0.180695
0.026703 0.245148 0.171478
0.080536 0.243713 0.158447
0.137451 0.241943 0.140259
0.189331 0.240295 0.116608
0.235413 0.239319 0.090820
0.272339 0.241455 0.076294
0.305603 0.246429 0.064545
0.337128 0.251648 0.057281
0.367798 0.255951 0.054291
0.397949 0.258728 0.052063
0.428162 0.260681 0.050537
0.457947 0.262360 0.049377
0.487274 0.264008 0.048584
0.516144 0.265625 0.047760
0.544586 0.267120 0.047363
0.572906 0.268616 0.046936
0.601074 0.270050 0.046722
0.629211 0.271515 0.046539
0.657288 0.272949 0.046539
0.685364 0.274109 0.046539
0.713440 0.275421 0.046326
0.741608 0.276550 0.046539
0.769928 0.277710 0.046539
0.798218 0.278687 0.046539
0.826660 0.279663 0.046722
0.855194 0.280396 0.046722
0.883850 0.281250 0.046936
0.912598 0.281952 0.046936
0.925751 0.282501 0.047150
0.938080 0.282928 0.047150
0.950409 0.283325 0.047150
0.000000 0.267548 0.206909
0.000000 0.269775 0.201141
0.014130 0.271210 0.191742
0.055511 0.270203 0.179474
0.122406 0.268890 0.163605
0.178101 0.267395 0.141968
0.229950 0.265930 0.113251
0.273254 0.266205 0.090820
0.308807 0.269165 0.078400
0.341522 0.274811 0.066437
0.372314 0.280273 0.057983
0.401733 0.284851 0.054810
0.431091 0.288055 0.052643
0.460419 0.290253 0.051300
0.489899 0.291870 0.050171
0.518768 0.293365 0.049164
0.547272 0.294708 0.048584
0.575592 0.296173 0.047974
0.603638 0.297516 0.047546
0.631683 0.298859 0.047363
0.659637 0.300201 0.047150
0.687653 0.301483 0.047150
0.715729 0.302673 0.046936
0.743713 0.303833 0.046936
0.771881 0.304749 0.046936
0.800171 0.305817 0.046936
0.828491 0.306824 0.047150
0.856964 0.307739 0.047150
0.885437 0.308502 0.047150
0.914062 0.309143 0.047150
0.926300 0.309814 0.047363
0.938568 0.310211 0.047363
0.950897 0.310669 0.047363
0.000000 0.292572 0.228485
0.000000 0.294708 0.222656
0.004303 0.296997 0.213287
0.030701 0.297516 0.201355
0.101440 0.296173 0.186798
0.164062 0.294983 0.167816
0.219238 0.293915 0.141968
0.269470 0.292969 0.113251
0.311310 0.294189 0.093048
0.345734 0.298035 0.081848
0.377380 0.303986 0.069061
0.406952 0.309540 0.059082
0.435272 0.314240 0.055725
0.463470 0.317749 0.053375
0.492004 0.320129 0.051697
0.521057 0.321625 0.050720
0.549591 0.322968 0.049774
0.577789 0.324310 0.049164
0.605865 0.325562 0.048584
0.633789 0.326752 0.048187
0.661804 0.327972 0.047974
0.689697 0.329163 0.047760
0.717621 0.330261 0.047546
0.745605 0.331329 0.047546
0.773682 0.332306 0.047363
0.801880 0.333344 0.047363
0.830139 0.334198 0.047363
0.858459 0.335144 0.047363
0.886932 0.335968 0.047363
0.914612 0.336670 0.047363
0.926819 0.337372 0.047546
0.939087 0.337860 0.047546
0.951324 0.338348 0.047546
0.000000 0.318390 0.249847
0.000000 0.320374 0.244934
0.000000 0.323334 0.236359
0.021149 0.324677 0.224915
0.072662 0.324310 0.211151
0.145508 0.323334 0.193909
0.206390 0.322205 0.171265
0.261444 0.321228 0.141449
0.309235 0.321228 0.115509
0.348816 0.323090 0.097778
0.382751 0.327606 0.085541
0.413147 0.333740 0.071991
0.441193 0.339386 0.061462
0.468201 0.344116 0.056427
0.495239 0.347687 0.053925
0.522797 0.350159 0.052246
0.551392 0.351562 0.051300
0.579651 0.352661 0.050354
0.607666 0.353912 0.049774
0.635620 0.355042 0.049164
0.663513 0.356140 0.048767
0.691406 0.357239 0.048370
0.719299 0.358276 0.048187
0.747253 0.359253 0.047974
0.775299 0.360229 0.047974
0.803406 0.361206 0.047760
0.831573 0.362091 0.047760
0.859833 0.362854 0.047760
0.888153 0.363739 0.047760
0.915161 0.364502 0.047760
0.927277 0.365021 0.047760
0.939484 0.365692 0.047760
0.951691 0.366119 0.047760
0.000000 0.344604 0.272156
0.000000 0.346313 0.267761
0.000000 0.349396 0.260590
0.004700 0.352478 0.249390
0.036163 0.353027 0.236176
0.122070 0.352112 0.220581
0.189148 0.351349 0.200226
0.249451 0.350525 0.174042
0.304321 0.349731 0.140991
0.349792 0.350311 0.117188
0.386841 0.353027 0.103271
0.419495 0.357910 0.089172
0.448242 0.364044 0.074860
0.474762 0.369568 0.063782
0.500641 0.374146 0.057129
0.526489 0.377808 0.054474
0.552643 0.380432 0.052643
0.580841 0.381592 0.051697
0.608917 0.382599 0.050720
0.636871 0.383759 0.050171
0.664764 0.384674 0.049561
0.692596 0.385712 0.049164
0.720459 0.386627 0.048767
0.748474 0.387543 0.048584
0.776520 0.388458 0.048370
0.804565 0.389374 0.048187
0.832672 0.390289 0.048187
0.860901 0.391113 0.048187
0.889221 0.391907 0.047974
0.915558 0.392517 0.047974
0.927673 0.393219 0.047974
0.939819 0.393707 0.048187
0.951965 0.394196 0.048187
0.000000 0.371490 0.295074
0.000000 0.373169 0.291168
0.000000 0.375916 0.284973
0.000000 0.379608 0.275055
0.020020 0.381805 0.261963
0.091339 0.381592 0.247681
0.168213 0.380829 0.229187
0.233429 0.380219 0.205261
0.293182 0.379608 0.176147
0.346832 0.379089 0.141235
0.389313 0.380127 0.121307
0.424683 0.383453 0.108612
0.455536 0.388580 0.093048
0.482605 0.394501 0.077698
0.507751 0.399780 0.066071
0.532532 0.404205 0.057983
0.556946 0.407867 0.054993
0.582184 0.410461 0.053009
0.609924 0.411621 0.051880
0.637787 0.412567 0.051117
0.665741 0.413544 0.050354
0.693542 0.414398 0.049957
0.721466 0.415344 0.049377
0.749329 0.416077 0.049164
0.777374 0.417023 0.048981
0.805420 0.417877 0.048767
0.833527 0.418640 0.048584
0.861694 0.419495 0.048584
0.889923 0.420166 0.048370
0.915863 0.420776 0.048370
0.927948 0.421570 0.048370
0.940063 0.422028 0.048370
0.952209 0.422577 0.048584
0.000000 0.398804 0.318207
0.000000 0.400452 0.314941
0.000000 0.403015 0.309601
0.000000 0.406433 0.301239
0.003143 0.410461 0.288696
0.047485 0.411255 0.274933
0.141937 0.410675 0.258057
0.214172 0.410156 0.236511
0.278229 0.409698 0.209839
0.336975 0.409241 0.177399
0.388367 0.409027 0.143188
0.427948 0.410553 0.127472
0.461945 0.414124 0.113525
0.490814 0.419373 0.096527
0.516296 0.424988 0.080109
0.540009 0.430115 0.067932
0.563385 0.434387 0.058472
0.586761 0.437897 0.055359
0.611359 0.440491 0.053192
0.638367 0.441833 0.052063
0.666199 0.442596 0.051300
0.694122 0.443481 0.050720
0.722015 0.444214 0.050171
0.749847 0.445099 0.049774
0.777954 0.445801 0.049377
0.805939 0.446503 0.049164
0.834076 0.447388 0.048981
0.862274 0.447968 0.048981
0.890472 0.448669 0.048767
0.916077 0.449371 0.048767
0.928131 0.449982 0.048767
0.940247 0.450500 0.048767
0.952362 0.451141 0.048767
0.000000 0.426544 0.341705
0.000000 0.428101 0.338898
0.000000 0.430481 0.334259
0.000000 0.433868 0.327240
0.001953 0.437622 0.316711
0.018066 0.441040 0.302185
0.107941 0.440765 0.286896
0.190613 0.440308 0.267487
0.260468 0.439972 0.243011
0.323303 0.439606 0.213287
0.380981 0.439148 0.177795
0.427551 0.439667 0.149445
0.466003 0.441284 0.133698
0.498352 0.444824 0.118286
0.525269 0.450165 0.099640
0.549042 0.455597 0.082520
0.571411 0.460388 0.069397
0.593536 0.464355 0.059479
0.616302 0.467865 0.055725
0.640289 0.470428 0.053375
0.666504 0.471954 0.052246
0.694336 0.472565 0.051514
0.722260 0.473419 0.050720
0.750183 0.474091 0.050354
0.778229 0.474823 0.049957
0.806213 0.475464 0.049774
0.834381 0.476196 0.049377
0.862549 0.476868 0.049377
0.890808 0.477478 0.049164
0.916199 0.478088 0.049164
0.928253 0.478668 0.049164
0.940369 0.479218 0.049164
0.952454 0.479706 0.049164
0.000000 0.454346 0.365540
0.000000 0.455963 0.362946
0.000000 0.458160 0.359283
0.000000 0.461395 0.353210
0.000000 0.465515 0.343903
0.007080 0.469696 0.330658
0.068787 0.470917 0.315826
0.162079 0.470795 0.298187
0.239349 0.470428 0.275787
0.306885 0.470093 0.248444
0.368408 0.469696 0.215973
0.424500 0.469177 0.176971
0.466614 0.470337 0.154602
0.503448 0.472015 0.139740
0.534027 0.475647 0.122925
0.558838 0.480896 0.102966
0.580841 0.486053 0.084900
0.601837 0.490601 0.070862
0.623291 0.494446 0.060272
0.645508 0.497711 0.056061
0.668915 0.500275 0.053741
0.694336 0.501984 0.052063
0.722229 0.502625 0.051514
0.750183 0.503296 0.050934
0.778168 0.503906 0.050537
0.806213 0.504517 0.050171
0.834381 0.505219 0.049957
0.862579 0.505798 0.049774
0.890869 0.506439 0.049561
0.916229 0.506958 0.049561
0.928284 0.507507 0.049561
0.940399 0.507965 0.049561
0.952484 0.508392 0.049561
0.000000 0.482513 0.389404
0.000000 0.484070 0.387238
0.000000 0.486298 0.384247
0.000000 0.489227 0.379211
0.000000 0.493134 0.371429
0.000397 0.497711 0.359589
0.021912 0.501221 0.343903
0.128448 0.501221 0.328461
0.214935 0.501068 0.308319
0.288025 0.500763 0.283173
0.353546 0.500275 0.253113
0.413147 0.499817 0.217072
0.467072 0.499329 0.175934
0.505402 0.500824 0.158936
0.539856 0.502899 0.144653
0.568512 0.506500 0.126678
0.591278 0.511597 0.105042
0.611633 0.516479 0.086548
0.631683 0.520752 0.072357
0.652588 0.524445 0.061462
0.674286 0.527618 0.056244
0.697357 0.530090 0.053741
0.721954 0.531982 0.052063
0.749817 0.532623 0.051514
0.777832 0.533295 0.050934
0.805939 0.533783 0.050537
0.834076 0.534332 0.050354
0.862335 0.534943 0.050171
0.890656 0.535492 0.049957
0.916138 0.535919 0.049957
0.928192 0.536438 0.049774
0.940308 0.536926 0.049774
0.952423 0.537292 0.049774
0.000000 0.510620 0.413361
0.000000 0.512115 0.411530
0.000000 0.514374 0.408813
0.000000 0.517303 0.404694
0.000000 0.520752 0.398224
0.000000 0.525208 0.388367
0.007080 0.529999 0.373047
0.078918 0.531525 0.357727
0.186676 0.531464 0.339813
0.266266 0.531311 0.316956
0.336212 0.530975 0.289276
0.399506 0.530365 0.255768
0.457031 0.529877 0.216888
0.506714 0.529785 0.179260
0.542542 0.531403 0.164734
0.575165 0.533630 0.149200
0.601624 0.537292 0.129303
0.622498 0.542114 0.107422
0.641663 0.546753 0.087891
0.661072 0.550934 0.073059
0.681366 0.554443 0.062225
0.702728 0.557556 0.056427
0.725464 0.559937 0.053925
0.749329 0.562012 0.052063
0.777374 0.562561 0.051514
0.805481 0.563080 0.050934
0.833649 0.563721 0.050720
0.861847 0.564087 0.050537
0.890167 0.564575 0.050354
0.915955 0.565033 0.050171
0.928070 0.565521 0.050171
0.940155 0.565918 0.049957
0.952332 0.566254 0.049957
0.000000 0.538666 0.437439
0.000000 0.540192 0.435883
0.000000 0.542480 0.433411
0.000000 0.545227 0.429840
0.000000 0.548584 0.424500
0.000000 0.552582 0.416321
0.000000 0.558044 0.402618
0.032104 0.561310 0.386597
0.149506 0.561890 0.370026
0.241241 0.561798 0.349701
0.316437 0.561371 0.324188
0.383636 0.560974 0.293213
0.444672 0.560272 0.256653
0.499329 0.559814 0.217590
0.544281 0.560211 0.185364
0.578735 0.561951 0.170197
0.609314 0.564178 0.153198
0.633301 0.567963 0.131927
0.652832 0.572540 0.109192
0.671112 0.577118 0.089539
0.689850 0.581146 0.074493
0.709717 0.584564 0.062622
0.730896 0.587463 0.056763
0.753296 0.589874 0.053925
0.777161 0.591858 0.052063
0.804993 0.592407 0.051514
0.832947 0.593079 0.050934
0.861267 0.593475 0.050720
0.889648 0.593811 0.050537
0.915710 0.594208 0.050354
0.927856 0.594666 0.050354
0.940033 0.594971 0.050171
0.952179 0.595367 0.050171
0.000000 0.566528 0.461395
0.000000 0.568207 0.460022
0.000000 0.570343 0.457947
0.000000 0.572998 0.454712
0.000000 0.576233 0.450165
0.000000 0.580322 0.443237
0.000000 0.585388 0.431763
0.016876 0.590118 0.415588
0.095032 0.591858 0.399200
0.210205 0.591919 0.380798
0.294037 0.591766 0.358063
0.365631 0.591370 0.329437
0.430145 0.590698 0.295502
0.488953 0.589966 0.256653
0.540741 0.589722 0.217407
0.580933 0.590515 0.190948
0.613922 0.592072 0.175293
0.641815 0.594574 0.156647
0.664032 0.598419 0.134460
0.682404 0.602966 0.111206
0.699860 0.607391 0.090820
0.718018 0.611359 0.075562
0.737640 0.614624 0.063782
0.758820 0.617432 0.056946
0.781372 0.619690 0.054108
0.805206 0.621490 0.052063
0.832520 0.622162 0.051300
0.860535 0.622650 0.050934
0.888947 0.623077 0.050720
0.915497 0.623413 0.050537
0.927643 0.623810 0.050354
0.939850 0.624084 0.050354
0.952026 0.624268 0.050171
0.000000 0.594513 0.485168
0.000000 0.596130 0.483948
0.000000 0.598206 0.482056
0.000000 0.600922 0.479248
0.000000 0.604004 0.475189
0.000000 0.607788 0.469299
0.000000 0.612335 0.460022
0.000000 0.618378 0.444305
0.044342 0.621277 0.428345
0.172485 0.621796 0.411072
0.267517 0.621796 0.390320
0.345490 0.621582 0.364563
0.413757 0.621033 0.333069
0.475861 0.620300 0.296814
0.532288 0.619537 0.255920
0.581177 0.619293 0.215973
0.616486 0.620605 0.196594
0.647461 0.622162 0.180298
0.673218 0.625000 0.160065
0.693939 0.628937 0.137024
0.711182 0.633392 0.113251
0.727966 0.637756 0.092743
0.745758 0.641571 0.076965
0.765289 0.644653 0.064545
0.786560 0.647369 0.057281
0.809204 0.649445 0.054474
0.833160 0.651184 0.052246
0.860046 0.651917 0.051300
0.888153 0.652313 0.050720
0.915161 0.652710 0.050537
0.927368 0.652924 0.050354
0.939606 0.653198 0.050171
0.951843 0.653381 0.050171
0.000000 0.622559 0.508606
0.000000 0.623840 0.507568
0.000000 0.625946 0.505920
0.000000 0.628601 0.503418
0.000000 0.631683 0.499817
0.000000 0.635010 0.494904
0.000000 0.639496 0.486633
0.000000 0.644989 0.473938
0.024048 0.649811 0.456970
0.125427 0.651398 0.440155
0.237885 0.651581 0.421295
0.322754 0.651367 0.397736
0.395996 0.650940 0.369171
0.461487 0.650269 0.335449
0.520874 0.649628 0.297272
0.574371 0.648865 0.255127
0.618530 0.648987 0.218842
0.650726 0.650574 0.201935
0.680176 0.652313 0.185364
0.703949 0.655457 0.164093
0.722870 0.659546 0.139740
0.739105 0.663940 0.115509
0.755280 0.668213 0.094666
0.773010 0.671875 0.078400
0.792572 0.674957 0.066071
0.813934 0.677338 0.057800
0.836823 0.679321 0.054626
0.861145 0.680756 0.052246
0.887756 0.681488 0.050934
0.914856 0.681854 0.050537
0.927094 0.682068 0.050171
0.939362 0.682190 0.049957
0.951660 0.682312 0.049774
0.000000 0.650085 0.531952
0.000000 0.651520 0.531006
0.000000 0.653503 0.529449
0.000000 0.655914 0.527313
0.000000 0.658997 0.523987
0.000000 0.662262 0.519592
0.000000 0.666534 0.512421
0.000000 0.672028 0.501160
0.000000 0.677948 0.484741
0.066162 0.680664 0.468140
0.204529 0.680908 0.450928
0.297516 0.680908 0.429352
0.375824 0.680573 0.403229
0.445648 0.680023 0.372620
0.508118 0.679382 0.337006
0.564545 0.678619 0.297119
0.614197 0.678101 0.255432
0.653412 0.678711 0.224548
0.683838 0.680511 0.207672
0.711853 0.682495 0.190948
0.733551 0.685852 0.168488
0.750671 0.690125 0.142700
0.766144 0.694580 0.118286
0.782013 0.698853 0.096832
0.799896 0.702301 0.080444
0.819702 0.705170 0.067535
0.841248 0.707428 0.058319
0.864624 0.709015 0.054810
0.889313 0.710236 0.052246
0.914795 0.710876 0.050537
0.926819 0.711151 0.049957
0.939117 0.711243 0.049774
0.951447 0.711365 0.049561
0.000000 0.677612 0.555145
0.000000 0.679169 0.554138
0.000000 0.680908 0.552734
0.000000 0.683289 0.550751
0.000000 0.686218 0.547852
0.000000 0.689728 0.543549
0.000000 0.693665 0.537170
0.000000 0.698761 0.527222
0.000000 0.704773 0.512756
0.024384 0.709473 0.495209
0.166992 0.710022 0.479492
0.270569 0.710052 0.459778
0.354034 0.709991 0.435638
0.427643 0.709595 0.407532
0.494110 0.708984 0.375061
0.553345 0.708252 0.337830
0.606598 0.707611 0.296448
0.651428 0.707611 0.257874
0.686890 0.708679 0.230682
0.715698 0.710602 0.213837
0.742188 0.712769 0.196991
0.761871 0.716431 0.173370
0.777435 0.721039 0.146576
0.792419 0.725433 0.121552
0.808289 0.729584 0.099640
0.826355 0.732849 0.082855
0.846497 0.735443 0.069397
0.868591 0.737457 0.058685
0.892365 0.738739 0.054993
0.915497 0.739685 0.052246
0.926819 0.740112 0.050171
0.938965 0.740265 0.049561
0.951324 0.740326 0.049377
0.000000 0.704987 0.578033
0.000000 0.706635 0.576874
0.000000 0.708405 0.575562
0.000000 0.710602 0.573608
0.000000 0.713348 0.570923
0.000000 0.716919 0.566864
0.000000 0.720703 0.561066
0.000000 0.725616 0.552094
0.000000 0.731323 0.539215
0.014130 0.736603 0.522827
0.123627 0.738678 0.506531
0.241974 0.739044 0.488647
0.331238 0.739044 0.466522
0.408936 0.738739 0.440613
0.478455 0.738342 0.410675
0.541199 0.737701 0.376678
0.596893 0.737122 0.338074
0.646332 0.736633 0.296173
0.687195 0.737122 0.261078
0.719177 0.738617 0.237518
0.746246 0.740784 0.220581
0.771179 0.743225 0.203796
0.788666 0.747284 0.178619
0.803314 0.751953 0.150604
0.818207 0.756378 0.125061
0.834290 0.760254 0.102356
0.852600 0.763428 0.084900
0.873352 0.765686 0.070526
0.896088 0.767273 0.059479
0.916748 0.768341 0.055176
0.927643 0.769043 0.052246
0.939117 0.769196 0.050171
0.951324 0.769196 0.049377
0.000000 0.731995 0.600616
0.000000 0.733795 0.599396
0.000000 0.735840 0.597931
0.000000 0.738251 0.595917
0.000000 0.740936 0.593170
0.000000 0.743774 0.589722
0.000000 0.747864 0.584137
0.000000 0.752258 0.576416
0.000000 0.757782 0.564545
0.009430 0.763428 0.549103
0.063019 0.767151 0.532257
0.212585 0.767548 0.516266
0.308075 0.767761 0.496033
0.390015 0.767700 0.472168
0.462555 0.767426 0.444550
0.527924 0.766937 0.413269
0.586700 0.766327 0.377930
0.638153 0.766022 0.339111
0.684296 0.765778 0.297363
0.721710 0.766602 0.264496
0.750183 0.768707 0.245117
0.775452 0.771149 0.227997
0.798492 0.773865 0.211334
