public/LUTs/Malitine.cube
# Copyright: (C) Copyright 2010-2018 by IWLTBAP SAS
# Cannot be resold, shared or otherwise redistributed
# Website: https://luts.iwltbap.com
TITLE "IWLTBAP Malitine (Rec.709, sRGB, DCI-P3)"
LUT_3D_SIZE 33
0.000671 0.000000 0.002289
0.024414 0.001740 0.003235
0.052246 0.003754 0.006256
0.081421 0.006500 0.009277
0.112091 0.009277 0.012756
0.144379 0.012756 0.016205
0.177887 0.016205 0.019012
0.212280 0.019592 0.021210
0.247009 0.022583 0.022736
0.281586 0.025421 0.023407
0.315765 0.028046 0.023743
0.349213 0.030457 0.023743
0.382019 0.032715 0.023743
0.414124 0.034851 0.023743
0.445587 0.036865 0.023895
0.476501 0.039001 0.024200
0.510712 0.040924 0.024536
0.540405 0.042847 0.025146
0.569580 0.044586 0.025604
0.598297 0.046448 0.026184
0.626678 0.048157 0.026794
0.654907 0.049866 0.027496
0.683136 0.051605 0.028076
0.711487 0.053375 0.028625
0.740021 0.055237 0.029144
0.768768 0.057068 0.029694
0.797607 0.058990 0.030212
0.826416 0.060852 0.030731
0.855011 0.062653 0.031128
0.883301 0.064331 0.031494
0.911255 0.065918 0.031891
0.938873 0.067383 0.032257
0.966309 0.068787 0.032501
0.025269 0.013397 0.051666
0.033813 0.022095 0.044983
0.055573 0.029846 0.020142
0.082794 0.032349 0.022064
0.111725 0.035065 0.024353
0.142700 0.038147 0.026184
0.175385 0.041443 0.027618
0.209534 0.044708 0.028198
0.244446 0.047791 0.028046
0.279572 0.050720 0.027344
0.314331 0.053314 0.026337
0.348541 0.055725 0.025269
0.381989 0.057953 0.024536
0.414673 0.060211 0.023895
0.446625 0.062408 0.023560
0.477875 0.064514 0.023560
0.512390 0.066528 0.023743
0.542328 0.068542 0.024048
0.571655 0.070374 0.024353
0.600525 0.072205 0.024841
0.629028 0.073914 0.025299
0.657349 0.075653 0.025757
0.685608 0.077332 0.026184
0.714020 0.079071 0.026794
0.742584 0.080780 0.027222
0.771332 0.082550 0.027649
0.800140 0.084351 0.028076
0.828918 0.086060 0.028473
0.857483 0.087799 0.028900
0.885742 0.089386 0.029144
0.913666 0.090881 0.029419
0.941223 0.092316 0.029694
0.968658 0.093628 0.030090
0.052277 0.028381 0.102997
0.054901 0.035095 0.104462
0.060638 0.046051 0.086609
0.084259 0.058197 0.035858
0.111176 0.060883 0.036865
0.140625 0.063843 0.037415
0.172363 0.067139 0.037292
0.206177 0.070251 0.036316
0.241241 0.073242 0.034637
0.276855 0.076080 0.032471
0.312347 0.078735 0.030060
0.347351 0.081207 0.027893
0.381561 0.083527 0.025879
0.414917 0.085846 0.024536
0.447418 0.088013 0.023743
0.479095 0.090179 0.023254
0.513916 0.092255 0.023071
0.544067 0.094330 0.023254
0.573608 0.096222 0.023407
0.602631 0.098053 0.023743
0.631256 0.099762 0.023895
0.659637 0.101501 0.024200
0.688019 0.103088 0.024536
0.716461 0.104767 0.024841
0.745056 0.106415 0.025299
0.773804 0.108063 0.025604
0.802612 0.109772 0.025909
0.831329 0.111389 0.026184
0.859863 0.113037 0.026489
0.888123 0.114563 0.026794
0.915985 0.115967 0.027069
0.943542 0.117340 0.027344
0.970947 0.118622 0.027496
0.082153 0.044739 0.157684
0.077576 0.051025 0.158173
0.075134 0.058563 0.154022
0.080872 0.071045 0.126495
0.110931 0.087189 0.050751
0.138458 0.089996 0.050262
0.168945 0.092957 0.048981
0.201965 0.095947 0.046692
0.236938 0.099030 0.043671
0.273010 0.101898 0.039886
0.309265 0.104462 0.036102
0.345154 0.106964 0.032349
0.380341 0.109436 0.029144
0.414551 0.111664 0.026489
0.447723 0.113983 0.024841
0.479919 0.116180 0.023743
0.515167 0.118378 0.023071
0.545624 0.120392 0.022766
0.575348 0.122345 0.022766
0.604523 0.124146 0.022766
0.633270 0.125824 0.022919
0.661804 0.127472 0.023071
0.690216 0.129028 0.023254
0.718719 0.130585 0.023407
0.747345 0.132141 0.023560
0.776123 0.133728 0.023743
0.804901 0.135345 0.024048
0.833618 0.136902 0.024200
0.862122 0.138428 0.024353
0.890350 0.139893 0.024689
0.918213 0.141205 0.024841
0.945740 0.142487 0.024994
0.973114 0.143707 0.025146
0.115509 0.062805 0.215485
0.103973 0.068939 0.213684
0.093506 0.075897 0.209106
0.089111 0.083618 0.202759
0.097382 0.096619 0.165314
0.136627 0.116272 0.065063
0.164978 0.119202 0.062958
0.196747 0.122131 0.059723
0.231293 0.125183 0.055420
0.267578 0.128021 0.050354
0.304657 0.130737 0.044922
0.341614 0.133240 0.039612
0.377869 0.135712 0.034637
0.413147 0.138123 0.030609
0.447205 0.140411 0.027496
0.480133 0.142609 0.025421
0.515869 0.144745 0.024048
0.546753 0.146759 0.023254
0.576782 0.148743 0.022766
0.606171 0.150452 0.022583
0.635071 0.152130 0.022430
0.663666 0.153687 0.022430
0.692200 0.155212 0.022430
0.720764 0.156708 0.022430
0.749420 0.158173 0.022430
0.778198 0.159668 0.022430
0.806976 0.161163 0.022583
0.835693 0.162659 0.022583
0.864197 0.164093 0.022766
0.892395 0.165466 0.022766
0.920258 0.166748 0.022766
0.947784 0.167938 0.022919
0.975128 0.169098 0.022919
0.151245 0.082397 0.275238
0.133789 0.087402 0.271515
0.117493 0.093719 0.267273
0.104340 0.100891 0.259308
0.098572 0.108521 0.251282
0.110779 0.123291 0.203644
0.155945 0.143097 0.098572
0.191071 0.148651 0.075256
0.224396 0.151611 0.070221
0.260498 0.154572 0.064026
0.298065 0.157410 0.057129
0.336060 0.160034 0.050110
0.373657 0.162598 0.043396
0.410217 0.165039 0.037506
0.445465 0.167297 0.032715
0.479370 0.169556 0.029144
0.515930 0.171722 0.026611
0.547333 0.173676 0.024963
0.577789 0.175537 0.023895
0.607422 0.177277 0.023254
0.636505 0.178894 0.022766
0.665283 0.180389 0.022430
0.693909 0.181793 0.022247
0.722534 0.183197 0.021912
0.751282 0.184570 0.021912
0.780060 0.186005 0.021729
0.808868 0.187378 0.021576
0.837555 0.188812 0.021576
0.866058 0.190155 0.021576
0.894226 0.191467 0.021393
0.922058 0.192657 0.021393
0.949615 0.193787 0.021393
0.976959 0.194885 0.021210
0.188171 0.102234 0.335419
0.167328 0.107147 0.330627
0.146545 0.112213 0.326752
0.126434 0.118744 0.318695
0.111389 0.126251 0.309814
0.104736 0.134583 0.299988
0.121674 0.150116 0.241974
0.173065 0.170258 0.132568
0.216766 0.178436 0.087585
0.251770 0.181427 0.080658
0.289429 0.184418 0.072693
0.328308 0.187225 0.064148
0.367279 0.189911 0.055573
0.405334 0.192413 0.047638
0.442139 0.194885 0.040802
0.477295 0.197144 0.035431
0.514923 0.199249 0.031372
0.547119 0.201202 0.028473
0.578156 0.203033 0.026489
0.608276 0.204651 0.024963
0.637665 0.206146 0.024048
0.666626 0.207550 0.023254
0.695404 0.208893 0.022766
0.724121 0.210205 0.022247
0.752899 0.211517 0.021912
0.781708 0.212830 0.021729
0.810516 0.214111 0.021393
0.839203 0.215363 0.021210
0.867676 0.216675 0.021057
0.895874 0.217896 0.020874
0.923706 0.219055 0.020691
0.951233 0.220123 0.020508
0.978577 0.221161 0.020325
0.224670 0.122375 0.394531
0.202911 0.126556 0.389526
0.179810 0.131195 0.385559
0.155060 0.137177 0.379333
0.131836 0.144196 0.370758
0.114868 0.152374 0.360687
0.108063 0.160797 0.348938
0.131012 0.177765 0.280182
0.188721 0.197815 0.166626
0.242310 0.208496 0.099731
0.279114 0.211639 0.091064
0.318298 0.214722 0.081360
0.358368 0.217651 0.071228
0.398132 0.220337 0.061371
0.436676 0.222931 0.052368
0.473572 0.225250 0.044769
0.512543 0.227417 0.038666
0.545898 0.229370 0.034027
0.577820 0.231110 0.030609
0.608521 0.232697 0.028198
0.638397 0.234100 0.026489
0.667664 0.235443 0.025116
0.696655 0.236664 0.024200
0.725525 0.237823 0.023407
0.754364 0.239014 0.022766
0.783203 0.240173 0.022247
0.812012 0.241394 0.021912
0.840698 0.242584 0.021576
0.869141 0.243805 0.021210
0.897339 0.244904 0.020874
0.925171 0.246002 0.020508
0.952667 0.246979 0.020142
0.980011 0.247925 0.019958
0.259003 0.142578 0.451874
0.238251 0.146149 0.447174
0.215363 0.150452 0.443604
0.188965 0.155396 0.439850
0.160156 0.162262 0.431946
0.133728 0.169922 0.422974
0.114899 0.178680 0.411560
0.108948 0.187683 0.397278
0.139709 0.205902 0.317596
0.203766 0.225983 0.200134
0.267944 0.238922 0.111511
0.306458 0.242279 0.101166
0.347168 0.245514 0.089935
0.388397 0.248596 0.078430
0.428864 0.251404 0.067383
0.467682 0.253967 0.057404
0.508484 0.256226 0.049042
0.543365 0.258179 0.042267
0.576447 0.259888 0.037079
0.608063 0.261444 0.033203
0.638611 0.262756 0.030212
0.668365 0.263977 0.028046
0.697662 0.265076 0.026489
0.726746 0.266144 0.025269
0.755707 0.267212 0.024353
0.784607 0.268280 0.023560
0.813416 0.269318 0.022919
0.842102 0.270447 0.022430
0.870544 0.271515 0.021912
0.898682 0.272583 0.021393
0.926483 0.273529 0.021057
0.953979 0.274414 0.020691
0.981293 0.275299 0.020142
0.290192 0.162170 0.506714
0.271759 0.165833 0.502869
0.250793 0.169373 0.500122
0.225189 0.173767 0.498260
0.194153 0.180084 0.492157
0.161499 0.187347 0.484436
0.132233 0.195831 0.474518
0.113007 0.205109 0.460999
0.109497 0.215057 0.443726
0.148865 0.234497 0.353149
0.219147 0.254822 0.232269
0.287903 0.268280 0.139038
0.334381 0.273468 0.110901
0.376404 0.276947 0.098236
0.418640 0.280212 0.085571
0.459534 0.283051 0.073547
0.502411 0.285522 0.062775
0.539124 0.287659 0.053650
0.573761 0.289429 0.046265
0.606659 0.290955 0.040405
0.638123 0.292206 0.035980
0.668610 0.293304 0.032471
0.698425 0.294281 0.029938
0.727814 0.295258 0.028046
0.756958 0.296143 0.026611
0.785950 0.297089 0.025421
0.814819 0.298004 0.024506
0.843445 0.298981 0.023712
0.871887 0.299927 0.023071
0.899994 0.300842 0.022583
0.927765 0.301697 0.021912
0.955231 0.302521 0.021393
0.982513 0.303314 0.020874
0.317596 0.181763 0.558960
0.302185 0.184784 0.555969
0.284363 0.188171 0.554199
0.261200 0.192108 0.553192
0.231293 0.197510 0.549988
0.195923 0.204437 0.543701
0.160095 0.212524 0.535400
0.129700 0.221741 0.523682
0.111786 0.231842 0.507660
0.111816 0.242889 0.486847
0.160278 0.264008 0.385925
0.235901 0.284607 0.262634
0.308899 0.298431 0.165955
0.363190 0.305267 0.120056
0.406464 0.309021 0.106354
0.449310 0.312378 0.092743
0.490387 0.315216 0.079895
0.533051 0.317596 0.068420
0.569519 0.319550 0.058655
0.603943 0.321075 0.050598
0.636688 0.322357 0.044037
0.668152 0.323364 0.038971
0.698669 0.324249 0.035095
0.728577 0.325073 0.032104
0.758057 0.325836 0.029816
0.787201 0.326599 0.028046
0.816132 0.327393 0.026764
0.844818 0.328217 0.025726
0.873199 0.329010 0.024811
0.901276 0.329773 0.024048
0.929016 0.330505 0.023407
0.956421 0.331177 0.022736
0.983673 0.331848 0.022064
0.341187 0.200897 0.608307
0.329132 0.203613 0.606293
0.314606 0.206665 0.605255
0.295349 0.210022 0.605072
0.268982 0.214600 0.604553
0.234497 0.221039 0.599396
0.195953 0.228607 0.592743
0.158417 0.237610 0.583069
0.128998 0.247833 0.568970
0.113708 0.259216 0.549988
0.118256 0.271698 0.525726
0.175476 0.294708 0.415466
0.256042 0.315613 0.290741
0.332275 0.329773 0.191467
0.393585 0.337738 0.128601
0.437622 0.341675 0.114105
0.480530 0.345062 0.099854
0.525208 0.347809 0.086456
0.563599 0.350006 0.074432
0.599731 0.351715 0.064026
0.633972 0.352997 0.055206
0.666687 0.354034 0.048065
0.698212 0.354858 0.042358
0.728851 0.355560 0.037842
0.758820 0.356201 0.034393
0.788300 0.356842 0.031860
0.817383 0.357513 0.029816
0.846100 0.358154 0.028320
0.874512 0.358765 0.027069
0.902527 0.359375 0.026031
0.930237 0.359924 0.025269
0.957611 0.360474 0.024353
0.984833 0.360992 0.023712
0.361969 0.219269 0.654510
0.352905 0.221710 0.653259
0.341827 0.224487 0.652924
0.326538 0.227570 0.653259
0.304810 0.231445 0.654144
0.274323 0.237122 0.650726
0.237152 0.244232 0.645294
0.197021 0.252899 0.637421
0.159576 0.262878 0.625610
0.132202 0.274597 0.608734
0.121613 0.287689 0.586823
0.132050 0.302338 0.559326
0.197968 0.327148 0.441040
0.281830 0.348175 0.316101
0.359680 0.362335 0.215393
0.425903 0.370728 0.136597
0.469879 0.374725 0.121735
0.516113 0.377991 0.107178
0.556183 0.380585 0.093384
0.594025 0.382538 0.080841
0.629852 0.384003 0.069733
0.663971 0.385071 0.060242
0.696747 0.385864 0.052368
0.728363 0.386536 0.045990
0.759064 0.387115 0.040985
0.789032 0.387634 0.037079
0.818420 0.388153 0.034149
0.847321 0.388611 0.031860
0.875763 0.389099 0.030212
0.903809 0.389526 0.028748
0.931427 0.389954 0.027618
0.958771 0.390320 0.026611
0.985931 0.390686 0.025726
0.380829 0.237030 0.697357
0.374298 0.239441 0.696625
0.366150 0.241974 0.696655
0.354645 0.244812 0.697296
0.337921 0.248077 0.698364
0.313263 0.252991 0.697144
0.280579 0.259613 0.692352
0.241974 0.267822 0.685699
0.201843 0.277588 0.675690
0.166931 0.289307 0.661224
0.144135 0.302979 0.641541
0.139893 0.318481 0.616821
0.157654 0.335327 0.586823
0.230591 0.361481 0.462280
0.314880 0.382416 0.338562
0.391663 0.396027 0.237793
0.456451 0.403931 0.157440
0.506714 0.407990 0.129486
0.547882 0.411041 0.114777
0.587067 0.413361 0.100739
0.624359 0.415070 0.087616
0.659943 0.416260 0.075928
0.694061 0.417114 0.065643
0.726837 0.417786 0.057068
0.758514 0.418304 0.050018
0.789185 0.418732 0.044403
0.819061 0.419159 0.040100
0.848267 0.419525 0.036743
0.876862 0.419861 0.034271
0.904968 0.420135 0.032227
0.932617 0.420410 0.030731
0.959930 0.420654 0.029419
0.987030 0.420868 0.028320
0.399017 0.254578 0.736389
0.394440 0.256805 0.735931
0.388702 0.259155 0.736053
0.380585 0.261780 0.736725
0.368439 0.264954 0.737671
0.350189 0.268890 0.738098
0.323578 0.275146 0.733337
0.290222 0.282959 0.727112
0.252350 0.292480 0.718292
0.214722 0.304169 0.705627
0.184387 0.318054 0.688232
0.168152 0.334137 0.666168
0.172089 0.352081 0.639435
0.197723 0.371124 0.608063
0.273590 0.397858 0.479706
0.354645 0.417816 0.358765
0.427277 0.430481 0.259216
0.488647 0.437561 0.178467
0.539642 0.441193 0.137482
0.579529 0.443939 0.122803
0.617828 0.445953 0.108490
0.654633 0.447357 0.094879
0.690063 0.448334 0.082428
0.724121 0.449036 0.071503
0.756927 0.449554 0.062134
0.788544 0.449982 0.054413
0.819122 0.450317 0.048218
0.848816 0.450623 0.043488
0.877716 0.450867 0.039703
0.905975 0.451019 0.036865
0.933685 0.451172 0.034729
0.961029 0.451263 0.032837
0.988129 0.451355 0.031372
0.417908 0.272247 0.771088
0.414856 0.274567 0.770599
0.411072 0.276764 0.770691
0.405609 0.279175 0.771027
0.397308 0.282257 0.771515
0.384644 0.285919 0.771881
0.365173 0.291565 0.767853
0.338745 0.299103 0.761444
0.306549 0.308289 0.752899
0.271515 0.319824 0.741241
0.238708 0.333740 0.725861
0.215332 0.350189 0.706177
0.207367 0.368896 0.682678
0.219025 0.388977 0.655396
0.250153 0.409393 0.624481
0.323914 0.435608 0.494659
0.397980 0.454010 0.377960
0.464203 0.465363 0.280365
0.525177 0.471375 0.199677
0.572205 0.474091 0.145874
0.610870 0.476501 0.131226
0.648438 0.478180 0.116608
0.684906 0.479340 0.102509
0.720123 0.480164 0.089386
0.754150 0.480743 0.077698
0.786835 0.481171 0.067596
0.818359 0.481506 0.059174
0.848724 0.481750 0.052460
0.878143 0.481903 0.047119
0.906708 0.481995 0.042999
0.934601 0.482025 0.039795
0.962036 0.482025 0.037201
0.989227 0.482025 0.034973
0.438843 0.290955 0.800842
0.437012 0.293243 0.800232
0.434692 0.295532 0.799896
0.431152 0.298035 0.799835
0.425964 0.300873 0.799652
0.417755 0.304535 0.799164
0.404755 0.309662 0.795990
0.385498 0.317017 0.788788
0.360779 0.326019 0.779785
0.331604 0.337280 0.768463
0.301178 0.351074 0.754181
0.275146 0.367493 0.736755
0.259552 0.386383 0.716187
0.259094 0.407074 0.693054
0.276215 0.428406 0.667145
0.308716 0.449402 0.638733
0.375824 0.473969 0.509125
0.441132 0.490295 0.397156
0.504608 0.500092 0.301788
0.557556 0.504974 0.221252
0.604340 0.506622 0.154663
0.642029 0.508636 0.140015
0.679016 0.510071 0.125122
0.715118 0.511047 0.110504
0.750183 0.511719 0.096741
0.783997 0.512238 0.084320
0.816559 0.512543 0.073547
0.847809 0.512787 0.064453
0.877930 0.512909 0.057068
0.907013 0.512939 0.051147
0.935272 0.512909 0.046509
0.962921 0.512848 0.042633
0.990295 0.512726 0.039307
0.462891 0.311584 0.825134
0.461975 0.313812 0.824188
0.460693 0.316132 0.823456
0.458679 0.318787 0.822815
0.455566 0.321869 0.821869
0.450745 0.325562 0.820404
0.442993 0.330383 0.817871
0.429932 0.337494 0.809662
0.412506 0.346466 0.799927
0.390320 0.357422 0.788330
0.365204 0.370880 0.774719
0.340454 0.386932 0.758972
0.321167 0.405640 0.741180
0.312225 0.426239 0.721741
0.316925 0.447784 0.700745
0.335602 0.469452 0.678131
0.367218 0.490326 0.648010
0.425171 0.512024 0.524536
0.482269 0.526154 0.417023
0.539978 0.534271 0.323700
0.589508 0.538147 0.243256
0.634735 0.539215 0.174988
0.672974 0.540405 0.149139
0.709473 0.541595 0.134003
0.745239 0.542419 0.118958
0.780029 0.542999 0.104614
0.813629 0.543396 0.091461
0.845886 0.543640 0.079926
0.876862 0.543762 0.070099
0.906708 0.543762 0.062012
0.935486 0.543671 0.055359
0.963623 0.543518 0.049713
0.991394 0.543335 0.044769
0.490723 0.334930 0.843536
0.490387 0.337280 0.842255
0.489777 0.339752 0.841095
0.488831 0.342499 0.839813
0.487122 0.345734 0.838226
0.484497 0.349548 0.835907
0.480103 0.354431 0.832611
0.472198 0.361389 0.824951
0.460510 0.370117 0.814484
0.444977 0.380798 0.802582
0.425720 0.393707 0.789337
0.404602 0.409180 0.774872
0.384979 0.427032 0.759460
0.371216 0.447021 0.743256
0.366699 0.468262 0.726532
0.373505 0.489868 0.709198
0.391479 0.510681 0.690430
0.420990 0.530365 0.658112
0.470642 0.549072 0.541290
0.525177 0.561035 0.437714
0.574402 0.567749 0.346069
0.621185 0.570831 0.265686
0.665039 0.571442 0.196259
0.703827 0.571838 0.158661
0.739777 0.572876 0.143372
0.775208 0.573578 0.127930
0.809662 0.574005 0.112946
0.842957 0.574310 0.099060
0.874908 0.574402 0.086761
0.905609 0.574371 0.076080
0.935211 0.574249 0.066956
0.964020 0.574036 0.059052
0.992401 0.573792 0.051758
0.525726 0.361847 0.856293
0.525787 0.364258 0.854706
0.525665 0.366791 0.853180
0.525299 0.369690 0.851410
0.524628 0.373108 0.849213
0.523315 0.377167 0.846283
0.521057 0.382080 0.842316
0.516693 0.388672 0.835663
0.509003 0.397247 0.824921
0.494873 0.407440 0.812927
0.480438 0.419678 0.800079
0.463654 0.434143 0.786652
0.445831 0.450928 0.773102
0.430145 0.469727 0.759674
0.420074 0.490082 0.746521
0.418152 0.510925 0.733551
0.425812 0.531525 0.720032
0.442749 0.550873 0.705170
0.469757 0.568909 0.670593
0.517059 0.584900 0.559296
0.562592 0.594940 0.459015
0.608185 0.600555 0.368896
0.652649 0.602966 0.288666
0.695190 0.603363 0.218445
0.734436 0.603088 0.168976
0.769958 0.603943 0.153351
0.805023 0.604523 0.137268
0.839111 0.604828 0.121674
0.872040 0.604980 0.107117
0.903717 0.604919 0.093933
0.934265 0.604736 0.082062
0.963959 0.604462 0.071381
0.993225 0.604126 0.061371
0.559387 0.392426 0.864044
0.559601 0.394897 0.862274
0.559784 0.397552 0.860504
0.559723 0.400421 0.858429
0.559509 0.403900 0.855927
0.558929 0.408081 0.852631
0.557770 0.413147 0.848480
0.555664 0.419189 0.843201
0.550415 0.427551 0.832550
0.543152 0.437256 0.821014
0.533051 0.448669 0.808807
0.520111 0.461945 0.796417
0.505096 0.477295 0.784424
0.485901 0.494507 0.773193
0.473236 0.513397 0.762787
0.465820 0.533112 0.753174
0.465851 0.552887 0.743774
0.474030 0.571960 0.733795
0.490021 0.589600 0.722168
0.519073 0.605835 0.684967
0.557556 0.619537 0.578247
0.598999 0.628113 0.480835
0.641510 0.632843 0.392334
0.683777 0.634857 0.312714
0.724579 0.635193 0.243042
0.764923 0.634216 0.179626
0.800171 0.634888 0.163239
0.834778 0.635284 0.146820
0.868408 0.635468 0.130798
0.901031 0.635406 0.115448
0.932617 0.635162 0.101074
0.963379 0.634857 0.087555
0.993683 0.634430 0.074585
0.594238 0.426361 0.868134
0.594513 0.428772 0.866364
0.594727 0.431305 0.864471
0.594818 0.434235 0.862335
0.594788 0.437744 0.859772
0.594513 0.441864 0.856537
0.593872 0.446838 0.852448
0.592560 0.452789 0.847443
0.589233 0.460388 0.838959
0.583893 0.469421 0.828125
0.576508 0.479889 0.816895
0.566681 0.491943 0.805634
0.554413 0.505676 0.795013
0.540833 0.521179 0.785431
0.527802 0.538239 0.777100
0.517700 0.556366 0.769897
0.512909 0.574982 0.763458
0.514679 0.593384 0.757141
0.523468 0.610809 0.749969
0.538757 0.626770 0.740967
0.562103 0.641388 0.700806
0.596680 0.653320 0.598053
0.634705 0.660706 0.503265
0.674591 0.664825 0.416260
0.714966 0.666565 0.337097
0.755096 0.666687 0.265442
0.795044 0.665649 0.199493
0.830414 0.665741 0.173187
0.864410 0.665955 0.156769
0.897736 0.665955 0.140198
0.930237 0.665710 0.123901
0.962097 0.665344 0.107971
0.993561 0.664886 0.092377
0.628876 0.462891 0.870331
0.629120 0.465210 0.868683
0.629242 0.467651 0.866913
0.629364 0.470520 0.864899
0.629333 0.473846 0.862457
0.629120 0.477753 0.859467
0.628693 0.482544 0.855804
0.627808 0.488159 0.851410
0.625641 0.494934 0.845123
0.621368 0.503296 0.835449
0.615723 0.512848 0.825378
0.608154 0.523621 0.815369
0.598419 0.535797 0.805969
0.587036 0.549530 0.797791
0.575073 0.564697 0.790894
0.564362 0.581116 0.785400
0.556946 0.598236 0.780884
0.554504 0.615570 0.777100
0.557892 0.632477 0.773102
0.567230 0.648438 0.768097
0.581879 0.662903 0.761169
0.603821 0.676086 0.717773
0.635071 0.686584 0.618408
0.670319 0.693085 0.525879
0.707977 0.696716 0.439728
0.747040 0.698120 0.359772
0.786377 0.698090 0.286407
0.824951 0.697083 0.220795
0.860596 0.696533 0.183624
0.894165 0.696594 0.167023
0.927307 0.696411 0.149872
0.960022 0.696014 0.132538
0.992523 0.695557 0.115173
0.662384 0.501129 0.872345
0.662506 0.503296 0.870880
0.662567 0.505646 0.869354
0.662567 0.508240 0.867584
0.662537 0.511322 0.865448
0.662292 0.515167 0.862946
0.661774 0.519501 0.859833
0.661041 0.524689 0.856232
0.659760 0.530731 0.851959
0.656189 0.538300 0.843811
0.651581 0.546875 0.835052
0.645691 0.556458 0.826385
0.638153 0.567200 0.818146
0.629028 0.579285 0.810944
0.618774 0.592682 0.805054
0.608734 0.607269 0.800629
0.600494 0.622864 0.797516
0.595734 0.638916 0.795258
0.595490 0.654999 0.793304
0.600281 0.670593 0.791138
0.610016 0.685181 0.787720
0.624207 0.698425 0.782379
0.644714 0.710449 0.735535
0.673187 0.719635 0.638855
0.705963 0.725372 0.548065
0.741638 0.728516 0.462738
0.779022 0.729706 0.382996
0.817017 0.729492 0.309479
0.854706 0.728424 0.242859
0.890778 0.727325 0.194427
0.924103 0.727264 0.177795
0.957306 0.726990 0.160400
0.990417 0.726593 0.142700
0.694122 0.540405 0.875580
0.694122 0.542358 0.874420
0.694122 0.544495 0.873138
0.694092 0.546875 0.871674
0.693909 0.549744 0.869934
0.693573 0.553192 0.867950
0.693176 0.557220 0.865509
0.692444 0.561981 0.862701
0.691406 0.567383 0.859406
0.688843 0.574066 0.853638
0.684998 0.581726 0.846161
0.680359 0.590271 0.838745
0.674561 0.599701 0.831573
0.667450 0.610321 0.825256
0.659210 0.622040 0.820190
0.650574 0.635071 0.816498
0.642731 0.649017 0.814148
0.636993 0.663818 0.812805
0.634674 0.678894 0.812134
0.636383 0.693817 0.811584
0.642303 0.708160 0.810516
0.652283 0.721497 0.808350
0.665985 0.733612 0.804138
0.685089 0.744446 0.753510
0.711151 0.752563 0.659210
0.741577 0.757599 0.570099
0.775208 0.760254 0.485840
0.810822 0.761139 0.406647
0.847534 0.760834 0.332977
0.884491 0.759705 0.265625
0.921021 0.758179 0.205902
0.954071 0.758087 0.189941
0.987274 0.757874 0.173370
0.723969 0.580139 0.880890
0.723969 0.581940 0.880035
0.723846 0.583832 0.879059
0.723724 0.585999 0.877960
0.723541 0.588562 0.876617
0.723236 0.591675 0.875092
0.722809 0.595337 0.873260
0.722198 0.599640 0.871185
0.721344 0.604584 0.868744
0.719727 0.610260 0.865234
0.716461 0.617188 0.858948
0.712769 0.624847 0.852600
0.708435 0.633270 0.846466
0.703094 0.642578 0.840973
0.696716 0.653015 0.836456
0.689789 0.664490 0.833252
0.683014 0.677032 0.831421
0.677399 0.690399 0.830566
0.674103 0.704346 0.830475
0.673950 0.718384 0.830811
0.677246 0.732208 0.831146
0.684082 0.745361 0.830841
0.694183 0.757477 0.829285
0.707367 0.768433 0.825958
0.725006 0.778198 0.771301
0.748779 0.785248 0.679169
0.776947 0.789581 0.591736
0.808502 0.791809 0.508698
0.842468 0.792450 0.430267
0.877930 0.792053 0.356934
0.914001 0.790985 0.289551
0.950073 0.789612 0.228943
0.983398 0.789276 0.204926
0.752167 0.620178 0.888641
0.752136 0.621704 0.888031
0.752045 0.623474 0.887299
0.751923 0.625458 0.886505
0.751740 0.627777 0.885590
0.751495 0.630585 0.884491
0.751160 0.633911 0.883209
0.750641 0.637726 0.881744
0.750061 0.642212 0.880035
0.749237 0.647217 0.878204
0.746674 0.653412 0.873169
0.743713 0.660370 0.867828
0.740417 0.667847 0.862640
0.736481 0.676208 0.857849
0.731934 0.685394 0.853882
0.726654 0.695618 0.851044
0.721191 0.706818 0.849365
0.716309 0.718903 0.848846
0.712921 0.731598 0.849030
0.711853 0.744598 0.849670
0.713501 0.757568 0.850555
0.718140 0.770142 0.851196
0.725616 0.782013 0.851196
