public/LUTs/Malitine.cube
# Copyright: (C) Copyright 2010-2018 by IWLTBAP SAS
# Cannot be resold, shared or otherwise redistributed
# Website: https://luts.iwltbap.com
TITLE "IWLTBAP Malitine (Rec.709, sRGB, DCI-P3)"
LUT_3D_SIZE 9
0.000671 0.000000 0.002289
0.112091 0.009277 0.012756
0.247009 0.022583 0.022736
0.382019 0.032715 0.023743
0.510712 0.040924 0.024536
0.626678 0.048157 0.026794
0.740021 0.055237 0.029144
0.855011 0.062653 0.031128
0.966309 0.068787 0.032501
0.115509 0.062805 0.215485
0.097382 0.096619 0.165314
0.231293 0.125183 0.055420
0.377869 0.135712 0.034637
0.515869 0.144745 0.024048
0.635071 0.152130 0.022430
0.749420 0.158173 0.022430
0.864197 0.164093 0.022766
0.975128 0.169098 0.022919
0.259003 0.142578 0.451874
0.160156 0.162262 0.431946
0.139709 0.205902 0.317596
0.347168 0.245514 0.089935
0.508484 0.256226 0.049042
0.638611 0.262756 0.030212
0.755707 0.267212 0.024353
0.870544 0.271515 0.021912
0.981293 0.275299 0.020142
0.361969 0.219269 0.654510
0.304810 0.231445 0.654144
0.159576 0.262878 0.625610
0.197968 0.327148 0.441040
0.469879 0.374725 0.121735
0.629852 0.384003 0.069733
0.759064 0.387115 0.040985
0.875763 0.389099 0.030212
0.985931 0.390686 0.025726
0.438843 0.290955 0.800842
0.425964 0.300873 0.799652
0.360779 0.326019 0.779785
0.259552 0.386383 0.716187
0.375824 0.473969 0.509125
0.604340 0.506622 0.154663
0.750183 0.511719 0.096741
0.877930 0.512909 0.057068
0.990295 0.512726 0.039307
0.559387 0.392426 0.864044
0.559509 0.403900 0.855927
0.550415 0.427551 0.832550
0.505096 0.477295 0.784424
0.465851 0.552887 0.743774
0.557556 0.619537 0.578247
0.724579 0.635193 0.243042
0.868408 0.635468 0.130798
0.993683 0.634430 0.074585
0.694122 0.540405 0.875580
0.693909 0.549744 0.869934
0.691406 0.567383 0.859406
0.674561 0.599701 0.831573
0.642731 0.649017 0.814148
0.642303 0.708160 0.810516
0.711151 0.752563 0.659210
0.847534 0.760834 0.332977
0.987274 0.757874 0.173370
0.805267 0.701324 0.910858
0.805359 0.707550 0.909698
0.805206 0.719360 0.907501
0.800964 0.740173 0.897766
0.791534 0.771515 0.887451
0.786224 0.812531 0.888000
0.807190 0.852417 0.889099
0.857452 0.879059 0.732788
0.961884 0.885254 0.436127
0.908112 0.868713 0.970978
0.909698 0.872681 0.971466
0.912628 0.880310 0.972443
0.915283 0.893494 0.972992
0.915710 0.912781 0.966339
0.922272 0.934113 0.959534
0.935425 0.954224 0.951599
0.954681 0.971008 0.944977
0.980865 0.987823 0.786652
0.000000 0.011810 0.012604
0.065887 0.036560 0.061493
0.235779 0.023865 0.118622
0.375763 0.035187 0.123627
0.507385 0.043488 0.125885
0.623169 0.049957 0.127930
0.735413 0.056213 0.129669
0.850006 0.063477 0.130737
0.961456 0.069916 0.131195
0.106506 0.071045 0.185822
0.103485 0.098053 0.161377
0.234100 0.127167 0.136169
0.376678 0.138184 0.129211
0.514526 0.147156 0.123627
0.633789 0.154144 0.122131
0.747925 0.159973 0.121582
0.862335 0.165924 0.121033
0.972778 0.171021 0.120697
0.265930 0.141449 0.430176
0.206879 0.166351 0.347961
0.215149 0.212646 0.272125
0.363556 0.248108 0.164978
0.512482 0.257751 0.139252
0.639740 0.263733 0.125092
0.756500 0.268005 0.119659
0.870972 0.272430 0.117279
0.980927 0.276215 0.115631
0.377869 0.217316 0.648285
0.347076 0.237671 0.579559
0.275665 0.276489 0.520142
0.296570 0.338043 0.407410
0.483643 0.376251 0.201172
0.633301 0.383850 0.159027
0.760651 0.386169 0.133759
0.877136 0.388092 0.123749
0.986755 0.389862 0.119659
0.450439 0.290070 0.800262
0.456757 0.311096 0.759155
0.421295 0.343323 0.713593
0.347229 0.401001 0.667297
0.413055 0.478088 0.517639
0.609497 0.506470 0.239105
0.753052 0.510559 0.185883
0.880127 0.510986 0.149780
0.992188 0.510742 0.133575
0.565674 0.390839 0.868439
0.574677 0.408600 0.847504
0.569794 0.435303 0.817444
0.528595 0.482697 0.774933
0.483765 0.554108 0.742737
0.565338 0.619324 0.601532
0.729340 0.634705 0.316284
0.871155 0.634796 0.221313
0.995758 0.633789 0.171173
0.698212 0.539093 0.879913
0.699677 0.549103 0.873383
0.698090 0.566986 0.862091
0.681915 0.599304 0.835724
0.650421 0.648132 0.818359
0.646606 0.707764 0.815704
0.714630 0.752747 0.684570
0.850189 0.760986 0.402832
0.988922 0.758148 0.263336
0.807922 0.701172 0.913116
0.808350 0.707214 0.912140
0.808533 0.718872 0.910065
0.804352 0.739807 0.901001
0.795410 0.771210 0.891174
0.789124 0.812469 0.892731
0.808868 0.852783 0.895081
0.859344 0.879395 0.758606
0.963776 0.885315 0.498840
0.909210 0.869141 0.971832
0.910797 0.873230 0.972382
0.913879 0.880737 0.973297
0.916809 0.893921 0.973846
0.917206 0.913269 0.968536
0.923492 0.934662 0.963135
0.936371 0.954773 0.956604
0.955322 0.971405 0.951141
0.981201 0.988007 0.812683
0.000000 0.037048 0.033905
0.023682 0.060455 0.073120
0.144470 0.085693 0.145966
0.344788 0.084625 0.208435
0.498383 0.049225 0.233276
0.619110 0.054932 0.233276
0.731201 0.059814 0.233398
0.844696 0.065674 0.233521
0.955505 0.071411 0.233459
0.059479 0.091309 0.142578
0.060028 0.113953 0.138306
0.155212 0.140320 0.171906
0.350494 0.158264 0.211365
0.506775 0.150146 0.230804
0.629150 0.156921 0.228668
0.743530 0.162415 0.227264
0.857544 0.168274 0.226135
0.967651 0.173370 0.225403
0.221771 0.148315 0.365723
0.191254 0.175568 0.293884
0.213135 0.213531 0.263062
0.356232 0.250336 0.249725
0.510895 0.259735 0.237823
0.637939 0.265839 0.228180
0.754730 0.270233 0.223328
0.868988 0.274780 0.220825
0.978363 0.278625 0.219452
0.378448 0.215149 0.625458
0.366821 0.244812 0.534607
0.337097 0.293182 0.449829
0.364655 0.351135 0.381989
0.499054 0.378967 0.283112
0.636383 0.385315 0.254547
0.760986 0.387207 0.234375
0.877136 0.388947 0.225342
0.986328 0.390717 0.221466
0.464996 0.286865 0.801117
0.485077 0.317505 0.738037
0.473175 0.365295 0.659760
0.433136 0.426788 0.607117
0.465912 0.488678 0.514862
0.618073 0.507507 0.324371
0.756195 0.510468 0.280426
0.881348 0.510162 0.249908
0.992645 0.509674 0.235809
0.575592 0.387238 0.877106
0.592224 0.410614 0.846558
0.595459 0.446930 0.800934
0.565796 0.498199 0.753754
0.525757 0.561890 0.729797
0.582916 0.620636 0.620483
0.735382 0.634674 0.393036
0.874268 0.634308 0.314453
0.996704 0.633026 0.272186
0.705597 0.537048 0.887909
0.709045 0.547760 0.880157
0.709930 0.567291 0.866180
0.696045 0.600891 0.839447
0.666626 0.648438 0.821198
0.656738 0.707397 0.819214
0.721375 0.753021 0.708801
0.854645 0.761139 0.471497
0.990906 0.758240 0.353271
0.812714 0.701294 0.917206
0.813568 0.707031 0.916443
0.814362 0.718353 0.914581
0.810730 0.739319 0.906219
0.802704 0.770721 0.896149
0.794983 0.812286 0.897614
0.812378 0.853424 0.901031
0.862946 0.879974 0.783417
0.967255 0.885376 0.559662
0.911041 0.870422 0.973175
0.912689 0.874329 0.973785
0.915863 0.881775 0.974762
0.919312 0.894775 0.975189
0.919830 0.914154 0.970978
0.925690 0.935638 0.966858
0.937988 0.955566 0.961792
0.956482 0.972076 0.957336
0.981903 0.988525 0.838867
0.000000 0.070526 0.064514
0.000031 0.092163 0.088715
0.051971 0.116730 0.149292
0.215820 0.138245 0.249115
0.427216 0.164429 0.301239
0.601562 0.090576 0.338898
0.723785 0.068420 0.347351
0.837677 0.072479 0.344940
0.948364 0.076599 0.343353
0.011871 0.122711 0.125275
0.009491 0.139160 0.136566
0.055115 0.161255 0.176514
0.222870 0.184174 0.250305
0.442963 0.210876 0.290344
0.613373 0.177246 0.333710
0.734070 0.166931 0.343628
0.848267 0.171875 0.341217
0.958344 0.176514 0.339569
0.117157 0.176239 0.268341
0.099884 0.198944 0.243713
0.109833 0.229156 0.244904
0.247742 0.259125 0.279327
0.466125 0.285309 0.295746
0.628662 0.276672 0.331360
0.747101 0.273499 0.340302
0.861481 0.278168 0.337616
0.970642 0.282196 0.336212
0.314606 0.224854 0.537079
0.313690 0.259033 0.470795
0.296478 0.307220 0.406281
0.341003 0.358154 0.385559
0.491425 0.392944 0.370941
0.638580 0.392395 0.352051
0.758423 0.389801 0.345551
0.874359 0.391907 0.338287
0.983246 0.393677 0.334808
0.466431 0.284241 0.781555
0.492310 0.320831 0.719788
0.493103 0.378845 0.630890
0.479431 0.447815 0.564331
0.519257 0.500122 0.536560
0.629364 0.513184 0.424774
0.759064 0.511719 0.379761
0.881409 0.511292 0.357208
0.991791 0.510468 0.345856
0.589722 0.381287 0.889008
0.611206 0.408508 0.855743
0.622314 0.454285 0.797729
0.606903 0.516937 0.734467
0.580872 0.577087 0.704681
0.615326 0.624847 0.629578
0.744781 0.635284 0.468445
0.877777 0.634430 0.409149
0.996765 0.632690 0.376251
0.717316 0.533722 0.901459
0.722687 0.545166 0.892914
0.727173 0.567169 0.875427
0.717743 0.605164 0.844452
0.694794 0.653107 0.821167
0.679565 0.708832 0.817566
0.734467 0.753815 0.729584
0.861694 0.761414 0.538696
0.993195 0.758270 0.443573
0.820465 0.701752 0.924225
0.821747 0.707275 0.923553
0.823547 0.718262 0.921814
0.821075 0.739136 0.914032
0.814850 0.770630 0.903198
0.806488 0.812134 0.902527
0.819244 0.854340 0.906525
0.869385 0.880890 0.806976
0.971252 0.885895 0.622101
0.913971 0.872498 0.975311
0.915680 0.876404 0.975922
0.918976 0.883667 0.977020
0.923096 0.896484 0.977386
0.924225 0.915680 0.973846
0.929474 0.937073 0.970947
0.940735 0.957001 0.967224
0.958405 0.973297 0.963715
0.983276 0.989410 0.865112
0.000000 0.106415 0.098328
0.000000 0.124298 0.115692
0.003967 0.153870 0.151276
0.078796 0.180145 0.236176
0.274872 0.189087 0.362793
0.493469 0.200348 0.429474
0.668854 0.160583 0.443848
0.821472 0.093018 0.464355
0.937531 0.088684 0.465851
0.000000 0.155396 0.144806
0.000000 0.167725 0.157715
0.003204 0.191498 0.185852
0.079773 0.217834 0.253113
0.289551 0.232422 0.354370
0.519775 0.247955 0.408478
0.686798 0.228027 0.431885
0.831116 0.185913 0.460297
0.945312 0.184021 0.462708
0.026825 0.221008 0.227753
0.019745 0.234406 0.231110
0.015808 0.255615 0.247162
0.085297 0.282349 0.291107
0.307159 0.301605 0.357941
0.549683 0.317657 0.394470
0.712769 0.310059 0.422424
0.845581 0.286804 0.456543
0.957428 0.286743 0.459778
0.177856 0.270447 0.411621
0.172089 0.298889 0.385376
0.147888 0.334900 0.364471
0.174194 0.374908 0.375549
0.360107 0.402649 0.405670
0.589752 0.418243 0.409698
0.745941 0.413544 0.422546
0.864929 0.398407 0.453918
0.974365 0.398010 0.456360
0.408447 0.301727 0.696503
0.428894 0.340912 0.648438
0.426270 0.395355 0.580566
0.414490 0.460480 0.530609
0.493103 0.511841 0.519257
0.626282 0.531982 0.499481
0.765961 0.529114 0.463623
0.879578 0.515930 0.464905
0.988739 0.513702 0.460449
0.593506 0.378876 0.885040
0.616516 0.408752 0.852936
0.632141 0.456573 0.794922
0.624084 0.525482 0.724243
0.615723 0.589386 0.683441
0.652222 0.632324 0.662201
0.757996 0.645142 0.576172
0.881317 0.636932 0.507538
0.996216 0.633789 0.483459
0.731384 0.529755 0.918365
0.738831 0.542145 0.909668
0.746643 0.565491 0.890228
0.742096 0.607941 0.854767
0.727539 0.660797 0.822144
0.716095 0.714661 0.809784
0.756470 0.756104 0.746216
0.870636 0.762085 0.607086
0.995483 0.758423 0.537628
0.831085 0.702759 0.934357
0.832794 0.708130 0.933807
0.835480 0.718872 0.932037
0.834747 0.739685 0.924683
0.831085 0.771820 0.912933
0.825043 0.813293 0.907501
0.832275 0.855957 0.910400
0.879059 0.882202 0.829895
0.977478 0.886292 0.683441
0.918121 0.875549 0.978241
0.919830 0.879395 0.978851
0.923248 0.886658 0.980011
0.927887 0.899292 0.980499
0.930176 0.917969 0.977386
0.935211 0.939056 0.975342
0.945007 0.958801 0.972809
0.961243 0.975006 0.970306
0.985138 0.990814 0.891327
0.000000 0.144257 0.133942
0.000000 0.159943 0.149139
0.000000 0.188782 0.178284
0.009613 0.227020 0.230621
0.103821 0.248077 0.331360
0.315948 0.239014 0.490601
0.544525 0.228577 0.598541
0.716644 0.216125 0.598663
0.881012 0.156342 0.586670
0.000000 0.189850 0.176727
0.000000 0.201477 0.188812
0.000000 0.224823 0.213348
0.008850 0.259399 0.258453
0.107971 0.283905 0.343994
0.340179 0.282440 0.479462
0.577240 0.278229 0.565155
0.740570 0.275299 0.565704
0.890900 0.235901 0.572418
0.000000 0.261047 0.245148
0.000000 0.270294 0.254456
0.000000 0.287476 0.272247
0.008057 0.315887 0.307068
0.109802 0.342651 0.370270
0.364990 0.347931 0.469452
0.613312 0.347931 0.530151
0.768524 0.348816 0.535950
0.905334 0.323059 0.561279
0.049072 0.337921 0.351898
0.042267 0.354431 0.353821
0.029205 0.375183 0.361420
0.029968 0.402069 0.384491
0.132996 0.429688 0.426056
0.400452 0.440826 0.482178
0.657196 0.443420 0.514160
0.809052 0.442871 0.521362
0.931549 0.423157 0.555206
0.262024 0.370178 0.558472
0.261871 0.401642 0.536316
0.239960 0.441559 0.509125
0.213226 0.487091 0.498932
0.276489 0.525879 0.517761
0.489899 0.544189 0.543915
0.707825 0.550934 0.542114
0.854797 0.548676 0.533569
0.963623 0.531860 0.557800
0.546722 0.406982 0.813354
0.560913 0.435944 0.786438
0.563995 0.479645 0.739471
0.547607 0.540070 0.686554
0.546875 0.600250 0.659515
0.627441 0.645264 0.658142
0.748322 0.660095 0.641144
0.880859 0.659485 0.597717
0.986816 0.645447 0.583588
0.737823 0.533173 0.920959
0.744904 0.545868 0.912323
0.752472 0.569061 0.893097
0.751801 0.610321 0.859650
0.741638 0.665771 0.823425
0.741425 0.722412 0.803497
0.782318 0.763031 0.793396
0.879028 0.775299 0.732910
0.993835 0.765961 0.650909
0.842743 0.704651 0.945282
0.844757 0.710022 0.944855
0.848175 0.720581 0.943359
0.849304 0.740967 0.936981
0.847992 0.773621 0.925049
0.846619 0.816040 0.913849
0.852783 0.858734 0.911865
0.892944 0.884491 0.867462
0.984497 0.886963 0.755127
0.923553 0.879517 0.982025
0.925323 0.883423 0.982727
0.928925 0.890747 0.983826
0.933838 0.903381 0.984650
0.937225 0.921417 0.982239
0.942963 0.941437 0.980316
0.951111 0.960785 0.978668
0.965088 0.977203 0.977081
0.987427 0.992706 0.917450
0.000000 0.187347 0.174927
0.000000 0.201477 0.188812
0.000000 0.227051 0.214081
0.000000 0.265656 0.253540
0.017365 0.305695 0.317261
0.126678 0.321320 0.433655
0.351959 0.295532 0.617371
0.580780 0.263733 0.769257
0.736664 0.254608 0.817108
0.000000 0.228577 0.213898
0.000000 0.239746 0.225372
0.000000 0.261353 0.247314
0.000000 0.296753 0.283447
0.015808 0.337189 0.341980
0.133636 0.357086 0.444641
0.382538 0.335663 0.610535
0.623749 0.307068 0.740082
0.777557 0.302246 0.764801
0.000000 0.295654 0.276642
0.000000 0.304871 0.286316
0.000000 0.322083 0.304047
0.000000 0.351593 0.334503
0.014252 0.389374 0.384186
0.137634 0.411957 0.464966
0.415405 0.394470 0.598389
0.670227 0.371399 0.691315
0.815887 0.371826 0.692322
0.000824 0.386475 0.363403
0.000031 0.397095 0.372650
0.000000 0.412140 0.386749
0.000000 0.433990 0.409119
0.016602 0.464081 0.447021
0.148254 0.487030 0.503357
0.453186 0.478119 0.591980
0.716888 0.464325 0.644928
0.850891 0.467407 0.635742
0.086975 0.459442 0.477905
0.078979 0.476349 0.480408
0.062805 0.498474 0.485779
0.045074 0.523499 0.498749
0.067230 0.550781 0.526581
0.217194 0.573853 0.566193
0.519470 0.575012 0.618561
0.765381 0.569336 0.644592
0.892212 0.570129 0.633636
0.387146 0.491760 0.674133
0.380371 0.511261 0.663147
0.358185 0.541656 0.645447
0.320740 0.582184 0.629700
0.315796 0.625092 0.633057
0.416046 0.660370 0.656097
0.622894 0.674622 0.686768
0.815308 0.674988 0.693268
0.936859 0.673584 0.673218
0.699860 0.566620 0.867737
0.699677 0.577393 0.860168
0.695587 0.597748 0.844666
0.683289 0.632111 0.820251
0.667725 0.680054 0.796112
0.680542 0.732300 0.787018
0.752533 0.773102 0.796082
0.860352 0.785309 0.789032
0.970886 0.784698 0.751678
0.848328 0.711823 0.947632
0.849701 0.717163 0.946930
0.851959 0.727478 0.945068
0.854645 0.746216 0.940430
0.852386 0.777344 0.929688
0.852783 0.819031 0.917114
0.865082 0.862305 0.911285
0.907043 0.890045 0.905334
0.979675 0.897522 0.873016
0.930420 0.884583 0.986603
0.932404 0.888550 0.987305
0.936249 0.896057 0.988586
0.942780 0.908508 0.990448
0.946472 0.925781 0.989502
0.952942 0.944458 0.987732
0.960205 0.962891 0.986328
0.970367 0.979858 0.985352
0.988403 0.994049 0.982727
0.000000 0.234741 0.220184
0.000000 0.246521 0.231964
0.000000 0.268066 0.253113
0.000000 0.302582 0.287384
0.000000 0.347748 0.338226
0.024658 0.392609 0.409790
0.153198 0.399231 0.533173
0.398590 0.349670 0.727264
0.657471 0.288147 0.938751
0.000000 0.270569 0.254150
0.000000 0.281036 0.264679
0.000000 0.300720 0.284363
0.000000 0.333374 0.316956
0.000000 0.377411 0.365295
0.023895 0.422516 0.431671
0.162445 0.431580 0.542755
0.430420 0.385620 0.725830
0.700043 0.322021 0.930328
0.000000 0.331757 0.311096
0.000000 0.341431 0.320953
0.000000 0.358948 0.338470
0.000000 0.387817 0.367279
0.000000 0.427734 0.410614
0.022339 0.469299 0.468323
0.169220 0.478638 0.559998
0.467010 0.436066 0.719391
0.755127 0.373535 0.893921
0.000000 0.419281 0.391449
0.000000 0.428925 0.400970
0.000000 0.444458 0.416473
0.000000 0.466675 0.439240
0.000000 0.497070 0.473877
0.022339 0.531036 0.520233
0.181213 0.542267 0.588531
0.515778 0.509827 0.707642
0.817780 0.460144 0.818848
0.006348 0.511566 0.480957
0.004761 0.521698 0.489990
0.002411 0.536926 0.504028
0.000031 0.555206 0.522583
0.003235 0.576630 0.548187
0.040192 0.603394 0.584167
0.226685 0.618256 0.635132
0.573395 0.600067 0.715698
0.863892 0.568268 0.770050
0.146271 0.581635 0.592682
0.135529 0.592499 0.596436
0.116180 0.610504 0.603455
0.091583 0.633667 0.614838
0.086365 0.658600 0.633636
0.154022 0.685699 0.663055
0.358582 0.703583 0.703003
0.655273 0.696320 0.757721
0.898102 0.675995 0.786835
0.527740 0.636322 0.767761
0.516541 0.645111 0.764771
0.489441 0.661560 0.759705
0.453949 0.687439 0.753998
0.427979 0.721313 0.753937
0.456848 0.759369 0.765808
0.578369 0.790070 0.790863
0.759369 0.798462 0.825317
0.935120 0.789307 0.843140
0.819366 0.735352 0.922607
0.817535 0.740967 0.920898
0.813232 0.751648 0.917603
0.804871 0.770020 0.911926
0.792755 0.797729 0.904572
0.786560 0.833954 0.898438
0.808777 0.872070 0.899963
0.903534 0.904236 0.906952
0.969025 0.902527 0.917633
0.938934 0.891541 0.991821
0.941010 0.895630 0.992645
0.945099 0.903259 0.994049
0.951813 0.915527 0.996033
0.958008 0.931427 0.996765
0.963745 0.948639 0.995880
0.970795 0.965515 0.994598
0.979797 0.982025 0.993591
0.993866 0.996552 0.991669
0.000000 0.281860 0.264984
0.000000 0.291992 0.274872
0.000000 0.310974 0.293671
0.000000 0.342682 0.325043
0.000000 0.386383 0.367981
0.001434 0.437775 0.427094
0.015106 0.491150 0.497711
0.169922 0.478973 0.629486
0.593872 0.336456 0.951172
0.000000 0.314148 0.295685
0.000000 0.323975 0.305389
0.000000 0.342468 0.323669
0.000000 0.372620 0.353241
0.000000 0.414642 0.394043
0.001434 0.464203 0.450897
0.014313 0.514557 0.517212
0.177948 0.505463 0.637390
0.627655 0.369202 0.948547
0.000000 0.370636 0.347931
0.000000 0.380127 0.357452
0.000000 0.397552 0.374542
0.000000 0.425049 0.401215
0.000000 0.462555 0.438232
0.001434 0.506409 0.490112
0.014313 0.550903 0.549652
0.186676 0.543701 0.652802
0.669464 0.415649 0.940979
0.000000 0.450378 0.420959
0.000000 0.459656 0.430115
0.000000 0.475769 0.446075
0.000000 0.498657 0.469208
0.000000 0.528259 0.500366
0.001434 0.563049 0.544220
0.014313 0.600250 0.594574
0.199799 0.596893 0.677765
0.723145 0.486206 0.929047
0.000000 0.538849 0.503967
0.000000 0.547638 0.512939
0.000000 0.562408 0.528290
0.000000 0.581543 0.548828
0.000000 0.602966 0.572876
0.001434 0.629059 0.607178
0.018951 0.660492 0.649200
0.239410 0.663208 0.717316
0.779114 0.576874 0.922455
0.000824 0.630859 0.594482
0.000031 0.638794 0.602570
0.000000 0.652557 0.616852
0.000000 0.669708 0.635132
0.000000 0.686981 0.654053
0.007690 0.708893 0.681580
0.073975 0.736816 0.717651
0.353088 0.742401 0.773407
0.829895 0.678955 0.931824
0.193237 0.717285 0.707153
0.181519 0.724609 0.710571
0.158264 0.737488 0.718018
0.126984 0.755249 0.729248
0.104706 0.775269 0.743988
0.130890 0.798615 0.766998
0.282898 0.821808 0.795776
0.542206 0.829010 0.840149
0.882538 0.794037 0.955658
0.713867 0.781189 0.875183
0.704346 0.787842 0.873230
0.684204 0.799835 0.870850
0.650085 0.818848 0.867859
0.609772 0.843872 0.866821
0.588593 0.872772 0.872192
0.630188 0.898865 0.885925
0.749298 0.914185 0.914246
0.941986 0.909485 0.981293
0.947113 0.901184 0.996399
0.949188 0.905518 0.997131
0.953217 0.913330 0.998352
0.959198 0.925293 0.998901
0.965546 0.939819 0.998810
0.967987 0.955597 0.998627
0.972443 0.970428 0.997894
0.987030 0.983917 0.999634
0.999084 0.999176 0.999084
