public/LUTs/Malitine.cube
# Copyright: (C) Copyright 2010-2018 by IWLTBAP SAS
# Cannot be resold, shared or otherwise redistributed
# Website: https://luts.iwltbap.com
TITLE "IWLTBAP Malitine (Rec.709, sRGB, DCI-P3)"
LUT_3D_SIZE 5
0.000671 0.000000 0.002289
0.247009 0.022583 0.022736
0.510712 0.040924 0.024536
0.740021 0.055237 0.029144
0.966309 0.068787 0.032501
0.259003 0.142578 0.451874
0.139709 0.205902 0.317596
0.508484 0.256226 0.049042
0.755707 0.267212 0.024353
0.981293 0.275299 0.020142
0.438843 0.290955 0.800842
0.360779 0.326019 0.779785
0.375824 0.473969 0.509125
0.750183 0.511719 0.096741
0.990295 0.512726 0.039307
0.694122 0.540405 0.875580
0.691406 0.567383 0.859406
0.642731 0.649017 0.814148
0.711151 0.752563 0.659210
0.987274 0.757874 0.173370
0.908112 0.868713 0.970978
0.912628 0.880310 0.972443
0.915710 0.912781 0.966339
0.935425 0.954224 0.951599
0.980865 0.987823 0.786652
0.000000 0.037048 0.033905
0.144470 0.085693 0.145966
0.498383 0.049225 0.233276
0.731201 0.059814 0.233398
0.955505 0.071411 0.233459
0.221771 0.148315 0.365723
0.213135 0.213531 0.263062
0.510895 0.259735 0.237823
0.754730 0.270233 0.223328
0.978363 0.278625 0.219452
0.464996 0.286865 0.801117
0.473175 0.365295 0.659760
0.465912 0.488678 0.514862
0.756195 0.510468 0.280426
0.992645 0.509674 0.235809
0.705597 0.537048 0.887909
0.709930 0.567291 0.866180
0.666626 0.648438 0.821198
0.721375 0.753021 0.708801
0.990906 0.758240 0.353271
0.911041 0.870422 0.973175
0.915863 0.881775 0.974762
0.919830 0.914154 0.970978
0.937988 0.955566 0.961792
0.981903 0.988525 0.838867
0.000000 0.106415 0.098328
0.003967 0.153870 0.151276
0.274872 0.189087 0.362793
0.668854 0.160583 0.443848
0.937531 0.088684 0.465851
0.026825 0.221008 0.227753
0.015808 0.255615 0.247162
0.307159 0.301605 0.357941
0.712769 0.310059 0.422424
0.957428 0.286743 0.459778
0.408447 0.301727 0.696503
0.426270 0.395355 0.580566
0.493103 0.511841 0.519257
0.765961 0.529114 0.463623
0.988739 0.513702 0.460449
0.731384 0.529755 0.918365
0.746643 0.565491 0.890228
0.727539 0.660797 0.822144
0.756470 0.756104 0.746216
0.995483 0.758423 0.537628
0.918121 0.875549 0.978241
0.923248 0.886658 0.980011
0.930176 0.917969 0.977386
0.945007 0.958801 0.972809
0.985138 0.990814 0.891327
0.000000 0.187347 0.174927
0.000000 0.227051 0.214081
0.017365 0.305695 0.317261
0.351959 0.295532 0.617371
0.736664 0.254608 0.817108
0.000000 0.295654 0.276642
0.000000 0.322083 0.304047
0.014252 0.389374 0.384186
0.415405 0.394470 0.598389
0.815887 0.371826 0.692322
0.086975 0.459442 0.477905
0.062805 0.498474 0.485779
0.067230 0.550781 0.526581
0.519470 0.575012 0.618561
0.892212 0.570129 0.633636
0.699860 0.566620 0.867737
0.695587 0.597748 0.844666
0.667725 0.680054 0.796112
0.752533 0.773102 0.796082
0.970886 0.784698 0.751678
0.930420 0.884583 0.986603
0.936249 0.896057 0.988586
0.946472 0.925781 0.989502
0.960205 0.962891 0.986328
0.988403 0.994049 0.982727
0.000000 0.281860 0.264984
0.000000 0.310974 0.293671
0.000000 0.386383 0.367981
0.015106 0.491150 0.497711
0.593872 0.336456 0.951172
0.000000 0.370636 0.347931
0.000000 0.397552 0.374542
0.000000 0.462555 0.438232
0.014313 0.550903 0.549652
0.669464 0.415649 0.940979
0.000000 0.538849 0.503967
0.000000 0.562408 0.528290
0.000000 0.602966 0.572876
0.018951 0.660492 0.649200
0.779114 0.576874 0.922455
0.193237 0.717285 0.707153
0.158264 0.737488 0.718018
0.104706 0.775269 0.743988
0.282898 0.821808 0.795776
0.882538 0.794037 0.955658
0.947113 0.901184 0.996399
0.953217 0.913330 0.998352
0.965546 0.939819 0.998810
0.972443 0.970428 0.997894
0.999084 0.999176 0.999084
