public/LUTs/Rubi.cube
# Copyright: (C) Copyright 2010-2018 by IWLTBAP SAS
# Cannot be resold, shared or otherwise redistributed
# Website: https://luts.iwltbap.com
TITLE "IWLTBAP Rubi (Rec.709, sRGB, DCI-P3)"
LUT_3D_SIZE 9
0.070526 0.065094 0.064514
0.242462 0.125916 0.111847
0.389740 0.148071 0.117065
0.503662 0.143677 0.103027
0.596252 0.143127 0.097137
0.679871 0.149414 0.103424
0.761414 0.150726 0.111511
0.846436 0.141724 0.114319
0.940063 0.113281 0.093842
0.144226 0.148315 0.127167
0.265656 0.174896 0.130890
0.388824 0.182648 0.112579
0.497620 0.179352 0.095093
0.591553 0.185852 0.091339
0.677368 0.201874 0.097534
0.761108 0.213684 0.105682
0.848206 0.214966 0.108276
0.943756 0.197754 0.088287
0.228577 0.240540 0.194946
0.314026 0.257263 0.176270
0.412811 0.262939 0.132416
0.500244 0.255463 0.093018
0.586456 0.253540 0.081970
0.673462 0.265930 0.086975
0.760559 0.282257 0.094696
0.851624 0.291473 0.095917
0.951019 0.284607 0.076660
0.319122 0.333496 0.264374
0.381073 0.347168 0.238159
0.468414 0.357239 0.184174
0.541565 0.356445 0.121399
0.597473 0.354950 0.081482
0.671265 0.358643 0.072113
0.760162 0.368225 0.075684
0.856903 0.378754 0.075684
0.962646 0.379974 0.058655
0.413330 0.429962 0.341125
0.458405 0.440399 0.312622
0.531372 0.449707 0.251892
0.609222 0.450165 0.178711
0.651550 0.451294 0.117401
0.687134 0.463318 0.071075
0.762329 0.475311 0.050354
0.864014 0.484802 0.045471
0.977905 0.491333 0.033905
0.507782 0.528534 0.423279
0.541687 0.535522 0.394470
0.598938 0.541962 0.329010
0.669159 0.540283 0.242157
0.722412 0.532440 0.174927
0.739990 0.541534 0.107544
0.777649 0.575226 0.043274
0.872192 0.605286 0.018158
0.993225 0.619720 0.009460
0.593994 0.618011 0.496429
0.620026 0.621765 0.467926
0.664825 0.624542 0.402008
0.720886 0.620728 0.303070
0.770691 0.606476 0.215881
0.794739 0.593079 0.145355
0.806854 0.622620 0.073151
0.874908 0.691589 0.025238
0.995850 0.742859 0.003143
0.658203 0.688354 0.557343
0.678253 0.689850 0.530670
0.714600 0.689270 0.466492
0.760681 0.682007 0.355743
0.798889 0.664978 0.238983
0.819611 0.639099 0.163177
0.827484 0.633789 0.118774
0.864441 0.701324 0.073669
0.965424 0.805908 0.027588
0.693481 0.743774 0.627716
0.710205 0.743805 0.603943
0.744080 0.739929 0.534515
0.787476 0.727295 0.405212
0.818481 0.708374 0.273346
0.833130 0.682678 0.188385
0.836578 0.660126 0.156189
0.847473 0.680084 0.134216
0.904724 0.785553 0.084259
0.081482 0.099121 0.112549
0.180023 0.120087 0.137146
0.338226 0.147247 0.170319
0.477356 0.147247 0.177826
0.583923 0.140320 0.173309
0.674316 0.143982 0.176697
0.758911 0.145081 0.184357
0.845551 0.136261 0.191284
0.939880 0.109711 0.181122
0.107147 0.154633 0.154114
0.198151 0.170990 0.162170
0.342163 0.187134 0.172150
0.474457 0.184143 0.172607
0.580566 0.183929 0.169830
0.672302 0.196960 0.173981
0.758789 0.208527 0.181335
0.847412 0.210388 0.187744
0.943604 0.194550 0.177582
0.167511 0.234741 0.214600
0.251282 0.251434 0.209839
0.371796 0.266510 0.192505
0.481018 0.262512 0.171692
0.577881 0.255463 0.164368
0.669312 0.263367 0.168427
0.758575 0.278107 0.175354
0.850891 0.287628 0.180695
0.950928 0.281982 0.170990
0.263947 0.326111 0.284363
0.330780 0.341309 0.272522
0.431793 0.358337 0.238464
0.522003 0.362488 0.192108
0.589355 0.359528 0.164612
0.668182 0.359833 0.160461
0.758789 0.366394 0.164856
0.856445 0.376129 0.168671
0.962585 0.378204 0.159943
0.371216 0.423035 0.362396
0.419373 0.435272 0.346649
0.499786 0.449402 0.301483
0.589264 0.454559 0.235077
0.642242 0.456207 0.184784
0.683716 0.466278 0.157959
0.761200 0.475647 0.148865
0.863678 0.483795 0.149384
0.977966 0.490479 0.144775
0.474457 0.522827 0.445709
0.509918 0.531586 0.427155
0.572296 0.541656 0.374542
0.651428 0.543549 0.289948
0.713165 0.536865 0.220490
0.736511 0.545105 0.172607
0.776733 0.576935 0.138000
0.872131 0.605621 0.130280
0.993286 0.619568 0.130280
0.567841 0.614929 0.520508
0.594940 0.620270 0.499603
0.643799 0.625793 0.443787
0.707001 0.624451 0.346771
0.763672 0.610992 0.251434
0.793030 0.596466 0.181122
0.807281 0.624207 0.132690
0.875427 0.692810 0.122711
0.996155 0.743347 0.125275
0.639221 0.687988 0.580719
0.660034 0.690521 0.559692
0.698578 0.692139 0.504333
0.750122 0.686981 0.397552
0.795227 0.670349 0.270447
0.820068 0.643127 0.179169
0.828735 0.635712 0.137451
0.865417 0.702454 0.127808
0.966461 0.807678 0.126221
0.679901 0.744202 0.646088
0.696075 0.745239 0.627869
0.729034 0.743958 0.573242
0.776917 0.733704 0.448944
0.815857 0.713379 0.295532
0.833801 0.686493 0.194550
0.838074 0.662781 0.157959
0.848724 0.681335 0.147522
0.905640 0.786743 0.136841
0.095093 0.145325 0.171936
0.124634 0.142548 0.176697
0.241516 0.156677 0.216217
0.406311 0.171692 0.268463
0.543610 0.156189 0.283051
0.654419 0.140900 0.277557
0.750244 0.133026 0.271973
0.841888 0.121735 0.272247
0.938202 0.098328 0.269867
0.099121 0.176483 0.193939
0.130890 0.178467 0.197754
0.248688 0.195160 0.225525
0.411560 0.205505 0.265076
0.545166 0.195160 0.278900
0.654236 0.192719 0.275269
0.750793 0.197144 0.270721
0.843994 0.196747 0.271118
0.942047 0.184143 0.268616
0.119415 0.235382 0.239105
0.162903 0.241669 0.240875
0.281433 0.263092 0.252930
0.430206 0.275787 0.267639
0.552582 0.265778 0.272095
0.655975 0.261353 0.270569
0.752136 0.268890 0.268066
0.848022 0.276215 0.268768
0.949646 0.273346 0.266205
0.177612 0.316589 0.302094
0.233093 0.326019 0.303192
0.345825 0.348938 0.302338
0.473694 0.368439 0.289673
0.570312 0.368439 0.272369
0.660126 0.362488 0.264954
0.754761 0.362213 0.262939
0.854462 0.368225 0.264069
0.961731 0.371979 0.262207
0.281342 0.409882 0.377533
0.333527 0.420837 0.378387
0.426514 0.441101 0.367462
0.539673 0.458923 0.331329
0.619507 0.465485 0.288391
0.676208 0.472076 0.264221
0.758789 0.476562 0.255463
0.862762 0.480835 0.255035
0.977722 0.487427 0.256226
0.403473 0.510925 0.463470
0.442322 0.520691 0.461853
0.512421 0.536316 0.441650
0.606995 0.548035 0.384094
0.688599 0.546875 0.315186
0.727203 0.553467 0.268341
0.774475 0.581146 0.245911
0.871887 0.606293 0.245911
0.993469 0.619171 0.250977
0.514069 0.607117 0.545258
0.542480 0.614258 0.539551
0.596008 0.624786 0.511444
0.671021 0.630676 0.438232
0.743164 0.621521 0.340149
0.785828 0.605774 0.258270
0.807281 0.628693 0.212402
0.876404 0.695190 0.225006
0.996796 0.744202 0.247925
0.600037 0.685333 0.611145
0.621307 0.689606 0.601990
0.662537 0.695282 0.569244
0.722412 0.695923 0.485718
0.781616 0.682678 0.355652
0.818787 0.653870 0.232269
0.831970 0.640686 0.168427
0.868103 0.704773 0.183716
0.968872 0.811218 0.228088
0.654388 0.744354 0.670746
0.669434 0.746490 0.662018
0.700745 0.748810 0.630951
0.751862 0.745483 0.538971
0.805542 0.727448 0.370453
0.834961 0.697083 0.220154
0.842346 0.669495 0.162201
0.852661 0.684601 0.159485
0.908325 0.789490 0.189209
0.107910 0.192505 0.236359
0.112549 0.187531 0.233917
0.156433 0.184357 0.243866
0.290070 0.203400 0.299744
0.452423 0.212036 0.367371
0.595306 0.181122 0.390350
0.718597 0.140320 0.382263
0.823975 0.104156 0.375397
0.926331 0.075684 0.376709
0.106415 0.211670 0.248993
0.110809 0.208160 0.247284
0.158447 0.210022 0.256500
0.299988 0.230591 0.304871
0.463898 0.239288 0.366211
0.601624 0.219788 0.388367
0.722046 0.198334 0.381439
0.827637 0.178925 0.375275
0.931091 0.163635 0.376617
0.110077 0.250519 0.276611
0.117737 0.248535 0.275269
0.176239 0.256073 0.284210
0.326447 0.283173 0.321381
0.489166 0.294891 0.365540
0.618103 0.279724 0.382721
0.730347 0.266937 0.378754
0.834656 0.259735 0.374908
0.940369 0.256226 0.376312
0.127197 0.315430 0.324890
0.146423 0.315430 0.324768
0.223450 0.327667 0.333282
0.375275 0.360321 0.356750
0.523315 0.379852 0.374237
0.639557 0.373291 0.377716
0.743408 0.362091 0.373688
0.846436 0.357056 0.372253
0.955261 0.359650 0.375580
0.174225 0.398773 0.387848
0.211700 0.402618 0.391174
0.302582 0.418640 0.400421
0.443634 0.449188 0.408661
0.572296 0.471863 0.398163
0.662598 0.478882 0.380615
0.754333 0.478455 0.370544
0.860168 0.477173 0.367767
0.975647 0.481995 0.372742
0.276917 0.496887 0.466064
0.321625 0.503815 0.472260
0.405457 0.520203 0.480194
0.522400 0.543549 0.472412
0.637482 0.557343 0.433441
0.708984 0.565186 0.388184
0.770691 0.586670 0.366211
0.871185 0.607269 0.366791
0.993530 0.618652 0.373108
0.413910 0.596680 0.550507
0.449188 0.603577 0.556000
0.512360 0.616943 0.558868
0.602509 0.632874 0.536072
0.698425 0.636169 0.468353
0.766296 0.623962 0.382996
0.804321 0.639191 0.326447
0.877533 0.699005 0.339294
0.997498 0.745422 0.371887
0.532501 0.680542 0.624756
0.556061 0.685547 0.627289
0.600922 0.694519 0.623444
0.669434 0.703705 0.588196
0.746826 0.700806 0.492828
0.807007 0.675751 0.353851
0.835327 0.653870 0.241974
0.873566 0.709595 0.252014
0.973145 0.817322 0.335236
0.614410 0.744995 0.686157
0.629089 0.747498 0.686279
0.658875 0.751984 0.679199
0.710205 0.756104 0.638306
0.776978 0.749207 0.514069
0.830688 0.720764 0.316132
0.850159 0.684875 0.184387
0.860931 0.691895 0.171234
0.914001 0.794952 0.242462
0.128448 0.237183 0.302582
0.129669 0.233948 0.300018
0.138885 0.227234 0.295898
0.199707 0.227936 0.307190
0.338135 0.254150 0.370361
0.487823 0.261658 0.446991
0.630463 0.215515 0.482269
0.760345 0.143127 0.493622
0.887939 0.085175 0.500336
0.125275 0.250977 0.311798
0.126251 0.247925 0.309662
0.135681 0.242615 0.306671
0.202637 0.246216 0.318085
0.351196 0.274719 0.378204
0.502167 0.284485 0.450684
0.640381 0.251892 0.483368
0.768921 0.203613 0.494019
0.897034 0.168182 0.500275
0.124023 0.278229 0.329346
0.124664 0.275391 0.327576
0.136566 0.271667 0.325897
0.215515 0.281433 0.339722
0.378937 0.315643 0.394196
0.534973 0.327362 0.455994
0.666016 0.302338 0.484131
0.788147 0.272247 0.494232
0.914001 0.257111 0.500275
0.127502 0.327576 0.363190
0.129364 0.324768 0.361420
0.150452 0.323334 0.361115
0.248535 0.339722 0.377808
0.420898 0.379395 0.422150
0.578583 0.397034 0.464539
0.705109 0.381531 0.482605
0.820740 0.362793 0.490662
0.939270 0.359528 0.499542
0.135101 0.399994 0.414398
0.143677 0.398529 0.413727
0.186920 0.401215 0.417145
0.307159 0.422882 0.435333
0.476990 0.462799 0.464264
0.620575 0.485504 0.480133
0.735901 0.483307 0.482971
0.850037 0.477173 0.484680
0.970154 0.481720 0.495087
0.161957 0.490875 0.479156
0.187988 0.492493 0.481567
0.259308 0.501129 0.490601
0.390259 0.524261 0.507965
0.545563 0.555420 0.517242
0.669952 0.574677 0.501648
0.760254 0.587097 0.484344
0.865417 0.600739 0.483856
0.990112 0.615723 0.494690
0.254303 0.590820 0.553589
0.294525 0.595154 0.558990
0.374542 0.606079 0.570862
0.490723 0.625702 0.583832
0.618866 0.644684 0.572021
0.726074 0.646606 0.518768
0.794067 0.652649 0.461639
0.874817 0.696381 0.461487
0.994232 0.741516 0.493622
0.409210 0.680725 0.626770
0.441864 0.684448 0.632141
0.501007 0.692657 0.641724
0.585327 0.705933 0.646820
0.683472 0.716431 0.616180
0.773376 0.706238 0.518890
0.830444 0.680664 0.385956
0.878906 0.717163 0.358337
0.976166 0.821564 0.452179
0.553802 0.749207 0.690308
0.570190 0.751221 0.693787
0.601624 0.755524 0.699158
0.653473 0.762756 0.697388
0.725861 0.767700 0.651550
0.804932 0.754547 0.501404
0.855408 0.716431 0.287628
0.875305 0.708008 0.207581
0.923706 0.803650 0.311096
0.158234 0.280945 0.371429
0.159210 0.278381 0.369324
0.161713 0.273071 0.364655
0.178253 0.265381 0.357452
0.256500 0.272247 0.369324
0.389648 0.305603 0.434875
0.511261 0.309814 0.508301
0.634521 0.250671 0.554443
0.785919 0.166779 0.585754
0.155670 0.291992 0.379700
0.156189 0.289551 0.377838
0.158234 0.284485 0.373779
0.175354 0.277435 0.367676
0.261047 0.287354 0.380432
0.403046 0.323669 0.445160
0.525818 0.329895 0.515778
0.647156 0.284088 0.558319
0.799408 0.225189 0.587555
0.153351 0.314514 0.394653
0.153625 0.312164 0.393066
0.154907 0.307312 0.389832
0.174896 0.301849 0.385956
0.273468 0.316803 0.401825
0.430695 0.357758 0.463959
0.560425 0.365051 0.529205
0.679901 0.327454 0.566589
0.827789 0.289673 0.591492
0.153351 0.354340 0.420197
0.153351 0.351929 0.418640
0.155426 0.347198 0.415649
0.183502 0.344269 0.415070
0.299377 0.365540 0.436127
0.472198 0.410614 0.492218
0.615082 0.421326 0.545807
0.740570 0.393402 0.576385
0.877808 0.371887 0.599060
0.153625 0.417725 0.462799
0.154144 0.415161 0.461121
0.160706 0.410980 0.458649
0.207977 0.412231 0.461792
0.344360 0.438538 0.486115
0.523621 0.483429 0.529816
0.671448 0.498688 0.564728
0.802429 0.485504 0.584259
0.939941 0.481720 0.605927
0.149139 0.502716 0.519836
0.152832 0.500793 0.518829
0.174896 0.499695 0.518951
0.255615 0.508026 0.528015
0.411469 0.536682 0.551941
0.586578 0.575623 0.577271
0.720306 0.590973 0.583923
0.838074 0.590210 0.587555
0.968262 0.601288 0.604950
0.165100 0.600006 0.583832
0.180267 0.599823 0.584473
0.229584 0.603180 0.588867
0.340912 0.616394 0.602600
0.495575 0.640381 0.621155
0.650757 0.663727 0.621674
0.764954 0.670898 0.590973
0.858337 0.684296 0.575287
0.971375 0.715790 0.598328
0.279205 0.693359 0.647369
0.303436 0.694275 0.649384
0.360931 0.698151 0.655487
0.460327 0.708130 0.668365
0.583588 0.723938 0.678925
0.708099 0.733734 0.653809
0.805054 0.720459 0.565247
0.874146 0.729034 0.505951
0.964691 0.806580 0.567322
0.470642 0.758240 0.699951
0.488098 0.759583 0.702728
0.523193 0.762848 0.708984
0.580353 0.769714 0.719116
0.657043 0.779785 0.722046
0.749756 0.784485 0.671783
0.837402 0.763458 0.506683
0.886749 0.742737 0.365631
0.929535 0.812073 0.441559
0.194763 0.330017 0.449188
0.195374 0.327820 0.447144
0.196960 0.323334 0.442780
0.201874 0.315796 0.434723
0.229614 0.308380 0.423706
0.325256 0.322662 0.436920
0.442017 0.355347 0.497162
0.528015 0.349548 0.552765
0.634857 0.295410 0.598724
0.192932 0.339844 0.457397
0.193329 0.337616 0.455536
0.194550 0.333069 0.451599
0.198364 0.325470 0.444183
0.227417 0.318787 0.434235
0.330902 0.336212 0.447968
0.454712 0.371796 0.507904
0.540527 0.366791 0.561066
0.644684 0.319458 0.602173
0.192322 0.360352 0.472626
0.192322 0.358154 0.471069
0.192535 0.353638 0.467651
0.195160 0.345856 0.461334
0.227234 0.340393 0.453674
0.343536 0.362427 0.469147
0.479980 0.402191 0.527954
0.570129 0.396332 0.578369
0.668365 0.348236 0.610840
0.194763 0.396606 0.496552
0.194550 0.394379 0.495178
0.194366 0.389832 0.492218
0.196960 0.382202 0.487152
0.235565 0.378571 0.483521
0.366974 0.405365 0.502899
0.519623 0.448364 0.557617
0.623901 0.442932 0.604065
0.722290 0.394836 0.631409
0.200500 0.453461 0.532928
0.200317 0.451141 0.531403
0.200134 0.446320 0.528320
0.206085 0.439148 0.524139
0.259308 0.439087 0.525940
0.405762 0.469147 0.549683
0.571899 0.512085 0.595947
0.695129 0.509857 0.633667
0.816406 0.477905 0.663544
0.207031 0.533417 0.583862
0.206848 0.531097 0.582397
0.208160 0.526489 0.579590
0.225342 0.521698 0.577393
0.305237 0.527954 0.584625
0.465546 0.559509 0.609619
0.634735 0.596832 0.641571
0.763611 0.596069 0.661469
0.890808 0.582123 0.685059
0.227905 0.628815 0.641785
0.228241 0.626831 0.640686
0.234589 0.623657 0.639099
0.272644 0.623322 0.640381
0.378296 0.634186 0.651245
0.539307 0.662018 0.672668
0.706055 0.695557 0.691986
0.816406 0.688232 0.677582
0.922363 0.685699 0.686462
0.301971 0.717346 0.693573
0.304535 0.716309 0.693176
0.318756 0.715149 0.693268
0.369293 0.716705 0.696808
0.473053 0.726318 0.708160
0.611755 0.745361 0.721680
0.749512 0.759277 0.706848
0.851562 0.756531 0.660126
0.937378 0.783386 0.670929
0.436432 0.767944 0.726440
0.443024 0.768311 0.727203
0.463165 0.769745 0.729767
0.510040 0.774780 0.737030
0.585724 0.785919 0.750244
0.680969 0.801331 0.755798
0.786102 0.805969 0.702393
0.872803 0.792114 0.590546
0.926147 0.825317 0.594513
0.254456 0.389740 0.532074
0.254761 0.387756 0.530060
0.255646 0.383759 0.525879
0.257996 0.376801 0.518250
0.265656 0.367096 0.505829
0.307434 0.361542 0.491211
0.409698 0.381073 0.507904
0.501190 0.408600 0.561157
0.548798 0.399933 0.594299
0.254456 0.398773 0.540222
0.254456 0.396759 0.538361
0.254761 0.392700 0.534515
0.255951 0.385590 0.527344
0.262512 0.375671 0.515656
0.306946 0.370758 0.501312
0.416412 0.393219 0.517303
0.511200 0.421814 0.569672
0.555878 0.409027 0.599457
0.257111 0.418060 0.555878
0.256836 0.415985 0.554260
0.256226 0.411713 0.550781
0.255798 0.404327 0.544434
0.260498 0.394043 0.534088
0.308746 0.390106 0.520813
0.429565 0.416473 0.536072
0.531403 0.447357 0.586853
0.573364 0.427002 0.611877
0.266937 0.452789 0.580566
0.266235 0.450684 0.579071
0.264954 0.446228 0.576050
0.262939 0.438629 0.570618
0.266235 0.427887 0.561951
0.319336 0.424591 0.551666
0.452423 0.455170 0.567383
0.565430 0.488434 0.614868
0.612122 0.463104 0.637573
0.287903 0.506104 0.614258
0.287109 0.503876 0.612885
0.285156 0.499359 0.610077
0.282257 0.491486 0.605255
0.286987 0.481110 0.598541
0.347382 0.479370 0.593781
0.488831 0.513123 0.612518
0.614655 0.546204 0.653625
0.678040 0.519257 0.674713
0.323547 0.580170 0.658112
0.322540 0.578033 0.656799
0.320282 0.573456 0.654175
0.317413 0.565796 0.649719
0.328461 0.557098 0.645111
0.399292 0.559723 0.647034
0.543671 0.594727 0.669159
0.678040 0.622101 0.699951
0.756378 0.592468 0.713501
0.371307 0.666626 0.705688
0.370178 0.664825 0.704712
0.368073 0.661072 0.702698
0.367950 0.654968 0.699524
0.389465 0.649902 0.697632
0.470398 0.657928 0.704712
0.614624 0.692657 0.729492
0.749237 0.713226 0.748413
0.833740 0.683960 0.747986
0.440399 0.741943 0.745667
0.439087 0.740906 0.745026
0.437225 0.738708 0.743958
0.440399 0.735596 0.742615
0.471069 0.735107 0.744019
0.555603 0.747253 0.755310
0.685394 0.777191 0.776855
0.819336 0.808777 0.797852
0.894653 0.784698 0.767151
0.522888 0.778931 0.766785
0.523132 0.778931 0.766785
0.525482 0.779114 0.767029
0.538239 0.780701 0.768982
0.579346 0.788696 0.777008
0.656433 0.808716 0.794312
0.752686 0.833252 0.802979
0.847839 0.843903 0.767426
0.920654 0.855652 0.739471
0.397552 0.465424 0.597229
0.397400 0.463593 0.595367
0.396942 0.460175 0.591644
0.396332 0.454285 0.585022
0.395966 0.445709 0.575073
0.396942 0.434570 0.561340
0.420685 0.429810 0.550842
0.510101 0.463684 0.587585
0.595734 0.506348 0.654053
0.399384 0.473328 0.605286
0.398956 0.471558 0.603424
0.398254 0.467987 0.599792
0.397308 0.461853 0.593262
0.396332 0.452942 0.583374
0.396942 0.441559 0.569733
0.422638 0.437439 0.559113
0.516937 0.474121 0.595215
0.603180 0.516357 0.660034
0.405029 0.490814 0.621460
0.404327 0.488922 0.619751
0.403137 0.485016 0.616150
0.401215 0.478455 0.609772
0.399048 0.468872 0.600159
0.398438 0.456726 0.586792
0.427155 0.453827 0.576233
0.530853 0.495636 0.611725
0.618103 0.536499 0.672058
0.419708 0.523499 0.648254
0.418793 0.521515 0.646637
0.416718 0.517303 0.643311
0.413483 0.510101 0.637390
0.409271 0.499481 0.628357
0.406128 0.486053 0.615723
0.438934 0.485016 0.606995
0.555420 0.534210 0.642059
0.643738 0.570740 0.692963
0.449341 0.575012 0.683807
0.448059 0.572845 0.682495
0.445465 0.568512 0.679596
0.440948 0.560944 0.674500
0.434479 0.549561 0.666565
0.428925 0.535156 0.655670
0.467346 0.538666 0.652588
0.593689 0.593140 0.687836
0.681152 0.620361 0.724121
0.495972 0.643921 0.723938
0.494507 0.641907 0.722839
0.491547 0.637726 0.720520
0.486389 0.630371 0.716431
0.478729 0.619324 0.710052
0.473694 0.606476 0.702393
0.521881 0.618652 0.708496
0.647034 0.671204 0.743011
0.730255 0.684875 0.765564
0.565186 0.723969 0.766785
0.563507 0.722290 0.765869
0.560028 0.718750 0.763885
0.553864 0.712341 0.760468
0.545166 0.702728 0.755310
0.543915 0.694580 0.751434
0.602386 0.715271 0.766174
0.712494 0.757263 0.798431
0.789612 0.760071 0.814148
0.657440 0.796448 0.810059
0.656006 0.795410 0.809448
0.652954 0.793335 0.808105
0.647247 0.789429 0.805573
0.639557 0.783630 0.802032
0.649353 0.784485 0.804260
0.716522 0.810913 0.826782
0.800964 0.842529 0.855591
0.859619 0.842834 0.865906
0.708801 0.826538 0.830780
0.708832 0.826447 0.830780
0.709045 0.826538 0.830780
0.709259 0.826599 0.830780
0.713745 0.828339 0.832336
0.755493 0.846191 0.848022
0.843994 0.885498 0.883789
0.914612 0.918640 0.915588
0.919739 0.920898 0.917664
