public/LUTs/Rubi.cube
# Copyright: (C) Copyright 2010-2018 by IWLTBAP SAS
# Cannot be resold, shared or otherwise redistributed
# Website: https://luts.iwltbap.com
TITLE "IWLTBAP Rubi (Rec.709, sRGB, DCI-P3)"
LUT_3D_SIZE 5
0.070526 0.065094 0.064514
0.389740 0.148071 0.117065
0.596252 0.143127 0.097137
0.761414 0.150726 0.111511
0.940063 0.113281 0.093842
0.228577 0.240540 0.194946
0.412811 0.262939 0.132416
0.586456 0.253540 0.081970
0.760559 0.282257 0.094696
0.951019 0.284607 0.076660
0.413330 0.429962 0.341125
0.531372 0.449707 0.251892
0.651550 0.451294 0.117401
0.762329 0.475311 0.050354
0.977905 0.491333 0.033905
0.593994 0.618011 0.496429
0.664825 0.624542 0.402008
0.770691 0.606476 0.215881
0.806854 0.622620 0.073151
0.995850 0.742859 0.003143
0.693481 0.743774 0.627716
0.744080 0.739929 0.534515
0.818481 0.708374 0.273346
0.836578 0.660126 0.156189
0.904724 0.785553 0.084259
0.095093 0.145325 0.171936
0.241516 0.156677 0.216217
0.543610 0.156189 0.283051
0.750244 0.133026 0.271973
0.938202 0.098328 0.269867
0.119415 0.235382 0.239105
0.281433 0.263092 0.252930
0.552582 0.265778 0.272095
0.752136 0.268890 0.268066
0.949646 0.273346 0.266205
0.281342 0.409882 0.377533
0.426514 0.441101 0.367462
0.619507 0.465485 0.288391
0.758789 0.476562 0.255463
0.977722 0.487427 0.256226
0.514069 0.607117 0.545258
0.596008 0.624786 0.511444
0.743164 0.621521 0.340149
0.807281 0.628693 0.212402
0.996796 0.744202 0.247925
0.654388 0.744354 0.670746
0.700745 0.748810 0.630951
0.805542 0.727448 0.370453
0.842346 0.669495 0.162201
0.908325 0.789490 0.189209
0.128448 0.237183 0.302582
0.138885 0.227234 0.295898
0.338135 0.254150 0.370361
0.630463 0.215515 0.482269
0.887939 0.085175 0.500336
0.124023 0.278229 0.329346
0.136566 0.271667 0.325897
0.378937 0.315643 0.394196
0.666016 0.302338 0.484131
0.914001 0.257111 0.500275
0.135101 0.399994 0.414398
0.186920 0.401215 0.417145
0.476990 0.462799 0.464264
0.735901 0.483307 0.482971
0.970154 0.481720 0.495087
0.254303 0.590820 0.553589
0.374542 0.606079 0.570862
0.618866 0.644684 0.572021
0.794067 0.652649 0.461639
0.994232 0.741516 0.493622
0.553802 0.749207 0.690308
0.601624 0.755524 0.699158
0.725861 0.767700 0.651550
0.855408 0.716431 0.287628
0.923706 0.803650 0.311096
0.194763 0.330017 0.449188
0.196960 0.323334 0.442780
0.229614 0.308380 0.423706
0.442017 0.355347 0.497162
0.634857 0.295410 0.598724
0.192322 0.360352 0.472626
0.192535 0.353638 0.467651
0.227234 0.340393 0.453674
0.479980 0.402191 0.527954
0.668365 0.348236 0.610840
0.200500 0.453461 0.532928
0.200134 0.446320 0.528320
0.259308 0.439087 0.525940
0.571899 0.512085 0.595947
0.816406 0.477905 0.663544
0.227905 0.628815 0.641785
0.234589 0.623657 0.639099
0.378296 0.634186 0.651245
0.706055 0.695557 0.691986
0.922363 0.685699 0.686462
0.436432 0.767944 0.726440
0.463165 0.769745 0.729767
0.585724 0.785919 0.750244
0.786102 0.805969 0.702393
0.926147 0.825317 0.594513
0.397552 0.465424 0.597229
0.396942 0.460175 0.591644
0.395966 0.445709 0.575073
0.420685 0.429810 0.550842
0.595734 0.506348 0.654053
0.405029 0.490814 0.621460
0.403137 0.485016 0.616150
0.399048 0.468872 0.600159
0.427155 0.453827 0.576233
0.618103 0.536499 0.672058
0.449341 0.575012 0.683807
0.445465 0.568512 0.679596
0.434479 0.549561 0.666565
0.467346 0.538666 0.652588
0.681152 0.620361 0.724121
0.565186 0.723969 0.766785
0.560028 0.718750 0.763885
0.545166 0.702728 0.755310
0.602386 0.715271 0.766174
0.789612 0.760071 0.814148
0.708801 0.826538 0.830780
0.709045 0.826538 0.830780
0.713745 0.828339 0.832336
0.843994 0.885498 0.883789
0.919739 0.920898 0.917664
