public/LUTs/Rubi.cube
# Copyright: (C) Copyright 2010-2018 by IWLTBAP SAS
# Cannot be resold, shared or otherwise redistributed
# Website: https://luts.iwltbap.com
TITLE "IWLTBAP Rubi (Rec.709, sRGB, DCI-P3)"
LUT_3D_SIZE 33
0.070526 0.065094 0.064514
0.113586 0.081482 0.078125
0.157684 0.097931 0.091736
0.200684 0.113251 0.102997
0.242462 0.125916 0.111847
0.282379 0.135681 0.117401
0.320251 0.142548 0.119415
0.356049 0.146454 0.119415
0.389740 0.148071 0.117065
0.421082 0.148071 0.113983
0.450378 0.146729 0.110077
0.477814 0.145355 0.106415
0.503662 0.143677 0.103027
0.528198 0.142578 0.100311
0.551727 0.142029 0.098328
0.574341 0.142303 0.097137
0.596252 0.143127 0.097137
0.617645 0.144531 0.097931
0.638641 0.146454 0.099518
0.659393 0.148071 0.101471
0.679871 0.149414 0.103424
0.700256 0.150482 0.105286
0.720581 0.151001 0.107147
0.740906 0.151001 0.108978
0.761414 0.150726 0.111511
0.782074 0.150208 0.113617
0.803070 0.148621 0.115356
0.824524 0.145905 0.115692
0.846436 0.141724 0.114319
0.868927 0.135986 0.110809
0.892212 0.129059 0.106049
0.915955 0.121399 0.099915
0.940063 0.113281 0.093842
0.087402 0.084259 0.079102
0.127167 0.098328 0.090027
0.167694 0.112213 0.100311
0.207764 0.124969 0.108978
0.246826 0.135376 0.114990
0.284607 0.143677 0.118408
0.321045 0.149139 0.119080
0.355835 0.152313 0.117737
0.388824 0.153870 0.115356
0.419769 0.153870 0.111877
0.448853 0.152832 0.108276
0.476288 0.151764 0.104553
0.502258 0.150726 0.101105
0.526855 0.150208 0.098724
0.550507 0.150452 0.096741
0.573181 0.151520 0.095917
0.595276 0.153076 0.095917
0.616852 0.155151 0.097137
0.637939 0.157715 0.098328
0.658752 0.160217 0.100311
0.679382 0.162170 0.102264
0.699829 0.163879 0.104156
0.720276 0.165100 0.106049
0.740723 0.165802 0.107910
0.761353 0.166534 0.110443
0.782166 0.166534 0.112579
0.803223 0.165588 0.114319
0.824768 0.163635 0.114685
0.846802 0.159943 0.113281
0.869415 0.154907 0.109711
0.892761 0.148590 0.104919
0.916626 0.141724 0.098724
0.940765 0.134186 0.092590
0.105286 0.104919 0.094666
0.141693 0.116364 0.102631
0.178680 0.127472 0.109711
0.215485 0.137421 0.115356
0.251892 0.146149 0.118744
0.287476 0.152557 0.120087
0.322418 0.157196 0.119080
0.356049 0.159698 0.116730
0.388123 0.160706 0.113617
0.418610 0.160706 0.109711
0.447510 0.159943 0.106049
0.474792 0.159210 0.102631
0.500732 0.158722 0.099518
0.525421 0.158722 0.097137
0.549164 0.159454 0.095093
0.571960 0.160950 0.094696
0.594147 0.163147 0.094696
0.615845 0.166046 0.095490
0.637115 0.169128 0.097137
0.658112 0.172394 0.099121
0.678833 0.175110 0.100708
0.699402 0.177368 0.102631
0.719940 0.179352 0.104553
0.740570 0.180908 0.106781
0.761200 0.181976 0.108978
0.782166 0.182648 0.111145
0.803406 0.182648 0.112915
0.825012 0.181122 0.113281
0.847168 0.178253 0.111877
0.869934 0.173981 0.108276
0.893372 0.168427 0.103424
0.917358 0.161926 0.097534
0.941650 0.155396 0.091339
0.124329 0.126221 0.110413
0.157166 0.135376 0.115692
0.190643 0.144226 0.120087
0.224121 0.152313 0.123016
0.257996 0.159210 0.123993
0.291473 0.164368 0.123047
0.324554 0.167725 0.120422
0.356842 0.169617 0.116730
0.388031 0.170074 0.112579
0.417786 0.169830 0.108276
0.446228 0.169128 0.104156
0.473328 0.168182 0.100311
0.499146 0.167725 0.097137
0.523895 0.168182 0.095093
0.547699 0.169128 0.093445
0.570618 0.171234 0.092590
0.592926 0.173981 0.093018
0.614777 0.177368 0.094269
0.636169 0.181122 0.095490
0.657257 0.184784 0.097534
0.678192 0.188385 0.099518
0.698944 0.191284 0.101105
0.719604 0.193726 0.103027
0.740265 0.195953 0.105286
0.761169 0.197754 0.107544
0.782227 0.199127 0.109711
0.803589 0.199707 0.111511
0.825378 0.198944 0.111511
0.847656 0.196564 0.110077
0.870544 0.192932 0.106781
0.894104 0.187958 0.101868
0.918182 0.182434 0.095917
0.942596 0.176483 0.090027
0.144226 0.148315 0.127167
0.173737 0.155914 0.129974
0.203766 0.162903 0.131805
0.234406 0.169373 0.132385
0.265656 0.174896 0.130890
0.297028 0.178925 0.127808
0.328339 0.181549 0.123352
0.359039 0.182648 0.118073
0.388824 0.182648 0.112579
0.417633 0.181976 0.107147
0.445374 0.180908 0.102264
0.471985 0.179810 0.098328
0.497620 0.179352 0.095093
0.522278 0.179596 0.093018
0.546112 0.180695 0.091339
0.569122 0.182861 0.090912
0.591553 0.185852 0.091339
0.613495 0.189636 0.092163
0.635071 0.193726 0.093842
0.656372 0.197937 0.095490
0.677368 0.201874 0.097534
0.698273 0.205322 0.099518
0.719177 0.208527 0.101471
0.740051 0.211304 0.103424
0.761108 0.213684 0.105682
0.782257 0.215698 0.107910
0.803833 0.216766 0.109344
0.825745 0.216583 0.109711
0.848206 0.214966 0.108276
0.871277 0.212036 0.104919
0.894958 0.207764 0.099915
0.919189 0.203033 0.094269
0.943756 0.197754 0.088287
0.164612 0.171234 0.143951
0.191071 0.177368 0.144775
0.218170 0.183289 0.144775
0.246368 0.188812 0.143127
0.275269 0.193329 0.140015
0.304504 0.196564 0.134796
0.333923 0.198547 0.128448
0.362976 0.199310 0.121399
0.391266 0.198730 0.113983
0.418793 0.197540 0.107544
0.445465 0.195953 0.101471
0.471252 0.194550 0.096741
0.496368 0.193542 0.093018
0.520813 0.193542 0.090912
0.544495 0.194336 0.089172
0.567566 0.196136 0.088745
0.590118 0.199127 0.089172
0.612183 0.203033 0.090027
0.633850 0.207214 0.091736
0.655273 0.211670 0.093445
0.676514 0.216034 0.095490
0.697540 0.219971 0.097534
0.718628 0.223633 0.099121
0.739746 0.227051 0.101105
0.760986 0.229919 0.103424
0.782410 0.232605 0.105682
0.804108 0.234253 0.107147
0.826202 0.234589 0.107147
0.848877 0.233582 0.105682
0.872131 0.231262 0.102264
0.895996 0.227753 0.097534
0.920471 0.223633 0.091736
0.945190 0.219086 0.086090
0.185425 0.194153 0.160950
0.209259 0.199524 0.160217
0.233917 0.204742 0.158447
0.259735 0.209473 0.155396
0.286560 0.213501 0.150726
0.314148 0.216583 0.143982
0.341949 0.218384 0.135681
0.369293 0.218719 0.126862
0.395966 0.218018 0.117737
0.421814 0.216583 0.109344
0.447052 0.214600 0.102264
0.471771 0.212769 0.096313
0.496033 0.211304 0.091736
0.519836 0.210571 0.088745
0.543182 0.210754 0.086975
0.566101 0.212219 0.086517
0.588623 0.214600 0.086517
0.610809 0.218201 0.087860
0.632568 0.222229 0.089600
0.654083 0.226715 0.091339
0.675537 0.231262 0.093018
0.696808 0.235382 0.095093
0.718079 0.239441 0.096741
0.739349 0.243073 0.098724
0.760864 0.246674 0.101105
0.782471 0.249756 0.103027
0.804443 0.251892 0.104553
0.826782 0.252930 0.104553
0.849670 0.252472 0.103027
0.873108 0.250671 0.099518
0.897217 0.247925 0.094696
0.921875 0.244354 0.089172
0.946899 0.240540 0.083344
0.206848 0.217468 0.177826
0.228424 0.222229 0.176025
0.250824 0.226898 0.173309
0.274567 0.231262 0.168915
0.299622 0.235077 0.162903
0.325684 0.237976 0.154907
0.351990 0.239929 0.145355
0.378021 0.240387 0.134796
0.403107 0.239746 0.123688
0.427399 0.238312 0.113617
0.450989 0.236206 0.104553
0.474091 0.233917 0.097137
0.497070 0.232086 0.091736
0.519836 0.230774 0.087402
0.542542 0.230255 0.085175
0.565063 0.230927 0.084259
0.587311 0.232758 0.084259
0.609375 0.235565 0.085175
0.631317 0.239288 0.086517
0.652954 0.243408 0.088287
0.674500 0.247589 0.090454
0.695953 0.251892 0.092163
0.717468 0.256226 0.093842
0.739014 0.260193 0.095917
0.760681 0.264069 0.097931
0.782593 0.267487 0.099915
0.804810 0.270142 0.101105
0.827454 0.271545 0.101105
0.850586 0.271667 0.099518
0.874329 0.270447 0.096313
0.898682 0.268341 0.091736
0.923584 0.265503 0.086090
0.948853 0.262360 0.080078
0.228577 0.240540 0.194946
0.248230 0.244965 0.192108
0.268463 0.249298 0.188385
0.290588 0.253540 0.183289
0.314026 0.257263 0.176270
0.338867 0.260315 0.167511
0.364166 0.262360 0.156708
0.388916 0.263214 0.144806
0.412811 0.262939 0.132416
0.435638 0.261627 0.120422
0.457581 0.259735 0.109344
0.479004 0.257538 0.100311
0.500244 0.255463 0.093018
0.521576 0.253693 0.087402
0.543030 0.252625 0.084259
0.564728 0.252625 0.082428
0.586456 0.253540 0.081970
0.608337 0.255615 0.082428
0.630096 0.258575 0.083801
0.651794 0.262054 0.085632
0.673462 0.265930 0.086975
0.695038 0.270020 0.088745
0.716797 0.274017 0.090454
0.738586 0.278229 0.092590
0.760559 0.282257 0.094696
0.782776 0.286041 0.096313
0.805237 0.289032 0.097534
0.828186 0.290833 0.097534
0.851624 0.291473 0.095917
0.875671 0.290833 0.092590
0.900330 0.289307 0.087860
0.925507 0.287109 0.082428
0.951019 0.284607 0.076660
0.250824 0.263641 0.212036
0.268463 0.267761 0.208344
0.287109 0.271973 0.203979
0.307404 0.275940 0.198151
0.329681 0.279724 0.190674
0.353333 0.282776 0.181122
0.377625 0.285278 0.169617
0.401733 0.286560 0.156708
0.424805 0.286713 0.143127
0.446655 0.286041 0.129364
0.467133 0.284485 0.116730
0.486786 0.282501 0.105682
0.506073 0.280396 0.096313
0.525482 0.278625 0.089172
0.545319 0.277283 0.084259
0.565765 0.276611 0.081482
0.586578 0.277008 0.080078
0.607727 0.278229 0.080078
0.629150 0.280243 0.081024
0.650757 0.282898 0.081970
0.672485 0.286194 0.083801
0.694244 0.289673 0.085175
0.716125 0.293488 0.086975
0.738159 0.297516 0.088745
0.760437 0.301605 0.090912
0.782898 0.305481 0.092590
0.805725 0.308716 0.093445
0.828979 0.310852 0.093445
0.852783 0.311920 0.091736
0.877136 0.311798 0.088287
0.902161 0.310730 0.083801
0.927704 0.309082 0.078125
0.953613 0.307281 0.072632
0.273346 0.286835 0.229095
0.289307 0.290710 0.225006
0.306335 0.294525 0.220154
0.325226 0.298401 0.213898
0.346039 0.302094 0.205719
0.368622 0.305359 0.195557
0.392242 0.308014 0.183533
0.415802 0.309784 0.170074
0.438538 0.310486 0.155426
0.459717 0.310272 0.140594
0.479279 0.309326 0.126556
0.497559 0.307770 0.113617
0.515076 0.306091 0.102264
0.532440 0.304382 0.093018
0.550140 0.303192 0.086090
0.568665 0.302338 0.081482
0.587982 0.302216 0.079102
0.608093 0.302826 0.077667
0.628845 0.304138 0.077667
0.650085 0.306091 0.078613
0.671631 0.308472 0.079590
0.693481 0.311432 0.081024
0.715515 0.314728 0.082428
0.737793 0.318420 0.084259
0.760315 0.322296 0.086517
0.783112 0.326111 0.087860
0.806274 0.329437 0.088745
0.829895 0.331879 0.088745
0.854065 0.333160 0.086975
0.878784 0.333405 0.083344
0.904175 0.332947 0.079102
0.930115 0.331970 0.073669
0.956329 0.330780 0.068390
0.296021 0.310150 0.246521
0.310608 0.313690 0.242004
0.326233 0.317261 0.236725
0.343628 0.320953 0.230103
0.363190 0.324554 0.221558
0.384735 0.327911 0.210968
0.407471 0.330780 0.198547
0.430664 0.332855 0.184387
0.453217 0.334045 0.169159
0.474304 0.334259 0.153625
0.493561 0.333832 0.138306
0.510986 0.332855 0.123688
0.527039 0.331543 0.110809
0.542419 0.330322 0.099518
0.557892 0.329346 0.090454
0.574066 0.328674 0.083801
0.591431 0.328461 0.079102
0.609924 0.328888 0.076660
0.629486 0.329681 0.075684
0.649963 0.331085 0.075165
0.671112 0.332855 0.075684
0.692871 0.335022 0.076660
0.714966 0.337799 0.078125
0.737427 0.340912 0.079590
0.760162 0.344482 0.081482
0.783386 0.348114 0.082886
0.806854 0.351288 0.083801
0.830872 0.353821 0.083344
0.855469 0.355438 0.081482
0.880585 0.356049 0.078125
0.906433 0.356049 0.073669
0.932739 0.355530 0.068939
0.959351 0.354950 0.063965
0.319122 0.333496 0.264374
0.332397 0.336853 0.259613
0.346771 0.340149 0.253998
0.362793 0.343628 0.247009
0.381073 0.347168 0.238159
0.401398 0.350586 0.227234
0.423370 0.353516 0.214264
0.446075 0.355743 0.199738
0.468414 0.357239 0.184174
0.489624 0.357941 0.167725
0.509064 0.357849 0.151520
0.526276 0.357239 0.135986
0.541565 0.356445 0.121399
0.555481 0.355743 0.108276
0.568848 0.355133 0.097137
0.582642 0.354736 0.088287
0.597473 0.354950 0.081482
0.613739 0.355438 0.077148
0.631653 0.356140 0.074158
0.650848 0.357239 0.072632
0.671265 0.358643 0.072113
0.692627 0.360443 0.072632
0.714600 0.362488 0.073151
0.737152 0.365234 0.074158
0.760162 0.368225 0.075684
0.783630 0.371490 0.077148
0.807556 0.374542 0.077667
0.831970 0.377075 0.077148
0.856903 0.378754 0.075684
0.882568 0.379669 0.072632
0.908813 0.380157 0.068390
0.935608 0.380157 0.063385
0.962646 0.379974 0.058655
0.342377 0.357147 0.282654
0.354645 0.360229 0.277710
0.367767 0.363373 0.271973
0.382538 0.366699 0.264679
0.399567 0.370056 0.255493
0.418701 0.373291 0.244202
0.439606 0.376221 0.230957
0.461639 0.378662 0.216064
0.483917 0.380341 0.199738
0.505371 0.381165 0.183075
0.525116 0.381439 0.166077
0.542694 0.381073 0.149689
0.557831 0.380615 0.133911
0.570953 0.380157 0.119415
0.582855 0.379974 0.106781
0.594421 0.380157 0.095490
0.606689 0.380707 0.086517
0.620361 0.381622 0.079590
0.635834 0.382812 0.074677
0.653290 0.384003 0.071075
0.672424 0.385376 0.069489
0.692963 0.386932 0.068390
0.714600 0.388733 0.067871
0.737122 0.390900 0.068390
0.760254 0.393494 0.069489
0.783966 0.396301 0.070526
0.808289 0.399109 0.071075
0.833130 0.401459 0.070526
0.858582 0.403290 0.068939
0.884644 0.404480 0.066223
0.911377 0.405273 0.062225
0.938599 0.405762 0.057434
0.966187 0.406036 0.053009
0.365906 0.381073 0.301483
0.377075 0.383911 0.296417
0.389191 0.386932 0.290588
0.402863 0.390076 0.283173
0.418610 0.393219 0.273773
0.436584 0.396301 0.262238
0.456421 0.399200 0.248535
0.477661 0.401550 0.233124
0.499481 0.403290 0.216431
0.520996 0.404327 0.198944
0.541229 0.404663 0.181580
0.559448 0.404480 0.164398
0.575043 0.404053 0.148071
0.588135 0.403900 0.132721
0.599152 0.403900 0.118439
0.609070 0.404480 0.105286
0.619019 0.405518 0.094269
0.629974 0.406982 0.084717
0.642822 0.408661 0.077148
0.657837 0.410522 0.071594
0.675079 0.412201 0.067322
0.694305 0.413879 0.065094
0.715210 0.415710 0.063385
0.737366 0.417694 0.062805
0.760559 0.420013 0.062805
0.784485 0.422546 0.063385
0.809143 0.425049 0.063965
0.834351 0.427307 0.063385
0.860291 0.429169 0.061646
0.886810 0.430603 0.059265
0.914124 0.431610 0.055573
0.941833 0.432495 0.051697
0.969910 0.433289 0.046906
0.389557 0.405334 0.321045
0.399811 0.408081 0.315918
0.410950 0.410797 0.309937
0.423615 0.413727 0.302460
0.438293 0.416626 0.292877
0.455078 0.419678 0.281067
0.473816 0.422394 0.267090
0.494080 0.424744 0.250977
0.515320 0.426422 0.233765
0.536591 0.427490 0.215698
0.557098 0.427795 0.197571
0.575928 0.427643 0.180054
0.592346 0.427246 0.163177
0.606018 0.426849 0.146973
0.617004 0.426941 0.131805
0.626038 0.427643 0.117737
0.634186 0.429016 0.104553
0.642731 0.431000 0.093018
0.652771 0.433350 0.082886
0.665009 0.435944 0.074677
0.679871 0.438446 0.067871
0.697205 0.440765 0.062805
0.716797 0.442993 0.059265
0.738281 0.445160 0.057434
0.761169 0.447418 0.056213
0.785156 0.449860 0.056213
0.810059 0.452179 0.056213
0.835663 0.454407 0.055573
0.862122 0.456329 0.053650
0.889221 0.457947 0.051697
0.916992 0.459351 0.048309
0.945251 0.460541 0.044739
0.973816 0.461700 0.041016
0.413330 0.429962 0.341125
0.422882 0.432404 0.335907
0.433136 0.434937 0.329895
0.444855 0.437592 0.322327
0.458405 0.440399 0.312622
0.474091 0.443146 0.300751
0.491730 0.445770 0.286316
0.510986 0.448059 0.269897
0.531372 0.449707 0.251892
0.552185 0.450684 0.233124
0.572662 0.450989 0.214264
0.591949 0.450684 0.195953
0.609222 0.450165 0.178711
0.623718 0.449554 0.162201
0.635315 0.449341 0.146454
0.644257 0.449860 0.131500
0.651550 0.451294 0.117401
0.658234 0.453522 0.103790
0.665741 0.456573 0.091339
0.675079 0.459900 0.080536
0.687134 0.463318 0.071075
0.702087 0.466644 0.063385
0.719818 0.469727 0.057434
0.740112 0.472565 0.053009
0.762329 0.475311 0.050354
0.786102 0.477905 0.048981
0.811157 0.480408 0.048309
0.837158 0.482758 0.046906
0.864014 0.484802 0.045471
0.891632 0.486664 0.043274
0.919952 0.488312 0.041016
0.948792 0.489868 0.037872
0.977905 0.491333 0.033905
0.437225 0.454712 0.361542
0.445923 0.456940 0.356354
0.455444 0.459290 0.350372
0.466248 0.461700 0.342712
0.479004 0.464325 0.332977
0.493622 0.466919 0.320831
0.510223 0.469360 0.306213
0.528381 0.471436 0.289307
0.547852 0.473053 0.270721
0.567932 0.473969 0.251129
0.588074 0.474121 0.231445
0.607391 0.473755 0.212433
0.625244 0.472900 0.194550
0.640686 0.471985 0.177612
0.653198 0.471344 0.161713
0.662872 0.471436 0.146454
0.669983 0.472473 0.131500
0.675659 0.474670 0.116730
0.681244 0.477905 0.102631
0.688049 0.481873 0.089172
0.697205 0.486328 0.076660
0.709351 0.490814 0.065643
0.724731 0.495087 0.056824
0.743225 0.499146 0.050354
0.764343 0.502838 0.045471
0.787598 0.506165 0.042511
0.812561 0.509186 0.040222
0.838806 0.511963 0.038635
0.866028 0.514374 0.037079
0.894165 0.516541 0.035492
0.923004 0.518555 0.033142
0.952362 0.520386 0.029968
0.982056 0.522186 0.027618
0.460907 0.479584 0.382294
0.469055 0.481567 0.377075
0.477875 0.483643 0.370941
0.488007 0.485901 0.363403
0.499878 0.488220 0.353638
0.513550 0.490601 0.341339
0.529114 0.492889 0.326477
0.546204 0.494843 0.309204
0.564606 0.496307 0.289948
0.583862 0.497101 0.269623
0.603302 0.497162 0.248993
0.622498 0.496704 0.229095
0.640472 0.495636 0.210419
0.656616 0.494293 0.192932
0.670166 0.493103 0.176941
0.680817 0.492554 0.161469
0.688477 0.492889 0.146454
0.693970 0.494568 0.131195
0.698425 0.497620 0.115692
0.703247 0.501923 0.100311
0.709778 0.506989 0.085175
0.719025 0.512665 0.071594
0.731750 0.518433 0.059875
0.747986 0.524078 0.049683
0.767517 0.529327 0.042511
0.789795 0.534027 0.037079
0.814331 0.538116 0.033905
0.840576 0.541779 0.031555
0.868164 0.544800 0.029175
0.896729 0.547516 0.027618
0.926086 0.549866 0.025238
0.955933 0.552002 0.022888
0.986115 0.554108 0.020508
0.484558 0.504211 0.402954
0.492126 0.506042 0.397736
0.500244 0.507904 0.391632
0.509766 0.509979 0.383942
0.520813 0.512085 0.374176
0.533630 0.514191 0.361938
0.548187 0.516235 0.346893
0.564331 0.518005 0.329254
0.581696 0.519257 0.309570
0.599976 0.520020 0.288391
0.618652 0.520081 0.266937
0.637238 0.519379 0.245911
0.655060 0.518127 0.226410
0.671570 0.516479 0.208160
0.685852 0.514709 0.191711
0.697418 0.513367 0.176025
0.706177 0.512787 0.160950
0.712158 0.513611 0.145630
0.716309 0.515900 0.129669
0.719910 0.519958 0.112915
0.724304 0.525360 0.095917
0.730957 0.531952 0.079590
0.740845 0.539154 0.064514
0.754456 0.546570 0.051697
0.771912 0.553711 0.041779
0.792786 0.560364 0.033905
0.816498 0.566193 0.029175
0.842529 0.571259 0.025238
0.870239 0.575470 0.022888
0.899170 0.578918 0.020508
0.928955 0.581818 0.018921
0.959259 0.584351 0.016571
0.989929 0.586731 0.014984
0.507782 0.528534 0.423279
0.514893 0.530182 0.418060
0.522522 0.531891 0.411896
0.531403 0.533661 0.404327
0.541687 0.535522 0.394470
0.553680 0.537384 0.382111
0.567383 0.539276 0.366913
0.582550 0.540771 0.349152
0.598938 0.541962 0.329010
0.616180 0.542542 0.307312
0.633942 0.542480 0.284882
0.651794 0.541718 0.262939
0.669159 0.540283 0.242157
0.685547 0.538239 0.223114
0.700256 0.536072 0.205902
0.712708 0.533966 0.190063
0.722412 0.532440 0.174927
0.729279 0.532013 0.159485
0.733826 0.533295 0.143127
0.736908 0.536377 0.125916
0.739990 0.541534 0.107544
0.744446 0.548462 0.089172
0.751648 0.556763 0.071594
0.762543 0.565918 0.056213
0.777649 0.575226 0.043274
0.796631 0.584259 0.033142
0.819214 0.592407 0.026031
0.844666 0.599426 0.021301
0.872192 0.605286 0.018158
0.901276 0.609985 0.014984
0.931366 0.613739 0.013428
0.962158 0.616882 0.011047
0.993225 0.619720 0.009460
0.530670 0.552246 0.443024
0.537231 0.553711 0.437683
0.544373 0.555206 0.431549
0.552582 0.556763 0.423950
0.562317 0.558411 0.414154
0.573517 0.560150 0.401825
0.586426 0.561615 0.386597
0.600739 0.562988 0.368652
0.616150 0.563934 0.348114
0.632446 0.564392 0.325928
0.649261 0.564240 0.302826
0.666107 0.563385 0.279877
0.682800 0.561859 0.257996
0.698792 0.559631 0.237671
0.713501 0.556915 0.219452
0.726349 0.554169 0.203033
0.736908 0.551666 0.187347
0.744812 0.550018 0.171936
0.750061 0.549866 0.155670
0.753357 0.551727 0.138306
0.755737 0.555878 0.119415
0.758575 0.562469 0.099915
0.763611 0.571289 0.080536
0.771912 0.581696 0.062805
0.784424 0.593079 0.047607
0.801239 0.604584 0.035492
0.822266 0.615387 0.026825
0.846741 0.625000 0.019714
0.873901 0.633118 0.014984
0.902954 0.639648 0.011841
0.933289 0.644775 0.009460
0.964294 0.648865 0.007904
0.995728 0.652466 0.006317
0.552704 0.575195 0.461853
0.558868 0.576447 0.456573
0.565521 0.577759 0.450470
0.573303 0.579132 0.442780
0.582367 0.580566 0.433044
0.592926 0.581970 0.420685
0.605042 0.583344 0.405548
0.618469 0.584412 0.387482
0.632965 0.585236 0.366791
0.648346 0.585449 0.344177
0.664185 0.585114 0.320374
0.680176 0.584137 0.296539
0.696045 0.582520 0.273499
0.711365 0.580109 0.251892
0.725708 0.577209 0.232452
0.738708 0.573914 0.214813
0.749695 0.570587 0.198364
0.758362 0.567719 0.182648
0.764465 0.566040 0.166321
0.768311 0.566254 0.148865
0.770538 0.568970 0.129974
0.772583 0.574524 0.109711
0.775818 0.583008 0.090027
0.781891 0.593994 0.071075
0.791870 0.606781 0.054291
0.806396 0.620453 0.040222
0.825500 0.634033 0.029968
0.848633 0.646545 0.021301
0.875000 0.657440 0.015778
0.903809 0.666443 0.011047
0.934204 0.673645 0.007904
0.965454 0.679413 0.005524
0.997192 0.684448 0.003174
0.573975 0.597168 0.479645
0.579681 0.598267 0.474396
0.585938 0.599365 0.468292
0.593140 0.600525 0.460632
0.601654 0.601776 0.450928
0.611603 0.602905 0.438690
0.622955 0.604004 0.423523
0.635590 0.604828 0.405548
0.649353 0.605408 0.384766
0.663818 0.605499 0.361938
0.678711 0.605042 0.337616
0.693787 0.603943 0.312744
0.708710 0.602173 0.288544
0.723328 0.599731 0.265656
0.737122 0.596649 0.244507
0.749786 0.592896 0.225372
0.760895 0.588928 0.207977
0.770020 0.585052 0.191284
0.776794 0.581970 0.174683
0.781189 0.580383 0.157196
0.783752 0.581207 0.138611
0.785400 0.585052 0.119080
0.787537 0.592407 0.099121
0.791809 0.603027 0.080078
0.799561 0.616425 0.062805
0.811676 0.631714 0.048309
0.828674 0.647675 0.036285
0.850159 0.663147 0.026825
0.875427 0.677246 0.018921
0.903687 0.689270 0.013428
0.933868 0.699280 0.008667
0.965302 0.707581 0.005524
0.997314 0.714874 0.002380
0.593994 0.618011 0.496429
0.599365 0.618896 0.491150
0.605255 0.619812 0.485016
0.611969 0.620758 0.477478
0.620026 0.621765 0.467926
0.629333 0.622772 0.455750
0.640015 0.623596 0.440704
0.651947 0.624207 0.422729
0.664825 0.624542 0.402008
0.678528 0.624451 0.378967
0.692566 0.623749 0.354156
0.706787 0.622559 0.328583
0.720886 0.620728 0.303070
0.734619 0.618164 0.278656
0.747711 0.614868 0.255951
0.759827 0.610962 0.234924
0.770691 0.606476 0.215881
0.779846 0.601807 0.198151
0.786926 0.597473 0.180695
0.791809 0.594299 0.163422
0.794739 0.593079 0.145355
0.796448 0.594849 0.126862
0.798035 0.600189 0.108276
0.801025 0.609558 0.090027
0.806854 0.622620 0.073151
0.816895 0.638611 0.058075
0.831604 0.656281 0.044739
0.851135 0.674377 0.033905
0.874908 0.691589 0.025238
0.902283 0.707062 0.018127
0.932159 0.720520 0.012604
0.963623 0.732178 0.007874
0.995850 0.742859 0.003143
0.612671 0.637482 0.512268
0.617737 0.638275 0.506989
0.623169 0.638977 0.501007
0.629486 0.639771 0.493500
0.636993 0.640564 0.483917
0.645782 0.641357 0.471985
0.655853 0.641968 0.457092
0.667114 0.642395 0.439240
0.679352 0.642487 0.418549
0.692200 0.642151 0.395355
0.705536 0.641357 0.370087
0.718994 0.639954 0.343750
0.732300 0.638031 0.317047
0.745148 0.635315 0.291107
0.757507 0.631897 0.266388
0.768921 0.627808 0.243408
0.779236 0.622955 0.222443
0.788025 0.617798 0.203217
0.795105 0.612488 0.185242
0.800232 0.607941 0.167725
0.803497 0.604767 0.150726
0.805420 0.604248 0.133606
0.806824 0.607269 0.116394
0.809082 0.614502 0.099915
0.813538 0.626251 0.084259
0.821564 0.641907 0.069489
0.834106 0.660461 0.056213
0.851501 0.680481 0.044739
0.873535 0.700531 0.034698
0.899597 0.719421 0.026001
0.928772 0.736664 0.018127
0.960022 0.752289 0.011810
0.992279 0.766937 0.006287
0.629730 0.655670 0.527405
0.634491 0.656281 0.522125
0.639557 0.656952 0.516174
0.645508 0.657532 0.508881
0.652557 0.658142 0.499481
0.660828 0.658752 0.487671
0.670349 0.659119 0.472992
0.680969 0.659363 0.455322
0.692505 0.659271 0.434631
0.704773 0.658691 0.411224
0.717407 0.657623 0.385590
0.730133 0.656158 0.358368
0.742737 0.653900 0.330444
0.754944 0.651123 0.302826
0.766418 0.647583 0.276093
0.777100 0.643311 0.251129
0.786621 0.638306 0.228088
0.794922 0.632690 0.207428
0.801636 0.626770 0.188385
0.806763 0.621124 0.171234
0.810242 0.616333 0.154907
0.812439 0.613647 0.139465
0.813934 0.614197 0.124329
