public/LUTs/W-8510-STD.cube
# Copyright: (C) Copyright 2010-2021 by IWLTBAP SAS
# Cannot be resold, shared or otherwise redistributed
# Website: https://luts.iwltbap.com
TITLE "IWLTBAP 8510 (Rec.709, sRGB, DCI-P3)"
LUT_3D_SIZE 5
0.000000 0.000000 0.000000
0.263275 0.065491 0.049591
0.499756 0.137695 0.105682
0.698212 0.200195 0.152954
0.824524 0.237091 0.185699
0.045837 0.140808 0.055725
0.215302 0.168335 0.063812
0.452728 0.234161 0.116516
0.641296 0.306824 0.169037
0.766266 0.347626 0.202850
0.101196 0.303192 0.111603
0.190521 0.324280 0.103394
0.458344 0.358582 0.146423
0.626434 0.412598 0.175140
0.740295 0.450897 0.213959
0.180176 0.457672 0.167297
0.250610 0.483521 0.168121
0.450562 0.546814 0.180511
0.606049 0.545288 0.211884
0.712463 0.575348 0.220337
0.279816 0.618774 0.209808
0.339111 0.640198 0.219055
0.393433 0.669403 0.223297
0.595856 0.717529 0.250793
0.694244 0.703217 0.259918
0.031464 0.057434 0.136963
0.210602 0.045013 0.148285
0.519379 0.114838 0.196350
0.724915 0.173370 0.226898
0.844330 0.214478 0.248230
0.036804 0.137817 0.148865
0.250458 0.238647 0.239594
0.523041 0.317352 0.280457
0.696869 0.377075 0.313080
0.811066 0.414795 0.317474
0.087982 0.298828 0.192413
0.182007 0.348328 0.186462
0.482605 0.427063 0.266388
0.638580 0.469727 0.288391
0.762939 0.502289 0.294342
0.155457 0.455383 0.194794
0.258026 0.503296 0.224518
0.432190 0.548981 0.221893
0.626923 0.607910 0.310791
0.740997 0.623383 0.294037
0.239227 0.612274 0.246338
0.336792 0.667267 0.281158
0.380432 0.680084 0.272980
0.597656 0.740601 0.301971
0.720917 0.749237 0.337891
0.052460 0.117371 0.294586
0.121979 0.066376 0.306580
0.442078 0.094360 0.291626
0.660980 0.147858 0.327606
0.768341 0.172333 0.340088
0.071136 0.216309 0.328308
0.189728 0.296753 0.419861
0.562836 0.322968 0.444489
0.749939 0.374542 0.450134
0.871002 0.396210 0.443726
0.079987 0.306427 0.347473
0.223450 0.420593 0.447906
0.535889 0.520203 0.522247
0.713776 0.572357 0.535797
0.838989 0.607269 0.542786
0.130493 0.476349 0.423645
0.174835 0.520660 0.447052
0.476868 0.624695 0.476593
0.687012 0.680603 0.536987
0.806183 0.706482 0.516052
0.172760 0.613281 0.403168
0.242615 0.668274 0.389587
0.397034 0.701508 0.335724
0.619141 0.802399 0.459625
0.780243 0.818054 0.525970
0.079193 0.182983 0.437988
0.128571 0.156433 0.505798
0.393921 0.096283 0.422852
0.619659 0.141235 0.428314
0.721466 0.160522 0.450684
0.100647 0.287445 0.475006
0.190521 0.366943 0.572479
0.499268 0.277954 0.579407
0.728302 0.312714 0.565369
0.845917 0.359467 0.580597
0.112701 0.371979 0.498291
0.225281 0.477478 0.589935
0.501587 0.573059 0.658539
0.741394 0.575989 0.668945
0.876007 0.604309 0.673798
0.126373 0.474457 0.529785
0.198273 0.544403 0.591003
0.471649 0.665070 0.671448
0.743103 0.747925 0.735168
0.883850 0.779694 0.751343
0.157776 0.625458 0.602448
0.202515 0.671265 0.639252
0.317993 0.768005 0.689423
0.726440 0.852081 0.724152
0.852722 0.864044 0.738403
0.100891 0.239136 0.560181
0.153534 0.247864 0.645660
0.237671 0.110596 0.526245
0.628876 0.147644 0.543793
0.707489 0.158875 0.550629
0.125977 0.352386 0.611023
0.206268 0.436096 0.711243
0.325958 0.419922 0.747040
0.705994 0.244141 0.642242
0.802155 0.281189 0.660828
0.141022 0.439514 0.641174
0.233459 0.537903 0.735504
0.490997 0.630768 0.796967
0.733398 0.573212 0.798096
0.865753 0.597504 0.794159
0.138458 0.510040 0.650848
0.214661 0.590820 0.727692
0.424011 0.701172 0.803589
0.760223 0.796600 0.866455
0.888000 0.793335 0.871124
0.155151 0.621521 0.690552
0.195709 0.652771 0.721100
0.311218 0.754730 0.797211
0.700195 0.869507 0.874969
0.914856 0.923981 0.915161
