public/LUTs/W-8510-STD.cube
# Copyright: (C) Copyright 2010-2021 by IWLTBAP SAS
# Cannot be resold, shared or otherwise redistributed
# Website: https://luts.iwltbap.com
TITLE "IWLTBAP 8510 (Rec.709, sRGB, DCI-P3)"
LUT_3D_SIZE 33
0.000000 0.000000 0.000000
0.024109 0.003662 0.001221
0.054077 0.011902 0.005951
0.078766 0.019714 0.008484
0.107086 0.027985 0.012970
0.147552 0.037964 0.024323
0.191406 0.048096 0.034668
0.227844 0.057007 0.042450
0.263275 0.065491 0.049591
0.293976 0.074249 0.056183
0.323669 0.084045 0.062897
0.353607 0.093353 0.069427
0.384918 0.102448 0.076385
0.415894 0.111176 0.083588
0.445770 0.120361 0.090759
0.472717 0.128784 0.097992
0.499756 0.137695 0.105682
0.526978 0.146454 0.113037
0.552429 0.154724 0.119049
0.577576 0.162994 0.124359
0.603394 0.171783 0.129974
0.628967 0.180145 0.135956
0.652496 0.187378 0.142029
0.675415 0.193787 0.147491
0.698212 0.200195 0.152954
0.718750 0.206360 0.158417
0.740112 0.213074 0.164276
0.760529 0.220642 0.170532
0.779724 0.227509 0.176025
0.794739 0.231415 0.179443
0.807037 0.233826 0.182251
0.816437 0.235321 0.183960
0.824524 0.237091 0.185699
0.001831 0.012848 0.003113
0.022400 0.018524 0.003479
0.051147 0.028137 0.008514
0.076843 0.035950 0.011688
0.104767 0.044128 0.016083
0.140533 0.053345 0.027100
0.180817 0.062683 0.036957
0.220367 0.071228 0.045135
0.253723 0.078552 0.051758
0.282715 0.086884 0.058228
0.311768 0.095551 0.065002
0.341003 0.104584 0.071655
0.371216 0.113342 0.078461
0.402130 0.121887 0.085510
0.432159 0.130646 0.092804
0.460297 0.139130 0.100098
0.487610 0.148254 0.107697
0.514038 0.157135 0.114349
0.541656 0.165955 0.121521
0.568298 0.175018 0.126465
0.595215 0.184479 0.132202
0.621735 0.193787 0.138763
0.647003 0.201874 0.145294
0.669769 0.208252 0.150818
0.692535 0.214966 0.156403
0.713104 0.221436 0.161774
0.733215 0.228760 0.167114
0.753052 0.236450 0.172974
0.772308 0.243195 0.178009
0.787781 0.246460 0.181213
0.799225 0.248230 0.183563
0.808594 0.249664 0.185333
0.817719 0.251129 0.187164
0.006195 0.030029 0.009216
0.019958 0.031403 0.008545
0.044495 0.041199 0.010101
0.072571 0.049225 0.013123
0.101013 0.057434 0.017212
0.137085 0.066467 0.027863
0.175659 0.075378 0.037506
0.214111 0.083862 0.046234
0.246185 0.090668 0.053070
0.275421 0.098602 0.059601
0.304291 0.106781 0.066345
0.332947 0.115601 0.073456
0.361786 0.124207 0.080353
0.392883 0.132629 0.087921
0.421875 0.140717 0.094940
0.450287 0.149445 0.102600
0.478088 0.158417 0.110138
0.504517 0.167816 0.117218
0.531281 0.177338 0.123169
0.559601 0.186371 0.128601
0.587677 0.196075 0.134552
0.615295 0.205566 0.141571
0.641754 0.215546 0.148956
0.665466 0.223480 0.155060
0.688110 0.229950 0.160492
0.708069 0.236725 0.165314
0.727539 0.244385 0.170258
0.746216 0.250977 0.175018
0.765411 0.257050 0.179443
0.780823 0.260193 0.182617
0.792175 0.262024 0.184967
0.801239 0.263000 0.186768
0.810242 0.264252 0.188599
0.011963 0.046997 0.015167
0.021484 0.046417 0.014374
0.036987 0.050537 0.013733
0.064331 0.060852 0.014893
0.094513 0.069336 0.018341
0.130981 0.078156 0.027527
0.171112 0.087372 0.037598
0.209412 0.095825 0.046539
0.241211 0.102814 0.054108
0.270386 0.109955 0.060638
0.299103 0.117767 0.067078
0.328613 0.126221 0.074127
0.356903 0.134491 0.081390
0.386108 0.142822 0.089355
0.413483 0.150848 0.096924
0.441193 0.158997 0.103760
0.468628 0.167816 0.111328
0.493591 0.177917 0.117889
0.521362 0.187927 0.124664
0.550690 0.198517 0.131927
0.580658 0.208527 0.138184
0.608704 0.218536 0.145050
0.634644 0.228729 0.152435
0.658783 0.237518 0.158752
0.681946 0.244659 0.164429
0.701904 0.251770 0.169098
0.720886 0.259369 0.173798
0.739929 0.265320 0.177979
0.758972 0.270416 0.181915
0.774170 0.274536 0.185242
0.785309 0.276337 0.187378
0.793762 0.277924 0.189148
0.802643 0.278931 0.190948
0.019806 0.065247 0.022705
0.027893 0.064972 0.021057
0.035492 0.065521 0.020355
0.052307 0.070557 0.020966
0.085327 0.081390 0.020355
0.121307 0.089874 0.027557
0.163239 0.099121 0.037506
0.202850 0.107697 0.046814
0.236328 0.115021 0.054108
0.268066 0.121765 0.061005
0.297546 0.128998 0.067505
0.327179 0.137024 0.074585
0.355408 0.144958 0.082031
0.382965 0.153137 0.090057
0.409332 0.160980 0.097595
0.435333 0.169281 0.105103
0.461639 0.178406 0.112457
0.485931 0.188385 0.118774
0.511444 0.198608 0.125366
0.540894 0.209595 0.133057
0.572388 0.220428 0.140808
0.600952 0.230804 0.147552
0.626587 0.241302 0.154785
0.651123 0.251160 0.161346
0.674927 0.260468 0.167664
0.694672 0.267334 0.172607
0.714111 0.274506 0.177399
0.733246 0.280731 0.181671
0.752167 0.285553 0.185425
0.767365 0.289307 0.188416
0.778168 0.292084 0.190887
0.786896 0.294037 0.192902
0.795013 0.295593 0.194611
0.026642 0.083069 0.031036
0.035217 0.084106 0.029510
0.041443 0.084961 0.027771
0.052032 0.086700 0.027557
0.075653 0.092957 0.025452
0.109924 0.102020 0.028809
0.151581 0.111237 0.038452
0.196106 0.119995 0.047150
0.232819 0.128235 0.054810
0.265411 0.134918 0.061768
0.296844 0.141876 0.068542
0.326752 0.149078 0.075653
0.355499 0.157196 0.083130
0.382233 0.165009 0.090332
0.408295 0.172974 0.097565
0.433105 0.181519 0.104797
0.457001 0.190552 0.112061
0.480408 0.200409 0.118958
0.504578 0.210205 0.125824
0.531311 0.220642 0.133209
0.562653 0.231995 0.141968
0.590912 0.243713 0.149475
0.616211 0.254700 0.156555
0.641052 0.264923 0.163422
0.665222 0.274170 0.169830
0.685577 0.281555 0.175232
0.704773 0.288025 0.180115
0.724182 0.293701 0.184540
0.742859 0.298218 0.188263
0.758636 0.301849 0.191284
0.770081 0.304688 0.193481
0.779144 0.307220 0.195679
0.787506 0.309357 0.197601
0.032410 0.101685 0.039368
0.040833 0.102966 0.038818
0.048004 0.104706 0.037842
0.057281 0.106720 0.036102
0.076752 0.110474 0.032379
0.100861 0.116058 0.032410
0.140320 0.124298 0.041046
0.187286 0.133728 0.049469
0.228943 0.142059 0.056641
0.263611 0.150299 0.063507
0.296112 0.157196 0.070374
0.326355 0.163879 0.077637
0.356079 0.172485 0.085327
0.382904 0.179993 0.092560
0.407806 0.187073 0.099182
0.431885 0.195282 0.105896
0.455078 0.203796 0.112762
0.478241 0.211853 0.120056
0.501709 0.221222 0.127045
0.527008 0.231598 0.134125
0.555145 0.243622 0.142090
0.582184 0.255463 0.149750
0.607025 0.266724 0.156830
0.631012 0.276733 0.163727
0.654633 0.285217 0.170197
0.675629 0.292908 0.175873
0.695221 0.299591 0.181244
0.714294 0.305786 0.186218
0.733368 0.310608 0.190491
0.749420 0.314453 0.193665
0.761230 0.317047 0.195709
0.770447 0.319427 0.197479
0.779480 0.322052 0.199585
0.038635 0.121002 0.047485
0.047272 0.123016 0.047760
0.054443 0.124878 0.047913
0.062408 0.127014 0.046936
0.078430 0.130768 0.042877
0.104095 0.135559 0.040009
0.132721 0.138611 0.043915
0.177490 0.147400 0.052979
0.222290 0.155701 0.060333
0.260773 0.165070 0.066986
0.294830 0.173248 0.072784
0.325378 0.180634 0.079651
0.355011 0.189575 0.087250
0.382233 0.197510 0.094666
0.407379 0.204193 0.101410
0.430756 0.210815 0.107758
0.453461 0.218567 0.114441
0.476898 0.225739 0.121490
0.500427 0.233948 0.128296
0.524872 0.243958 0.134918
0.551239 0.256165 0.142029
0.577301 0.267487 0.149475
0.600800 0.278687 0.156250
0.623688 0.288330 0.163239
0.646057 0.296844 0.169830
0.667328 0.304108 0.175812
0.687073 0.310669 0.181396
0.705841 0.317719 0.186768
0.724609 0.323639 0.191589
0.741089 0.328217 0.195648
0.753235 0.330566 0.197876
0.762848 0.332642 0.199615
0.772034 0.334747 0.201294
0.045837 0.140808 0.055725
0.054291 0.142883 0.055878
0.061798 0.144714 0.056213
0.068298 0.146454 0.056061
0.078064 0.149475 0.054199
0.106049 0.156616 0.050079
0.136597 0.159943 0.049103
0.171417 0.161652 0.055847
0.215302 0.168335 0.063812
0.257141 0.178772 0.071136
0.293243 0.190857 0.078949
0.325165 0.199707 0.083496
0.354584 0.208313 0.089417
0.382568 0.216003 0.096375
0.407440 0.222534 0.103424
0.430756 0.228333 0.110077
0.452728 0.234161 0.116516
0.475677 0.240387 0.123596
0.498749 0.247742 0.130005
0.522797 0.256897 0.136108
0.547791 0.268524 0.142242
0.574066 0.279053 0.148987
0.597534 0.289612 0.155701
0.619446 0.298889 0.162384
0.641296 0.306824 0.169037
0.661865 0.314240 0.175201
0.681213 0.321533 0.180878
0.699585 0.328949 0.186523
0.717834 0.335938 0.191895
0.734100 0.341125 0.196442
0.746490 0.344055 0.199310
0.756439 0.345795 0.201111
0.766266 0.347626 0.202850
0.052856 0.159576 0.063049
0.061310 0.161591 0.063049
0.069000 0.163574 0.063629
0.075623 0.165619 0.063843
0.081726 0.167572 0.062836
0.102753 0.173248 0.058838
0.138275 0.181061 0.054962
0.171448 0.181152 0.058929
0.208313 0.182556 0.066772
0.249329 0.191040 0.074493
0.288818 0.203766 0.083008
0.323883 0.216492 0.090240
0.355011 0.225098 0.093201
0.383881 0.232300 0.098541
0.408691 0.238312 0.104553
0.432739 0.244293 0.111908
0.454773 0.249634 0.119049
0.476562 0.255585 0.126343
0.498566 0.262695 0.132477
0.521759 0.270996 0.138458
0.545746 0.281189 0.144104
0.570496 0.291046 0.150055
0.594116 0.300568 0.155884
0.616425 0.308807 0.162109
0.637939 0.316315 0.168610
0.657928 0.323578 0.174774
0.677277 0.331085 0.180725
0.695312 0.338776 0.186310
0.713135 0.346222 0.192078
0.728943 0.351807 0.196655
0.740997 0.355316 0.199677
0.751129 0.357086 0.201721
0.761139 0.359039 0.203644
0.059631 0.178589 0.069916
0.068359 0.181030 0.070190
0.075989 0.183105 0.070831
0.082794 0.185608 0.071533
0.087921 0.187317 0.070923
0.100372 0.190125 0.068054
0.135742 0.200073 0.062500
0.175446 0.204987 0.064392
0.208435 0.202911 0.070312
0.242981 0.205475 0.076508
0.282318 0.216217 0.085052
0.319855 0.229065 0.093811
0.354767 0.241455 0.101379
0.386169 0.248993 0.104095
0.410156 0.254364 0.107269
0.434021 0.260071 0.113037
0.457367 0.265961 0.120941
0.479431 0.271484 0.128693
0.500366 0.278687 0.134888
0.522003 0.286499 0.140686
0.544250 0.295502 0.146057
0.567719 0.304138 0.151703
0.590881 0.312378 0.157471
0.613129 0.320038 0.163300
0.634705 0.326996 0.169342
0.654663 0.333618 0.174896
0.674072 0.341187 0.180695
0.692688 0.348724 0.186340
0.710419 0.356171 0.192108
0.725983 0.362488 0.196930
0.738007 0.366150 0.199982
0.748077 0.368347 0.202209
0.758270 0.370239 0.204285
0.066284 0.197693 0.076202
0.074982 0.200562 0.076691
0.082550 0.203003 0.077606
0.088959 0.205688 0.078461
0.094910 0.207275 0.078247
0.101746 0.208649 0.076141
0.128723 0.215515 0.072174
0.179474 0.226746 0.070282
0.217010 0.229340 0.075378
0.244995 0.227966 0.080627
0.277374 0.231049 0.087036
0.315369 0.241119 0.095673
0.351746 0.253601 0.105133
0.384460 0.264557 0.112457
0.412292 0.271240 0.114746
0.435669 0.276489 0.116608
0.459167 0.281952 0.121887
0.482056 0.287689 0.129517
0.504028 0.294739 0.136475
0.524597 0.302338 0.142853
0.545258 0.310303 0.148499
0.566772 0.317871 0.154114
0.588623 0.325653 0.159821
0.609772 0.332794 0.165344
0.630737 0.338959 0.170776
0.651550 0.345367 0.176239
0.671600 0.352783 0.181915
0.690765 0.360016 0.187317
0.708679 0.366364 0.192505
0.724243 0.372894 0.197449
0.736481 0.376526 0.200531
0.746490 0.378937 0.202728
0.756683 0.381073 0.204895
0.072449 0.219055 0.083252
0.080475 0.221649 0.083557
0.088501 0.224091 0.084534
0.096039 0.226410 0.085144
0.103271 0.228027 0.084961
0.108124 0.228668 0.083832
0.125183 0.232269 0.081085
0.174622 0.246674 0.077728
0.223480 0.256104 0.080872
0.257141 0.257935 0.087677
0.281097 0.255402 0.092194
0.313263 0.257050 0.098480
0.348663 0.265503 0.107208
0.381622 0.276642 0.116608
0.410767 0.286530 0.123383
0.436523 0.293182 0.125549
0.460663 0.298279 0.125946
0.483398 0.303741 0.130096
0.506592 0.310211 0.136627
0.528442 0.317810 0.143433
0.548553 0.324890 0.150055
0.568970 0.332001 0.156158
0.588318 0.339355 0.162140
0.608124 0.346100 0.167725
0.627625 0.352386 0.172974
0.647949 0.358368 0.178345
0.668335 0.365326 0.183838
0.687592 0.372162 0.188782
0.706482 0.377960 0.193573
0.722778 0.384064 0.198151
0.734955 0.387695 0.201263
0.744781 0.390106 0.203430
0.755005 0.392334 0.205597
0.078186 0.239563 0.090118
0.086578 0.242523 0.090454
0.095917 0.244659 0.091339
0.105286 0.247162 0.092255
0.112610 0.249542 0.092682
0.116394 0.250336 0.092041
0.126129 0.251984 0.088806
0.164398 0.262848 0.084381
0.216980 0.277374 0.086273
0.263519 0.285156 0.093781
0.295868 0.285889 0.100830
0.321014 0.282440 0.105408
0.348938 0.282257 0.110443
0.379303 0.288513 0.117798
0.408600 0.298187 0.126862
0.435272 0.307587 0.133148
0.462067 0.315521 0.135834
0.486572 0.320862 0.135406
0.508942 0.326782 0.138428
0.531342 0.333801 0.143860
0.553192 0.340118 0.150604
0.572205 0.346802 0.157227
0.590942 0.353607 0.163696
0.608368 0.359772 0.169556
0.626221 0.365753 0.174988
0.644836 0.371918 0.180298
0.664490 0.379089 0.186096
0.683075 0.385681 0.191010
0.702667 0.391785 0.195648
0.720001 0.397278 0.199799
0.732605 0.400635 0.202728
0.742340 0.402954 0.204895
0.752502 0.405243 0.207062
0.085205 0.262177 0.097931
0.093842 0.264893 0.098419
0.102936 0.266968 0.099213
0.113434 0.268982 0.099426
0.121368 0.271545 0.099792
0.127319 0.273041 0.098450
0.132507 0.273499 0.096191
0.156738 0.279449 0.091675
0.206085 0.295044 0.091583
0.257843 0.305939 0.098389
0.300934 0.313324 0.106323
0.333588 0.313507 0.113861
0.357605 0.308472 0.117615
0.381409 0.306549 0.121552
0.406982 0.310822 0.127533
0.433960 0.319763 0.135590
0.461578 0.330048 0.142334
0.489532 0.339203 0.145416
0.512695 0.345856 0.145416
0.533752 0.351562 0.147278
0.554810 0.357452 0.151642
0.574738 0.363190 0.157715
0.592834 0.369080 0.164246
0.609589 0.374390 0.170502
0.626770 0.379578 0.176422
0.644196 0.385498 0.182068
0.661896 0.393005 0.188049
0.678497 0.399780 0.193176
0.697723 0.406799 0.198151
0.715424 0.412262 0.202179
0.728729 0.415588 0.205048
0.738464 0.417969 0.207275
0.748779 0.420105 0.209503
0.093353 0.283447 0.104950
0.101074 0.285675 0.105316
0.111359 0.287903 0.105499
0.122742 0.290436 0.104950
0.133392 0.293671 0.104736
0.140381 0.295349 0.103882
0.142548 0.294800 0.102600
0.156158 0.297302 0.099091
0.196564 0.309570 0.098114
0.244446 0.324768 0.103363
0.295624 0.332977 0.109711
0.335846 0.339966 0.118042
0.367615 0.340729 0.125641
0.391022 0.335144 0.129364
0.410156 0.331085 0.131927
0.432587 0.333923 0.136963
0.459656 0.342926 0.144348
0.488556 0.353729 0.151306
0.513947 0.362976 0.154602
0.536682 0.370087 0.155029
0.556091 0.374939 0.155792
0.573456 0.380249 0.158417
0.592377 0.385590 0.163788
0.610229 0.390594 0.170166
0.627319 0.395264 0.176544
0.644501 0.401276 0.182678
0.660736 0.407532 0.188599
0.676300 0.414429 0.194519
0.693817 0.421906 0.200165
0.710388 0.428070 0.204865
0.723755 0.432007 0.208038
0.733368 0.434235 0.210144
0.743317 0.436371 0.212311
0.101196 0.303192 0.111603
0.108643 0.305695 0.112122
0.119965 0.308380 0.111938
0.131348 0.310883 0.111450
0.144592 0.314819 0.111053
0.152802 0.316895 0.110291
0.154053 0.316101 0.109222
0.159882 0.316101 0.106873
0.190521 0.324280 0.103394
0.234253 0.340210 0.108673
0.285706 0.350220 0.113403
0.331848 0.359802 0.120941
0.368713 0.365570 0.130035
0.397766 0.365295 0.137024
0.418488 0.360931 0.139679
0.436371 0.356659 0.141785
0.458344 0.358582 0.146423
0.485748 0.367096 0.153564
0.511444 0.376709 0.159210
0.536621 0.386078 0.163269
0.557251 0.393036 0.163147
0.573639 0.398468 0.162567
0.590393 0.403320 0.164429
0.608032 0.408112 0.169159
0.626434 0.412598 0.175140
0.643768 0.417389 0.181427
0.660065 0.422302 0.187836
0.676575 0.428772 0.194702
0.693085 0.436401 0.201263
0.708618 0.442841 0.206573
0.721283 0.446747 0.209961
0.730621 0.448853 0.211853
0.740295 0.450897 0.213959
0.109222 0.323303 0.118896
0.117340 0.326141 0.119354
0.129303 0.328857 0.119141
0.141418 0.331604 0.118652
0.154236 0.335205 0.118286
0.163544 0.337585 0.117584
0.165833 0.337158 0.116638
0.167236 0.335999 0.115021
0.187103 0.339813 0.111359
0.227814 0.353668 0.114227
0.272461 0.368500 0.118073
0.324585 0.377106 0.124878
0.365509 0.386261 0.132965
0.399109 0.392212 0.141754
0.425049 0.391632 0.147339
0.444244 0.387115 0.149689
0.461487 0.381958 0.151459
0.483002 0.382751 0.155304
0.508331 0.390259 0.161652
0.533630 0.399689 0.167175
0.555359 0.409210 0.170044
0.574188 0.416718 0.169769
0.590118 0.421875 0.168762
0.606049 0.426514 0.170441
0.623596 0.431030 0.174286
0.641418 0.435364 0.179535
0.658386 0.439362 0.185699
0.675873 0.445190 0.193390
0.693756 0.452087 0.201141
0.709503 0.458466 0.207184
0.721771 0.461761 0.210663
0.730988 0.463959 0.212646
0.740326 0.465759 0.214508
0.116821 0.343384 0.126373
0.126373 0.345581 0.126495
0.137848 0.348022 0.126373
0.150146 0.350891 0.125916
0.162415 0.354340 0.125458
0.173462 0.357178 0.124603
0.177216 0.357239 0.123840
0.174896 0.355072 0.122894
0.184204 0.356262 0.120544
0.219818 0.367218 0.120483
0.262848 0.383942 0.123901
0.313599 0.392700 0.129547
0.358582 0.404114 0.135986
0.394440 0.413574 0.144165
0.425415 0.419830 0.152222
0.449646 0.419128 0.157318
0.467987 0.413177 0.159241
0.485046 0.407837 0.160950
0.505981 0.408447 0.164398
0.530182 0.415375 0.170258
0.552856 0.424133 0.174255
0.572510 0.432892 0.176361
0.589966 0.439697 0.175842
0.605438 0.445038 0.174957
0.621643 0.449799 0.176605
0.638123 0.454254 0.179810
0.655396 0.457886 0.184204
0.673828 0.461823 0.190826
0.692230 0.467896 0.198700
0.709015 0.473907 0.205780
0.721710 0.477478 0.209808
0.730835 0.479065 0.211700
0.739868 0.480743 0.213470
0.125214 0.361603 0.133087
0.135559 0.363556 0.133026
0.145721 0.366119 0.133087
0.158539 0.369293 0.132568
0.170837 0.372528 0.132050
0.183289 0.375824 0.131134
0.189484 0.376740 0.130371
0.186615 0.374420 0.129608
0.186279 0.372681 0.128296
0.212250 0.380371 0.126404
0.255035 0.397614 0.128326
0.298706 0.410858 0.134247
0.349091 0.420410 0.140320
0.386139 0.432343 0.146149
0.418762 0.441864 0.154083
0.448608 0.447662 0.162170
0.473083 0.446716 0.167389
0.490570 0.439941 0.168976
0.507599 0.435211 0.170746
0.527557 0.434784 0.173798
0.549194 0.439941 0.177704
0.569702 0.447571 0.180756
0.588531 0.455475 0.182587
0.604767 0.462402 0.182129
0.620544 0.467896 0.181427
0.636200 0.472687 0.183014
0.651978 0.477112 0.186157
0.669495 0.480286 0.190247
0.688324 0.484436 0.196075
0.705841 0.488495 0.202271
0.719055 0.491333 0.206451
0.728119 0.492828 0.208344
0.737152 0.494385 0.210144
0.133850 0.378662 0.139343
0.143616 0.380554 0.139313
0.154724 0.383636 0.139160
0.167267 0.386902 0.138641
0.180389 0.390228 0.138062
0.192566 0.393616 0.137451
0.200043 0.395355 0.136963
0.199707 0.394043 0.136414
0.195892 0.391083 0.135468
0.208221 0.394073 0.133667
0.245667 0.409210 0.134491
0.286377 0.428223 0.140045
0.338165 0.436951 0.145935
0.377960 0.449219 0.149811
0.409790 0.460144 0.155334
0.441742 0.468658 0.163605
0.471527 0.474884 0.172211
0.495056 0.474335 0.177521
0.511322 0.467987 0.178558
0.528931 0.463196 0.180389
0.546204 0.460144 0.181946
0.566223 0.464355 0.185242
0.585480 0.470551 0.187653
0.603668 0.477692 0.189056
0.619354 0.484161 0.188477
0.634338 0.489288 0.188049
0.648834 0.493988 0.189392
0.664459 0.497986 0.192261
0.682312 0.501709 0.196167
0.699738 0.504395 0.200378
0.713226 0.506439 0.203735
0.722412 0.507843 0.205658
0.731720 0.509583 0.207642
0.142822 0.396393 0.145966
0.151794 0.398346 0.146027
0.164551 0.402435 0.146088
0.177307 0.406097 0.145813
0.190430 0.409790 0.145599
0.201965 0.413086 0.145172
0.210449 0.415436 0.144836
0.211761 0.414825 0.144379
0.207092 0.410919 0.143250
0.207794 0.409271 0.141693
0.235626 0.420441 0.140656
0.279449 0.440002 0.144714
0.325134 0.453766 0.151489
0.370209 0.464600 0.155090
0.402344 0.476440 0.158142
0.436218 0.486237 0.164795
0.467163 0.494476 0.173798
0.494354 0.500061 0.182343
0.513611 0.498108 0.186188
0.529114 0.492310 0.187195
0.545837 0.487030 0.188690
0.563019 0.483734 0.190155
0.582062 0.487183 0.192902
0.600494 0.492249 0.194916
0.617493 0.498718 0.195923
0.632263 0.504242 0.195282
0.645630 0.509094 0.194458
0.660248 0.514130 0.195496
0.676300 0.518738 0.198090
0.692749 0.521973 0.201447
0.706055 0.523987 0.204254
0.715393 0.525421 0.206238
0.724823 0.527161 0.208252
0.153198 0.414581 0.152466
0.162628 0.416931 0.152618
0.175079 0.421692 0.153137
0.187897 0.425659 0.153137
0.200256 0.429688 0.153473
0.211761 0.432983 0.153107
0.220825 0.436401 0.152954
0.223419 0.436554 0.152557
0.219452 0.432617 0.151520
0.214935 0.428192 0.150024
0.230316 0.433807 0.148163
0.269989 0.452332 0.148895
0.310822 0.470459 0.156372
0.361115 0.479797 0.162079
0.395966 0.492645 0.164154
0.429688 0.503265 0.167389
0.461609 0.512299 0.174530
0.489960 0.519409 0.183594
0.513367 0.522186 0.190857
0.530212 0.519714 0.194214
0.545166 0.513855 0.195251
0.561737 0.508698 0.196686
0.578674 0.505707 0.198181
0.597198 0.508026 0.200500
0.614380 0.513000 0.201996
0.629456 0.518219 0.202148
0.643555 0.523193 0.201477
0.657745 0.529358 0.201050
0.672485 0.534882 0.201630
0.687439 0.538696 0.203827
0.700073 0.540924 0.206390
0.709198 0.542450 0.208313
0.718689 0.544098 0.210266
0.164368 0.434265 0.159454
0.176300 0.438049 0.159882
0.188568 0.442902 0.160431
0.200165 0.447144 0.160889
0.212433 0.451508 0.161316
0.223236 0.455200 0.161285
0.232056 0.458710 0.161041
0.236023 0.459534 0.160736
0.233582 0.456207 0.159637
0.226013 0.449890 0.158417
0.230927 0.450012 0.156464
0.262085 0.464447 0.155212
0.304535 0.483978 0.161407
0.348969 0.494873 0.167603
0.390808 0.508881 0.172028
0.424469 0.520294 0.172943
0.455170 0.529388 0.175751
0.483185 0.536163 0.183136
0.508820 0.541565 0.192139
0.530121 0.543549 0.199219
0.545868 0.540222 0.202026
0.560455 0.534058 0.202881
0.576630 0.528748 0.204163
0.593353 0.525604 0.205414
0.610718 0.527710 0.206970
0.626190 0.532196 0.207794
0.640900 0.537079 0.207977
0.655914 0.544373 0.208313
0.670135 0.550385 0.207581
0.684479 0.554718 0.208344
0.696198 0.556946 0.210266
0.704834 0.558685 0.212128
0.714539 0.559998 0.214050
0.180176 0.457672 0.167297
0.192657 0.462830 0.167999
0.204865 0.467468 0.168488
0.216492 0.472260 0.169098
0.228058 0.476837 0.169678
0.237793 0.480957 0.169922
0.246613 0.484467 0.169617
0.251465 0.485779 0.169128
0.250610 0.483521 0.168121
0.241486 0.476074 0.166626
0.237579 0.471527 0.165161
0.257355 0.479980 0.162720
0.297272 0.498169 0.165771
0.334961 0.513123 0.173035
0.380096 0.524841 0.179535
0.420502 0.537415 0.181519
0.450562 0.546814 0.180511
0.476227 0.553131 0.182892
0.501892 0.558197 0.191162
0.525482 0.562439 0.200562
0.545410 0.563995 0.207336
0.560455 0.559753 0.209473
0.575317 0.553589 0.210297
0.590149 0.547974 0.210907
0.606049 0.545288 0.211884
0.622467 0.547485 0.213104
0.637756 0.551575 0.213776
0.653259 0.558441 0.214844
0.668427 0.565460 0.215271
0.682861 0.570129 0.215302
0.694244 0.572388 0.216583
0.702972 0.574005 0.218475
0.712463 0.575348 0.220337
0.197968 0.484192 0.174774
0.210663 0.489716 0.175781
0.223145 0.495300 0.176788
0.234650 0.500061 0.177368
0.245819 0.505035 0.177795
0.255432 0.509277 0.178131
0.263336 0.512848 0.178192
0.268433 0.514435 0.178070
0.269806 0.513641 0.177582
0.262665 0.507874 0.175751
0.253448 0.500519 0.174286
0.259247 0.501251 0.172302
0.291290 0.515381 0.172577
0.327454 0.531769 0.180237
0.364075 0.543884 0.186035
0.410980 0.555115 0.190643
0.446411 0.564514 0.189789
0.470673 0.571411 0.187164
0.494354 0.576477 0.190308
0.518066 0.580475 0.199005
0.541229 0.583923 0.208771
0.559753 0.584564 0.214935
0.573822 0.580170 0.216553
0.588043 0.573578 0.216827
0.602722 0.568207 0.217407
0.617828 0.566101 0.218323
0.633636 0.568115 0.219391
0.649658 0.572571 0.220551
0.665802 0.579742 0.222015
0.680725 0.584564 0.222839
0.692871 0.587402 0.224030
0.701752 0.589050 0.225952
0.711334 0.590363 0.227875
0.216858 0.511932 0.182343
0.229828 0.517731 0.183228
0.241913 0.523529 0.184326
0.253204 0.528564 0.185181
0.263550 0.532806 0.186066
0.273041 0.536987 0.186584
0.280457 0.539886 0.187164
0.285828 0.541595 0.187561
0.288727 0.542053 0.187225
0.284943 0.538422 0.185181
0.272797 0.530426 0.182251
0.268921 0.526245 0.180511
0.288330 0.533386 0.180237
0.322083 0.546753 0.185669
0.349030 0.562988 0.191315
0.395874 0.574005 0.197876
0.436859 0.582733 0.199890
0.465912 0.589966 0.196930
0.487335 0.595306 0.194061
0.510193 0.599792 0.197693
0.534393 0.603271 0.207458
0.556610 0.605896 0.217102
0.574066 0.606140 0.222565
