public/LUTs/W-8510-STD.cube
# Copyright: (C) Copyright 2010-2021 by IWLTBAP SAS
# Cannot be resold, shared or otherwise redistributed
# Website: https://luts.iwltbap.com
TITLE "IWLTBAP 8510 (Rec.709, sRGB, DCI-P3)"
LUT_3D_SIZE 9
0.000000 0.000000 0.000000
0.107086 0.027985 0.012970
0.263275 0.065491 0.049591
0.384918 0.102448 0.076385
0.499756 0.137695 0.105682
0.603394 0.171783 0.129974
0.698212 0.200195 0.152954
0.779724 0.227509 0.176025
0.824524 0.237091 0.185699
0.019806 0.065247 0.022705
0.085327 0.081390 0.020355
0.236328 0.115021 0.054108
0.355408 0.144958 0.082031
0.461639 0.178406 0.112457
0.572388 0.220428 0.140808
0.674927 0.260468 0.167664
0.752167 0.285553 0.185425
0.795013 0.295593 0.194611
0.045837 0.140808 0.055725
0.078064 0.149475 0.054199
0.215302 0.168335 0.063812
0.354584 0.208313 0.089417
0.452728 0.234161 0.116516
0.547791 0.268524 0.142242
0.641296 0.306824 0.169037
0.717834 0.335938 0.191895
0.766266 0.347626 0.202850
0.072449 0.219055 0.083252
0.103271 0.228027 0.084961
0.223480 0.256104 0.080872
0.348663 0.265503 0.107208
0.460663 0.298279 0.125946
0.548553 0.324890 0.150055
0.627625 0.352386 0.172974
0.706482 0.377960 0.193573
0.755005 0.392334 0.205597
0.101196 0.303192 0.111603
0.144592 0.314819 0.111053
0.190521 0.324280 0.103394
0.368713 0.365570 0.130035
0.458344 0.358582 0.146423
0.557251 0.393036 0.163147
0.626434 0.412598 0.175140
0.693085 0.436401 0.201263
0.740295 0.450897 0.213959
0.133850 0.378662 0.139343
0.180389 0.390228 0.138062
0.195892 0.391083 0.135468
0.338165 0.436951 0.145935
0.471527 0.474884 0.172211
0.546204 0.460144 0.181946
0.619354 0.484161 0.188477
0.682312 0.501709 0.196167
0.731720 0.509583 0.207642
0.180176 0.457672 0.167297
0.228058 0.476837 0.169678
0.250610 0.483521 0.168121
0.297272 0.498169 0.165771
0.450562 0.546814 0.180511
0.545410 0.563995 0.207336
0.606049 0.545288 0.211884
0.668427 0.565460 0.215271
0.712463 0.575348 0.220337
0.250671 0.562408 0.194885
0.294678 0.579254 0.201233
0.319550 0.588226 0.204498
0.296417 0.572021 0.193756
0.407196 0.620209 0.212585
0.518677 0.642944 0.206696
0.602478 0.650787 0.237946
0.658447 0.633270 0.240662
0.704346 0.639801 0.246490
0.279816 0.618774 0.209808
0.316528 0.632294 0.215637
0.339111 0.640198 0.219055
0.326355 0.630432 0.211212
0.393433 0.669403 0.223297
0.503876 0.698151 0.219208
0.595856 0.717529 0.250793
0.651337 0.692871 0.253510
0.694244 0.703217 0.259918
0.012115 0.023132 0.063446
0.082550 0.018524 0.071228
0.268433 0.057678 0.086823
0.431854 0.105164 0.112244
0.556335 0.142090 0.142303
0.648651 0.177185 0.167267
0.732483 0.208191 0.189270
0.802826 0.235535 0.207794
0.844421 0.252197 0.220428
0.014832 0.064972 0.068634
0.103302 0.089508 0.086700
0.272308 0.135162 0.112915
0.415924 0.175110 0.142120
0.518890 0.212280 0.167908
0.610901 0.248047 0.188934
0.695068 0.278595 0.205261
0.769104 0.292694 0.215698
0.813873 0.306946 0.226410
0.043243 0.136932 0.081787
0.077271 0.154510 0.089417
0.231903 0.191315 0.114258
0.383636 0.228302 0.137451
0.474609 0.256683 0.159363
0.577606 0.297943 0.188385
0.659393 0.335236 0.210266
0.734558 0.360596 0.231079
0.784790 0.369568 0.238953
0.073456 0.219055 0.106842
0.108887 0.240875 0.117432
0.219208 0.266693 0.109528
0.364136 0.283844 0.144531
0.471771 0.321808 0.170349
0.558990 0.347351 0.182556
0.639313 0.373962 0.205872
0.717865 0.406677 0.226196
0.770111 0.417664 0.237854
0.102142 0.310211 0.138428
0.147278 0.328064 0.145569
0.179901 0.332855 0.139771
0.382080 0.371796 0.154602
0.472534 0.375702 0.177216
0.561890 0.409363 0.192566
0.633057 0.423859 0.199524
0.697968 0.457520 0.228455
0.748108 0.472961 0.242493
0.125854 0.383087 0.163513
0.175964 0.396881 0.166962
0.193787 0.398804 0.168762
0.330261 0.435455 0.164825
0.486938 0.481567 0.197083
0.555725 0.473083 0.209625
0.625336 0.496796 0.215179
0.691742 0.509430 0.216980
0.743958 0.520264 0.231079
0.160553 0.460602 0.191528
0.229340 0.486694 0.198853
0.254150 0.494781 0.200775
0.284271 0.501953 0.193909
0.451935 0.548492 0.202057
0.552704 0.575531 0.233704
0.612793 0.564148 0.242828
0.679657 0.582642 0.242828
0.727203 0.589935 0.247070
0.238708 0.563171 0.222015
0.293976 0.589722 0.228668
0.319153 0.600098 0.232025
0.294128 0.583801 0.226562
0.389008 0.624176 0.232208
0.522339 0.642303 0.224609
0.608124 0.664062 0.264008
0.668274 0.654388 0.270142
0.717896 0.661774 0.278137
0.263428 0.618225 0.232086
0.311707 0.642487 0.238708
0.337372 0.652283 0.243256
0.316895 0.638977 0.236633
0.387543 0.668182 0.242859
0.509308 0.698822 0.240387
0.598755 0.725220 0.272919
0.659088 0.709412 0.279327
0.704956 0.720764 0.288025
0.031464 0.057434 0.136963
0.062927 0.044922 0.164307
0.210602 0.045013 0.148285
0.379242 0.082153 0.174896
0.519379 0.114838 0.196350
0.630402 0.142761 0.207977
0.724915 0.173370 0.226898
0.801697 0.202087 0.241241
0.844330 0.214478 0.248230
0.037872 0.099304 0.146576
0.082092 0.118744 0.179474
0.271118 0.129669 0.207001
0.452423 0.177338 0.225708
0.571106 0.209045 0.240448
0.667084 0.239319 0.248840
0.744080 0.267059 0.255280
0.806946 0.299988 0.262146
0.848969 0.323425 0.279114
0.036804 0.137817 0.148865
0.089722 0.181427 0.200745
0.250458 0.238647 0.239594
0.414001 0.274872 0.252747
0.523041 0.317352 0.280457
0.613678 0.353180 0.302612
0.696869 0.377075 0.313080
0.764771 0.403748 0.316833
0.811066 0.414795 0.317474
0.063171 0.223663 0.186920
0.093536 0.248566 0.207977
0.216370 0.307526 0.254395
0.385010 0.337372 0.250916
0.492706 0.359619 0.261658
0.576508 0.390533 0.280396
0.660278 0.418213 0.299652
0.734833 0.447052 0.303406
0.788605 0.456665 0.306488
0.087982 0.298828 0.192413
0.126709 0.330078 0.189484
0.182007 0.348328 0.186462
0.357910 0.399078 0.208069
0.482605 0.427063 0.266388
0.563873 0.451752 0.271118
0.638580 0.469727 0.288391
0.714996 0.489349 0.295380
0.762939 0.502289 0.294342
0.123322 0.381927 0.179199
0.171112 0.399902 0.180725
0.197296 0.409180 0.190704
0.309235 0.447937 0.188568
0.475220 0.498901 0.237457
0.554169 0.515289 0.280670
0.633423 0.538513 0.281097
0.701447 0.550507 0.289215
0.751984 0.554901 0.284332
0.155457 0.455383 0.194794
0.225952 0.485260 0.208008
0.258026 0.503296 0.224518
0.279572 0.508820 0.231812
0.432190 0.548981 0.221893
0.546448 0.602753 0.276031
0.626923 0.607910 0.310791
0.694550 0.618439 0.298187
0.740997 0.623383 0.294037
0.217529 0.557129 0.232056
0.290802 0.595398 0.252319
0.320465 0.612915 0.268799
0.286987 0.592957 0.266907
0.384460 0.636932 0.266602
0.520203 0.647217 0.246307
0.615265 0.697296 0.310089
0.685791 0.691895 0.334839
0.736725 0.696808 0.339691
0.239227 0.612274 0.246338
0.304962 0.649353 0.266052
0.336792 0.667267 0.281158
0.317352 0.654846 0.276886
0.380432 0.680084 0.272980
0.501801 0.704865 0.261536
0.597656 0.740601 0.301971
0.672729 0.742828 0.327148
0.720917 0.749237 0.337891
0.039062 0.087463 0.221405
0.068207 0.084778 0.261719
0.179718 0.050385 0.228638
0.336914 0.068970 0.228516
0.482239 0.104340 0.250092
0.596832 0.133087 0.262848
0.692474 0.156433 0.275757
0.767365 0.173920 0.287903
0.808197 0.182709 0.292633
0.049530 0.136963 0.237091
0.083710 0.155090 0.272339
0.228516 0.131744 0.296844
0.429077 0.156647 0.298401
0.558807 0.194061 0.313904
0.665466 0.216888 0.318146
0.748810 0.224243 0.312500
0.815399 0.228668 0.299255
0.862122 0.252960 0.310303
0.052948 0.175385 0.239685
0.095428 0.216370 0.284546
0.181152 0.259918 0.331451
0.422241 0.289215 0.355286
0.565765 0.330994 0.362793
0.666626 0.361420 0.382080
0.742828 0.384766 0.386078
0.813477 0.411652 0.387634
0.861511 0.428711 0.393890
0.055756 0.220001 0.245331
0.098206 0.264679 0.294342
0.213013 0.336365 0.361694
0.410004 0.387604 0.393005
0.526703 0.412292 0.389679
0.617218 0.449310 0.409546
0.703949 0.481262 0.427917
0.779724 0.504242 0.437042
0.825165 0.514221 0.431091
0.085419 0.316498 0.299347
0.109100 0.339294 0.317719
0.209625 0.399292 0.365479
0.392731 0.461823 0.419952
0.513397 0.483093 0.402466
0.597260 0.500122 0.396301
0.674377 0.526245 0.414124
0.757111 0.546265 0.422577
0.800323 0.551422 0.408081
0.111511 0.391418 0.317383
0.135345 0.411438 0.327393
0.164795 0.427979 0.320221
0.350555 0.493927 0.330231
0.472168 0.543091 0.354614
0.590088 0.565735 0.409943
0.661926 0.588318 0.410034
0.738708 0.599854 0.415924
0.779846 0.600952 0.393311
0.136078 0.454681 0.306549
0.171875 0.484589 0.296875
0.200409 0.495667 0.266998
0.298798 0.522125 0.250580
0.404297 0.568298 0.256775
0.554413 0.631561 0.361511
0.651672 0.646881 0.419434
0.720947 0.660950 0.397797
0.766602 0.660950 0.381042
0.181641 0.557983 0.265472
0.275848 0.585419 0.258575
0.315216 0.603760 0.257416
0.306274 0.603333 0.278320
0.390289 0.643311 0.286743
0.503448 0.661774 0.273621
0.630432 0.729065 0.391327
0.715515 0.729187 0.428253
0.760956 0.734253 0.429901
0.221130 0.605286 0.247528
0.299835 0.642548 0.259155
0.334717 0.660034 0.268433
0.331085 0.664368 0.299500
0.387207 0.692291 0.305573
0.485504 0.713531 0.280029
0.605225 0.766907 0.359711
0.698853 0.778229 0.410858
0.744781 0.785217 0.426239
0.052460 0.117371 0.294586
0.084015 0.125671 0.351776
0.121979 0.066376 0.306580
0.279724 0.063171 0.282013
0.442078 0.094360 0.291626
0.572479 0.127258 0.317902
0.660980 0.147858 0.327606
0.729858 0.163818 0.335693
0.768341 0.172333 0.340088
0.063599 0.169922 0.315002
0.092896 0.189056 0.350983
0.168518 0.176331 0.403625
0.390533 0.140350 0.368073
0.538269 0.169708 0.362946
0.639313 0.192444 0.373810
0.723358 0.205048 0.372864
0.785278 0.213074 0.370209
0.834137 0.228821 0.382355
0.071136 0.216309 0.328308
0.109955 0.260742 0.372589
0.189728 0.296753 0.419861
0.399261 0.301849 0.444519
0.562836 0.322968 0.444489
0.661774 0.351257 0.454437
0.749939 0.374542 0.450134
0.825195 0.386169 0.440033
0.871002 0.396210 0.443726
0.073090 0.251617 0.332001
0.112732 0.298706 0.376282
0.216339 0.360138 0.431580
0.345856 0.407074 0.468414
0.524719 0.424988 0.482391
0.657227 0.465759 0.494781
0.751373 0.486725 0.499939
0.819946 0.505066 0.497864
0.865723 0.520050 0.500244
0.079987 0.306427 0.347473
0.118469 0.348083 0.386383
0.223450 0.420593 0.447906
0.377319 0.480530 0.501343
0.535889 0.520203 0.522247
0.619690 0.539703 0.517212
0.713776 0.572357 0.535797
0.789490 0.597626 0.541901
0.838989 0.607269 0.542786
0.102509 0.393402 0.388275
0.127625 0.418091 0.411102
0.184784 0.466797 0.442810
0.358734 0.539703 0.503448
0.512970 0.583649 0.541016
0.609589 0.605133 0.529449
0.695648 0.624390 0.531281
0.770477 0.643738 0.530457
0.823090 0.648560 0.523773
0.130493 0.476349 0.423645
0.152344 0.497375 0.438171
0.174835 0.520660 0.447052
0.271210 0.576447 0.470001
0.476868 0.624695 0.476593
0.581512 0.667480 0.488586
0.687012 0.680603 0.536987
0.759338 0.700531 0.521820
0.806183 0.706482 0.516052
0.161224 0.565613 0.425232
0.186615 0.588379 0.423096
0.206573 0.605469 0.419250
0.219757 0.607910 0.402222
0.422546 0.668976 0.385406
0.498566 0.702881 0.367371
0.650391 0.758850 0.491760
0.747528 0.762360 0.531616
0.796509 0.768188 0.529022
0.172760 0.613281 0.403168
0.204468 0.648071 0.402252
0.242615 0.668274 0.389587
0.259827 0.663025 0.361664
0.397034 0.701508 0.335724
0.480865 0.731018 0.322571
0.619141 0.802399 0.459625
0.727997 0.812714 0.508728
0.780243 0.818054 0.525970
0.064819 0.148560 0.363495
0.091064 0.153442 0.402832
0.113525 0.110413 0.407806
0.238403 0.073090 0.353638
0.412689 0.091461 0.349945
0.544159 0.121216 0.360199
0.633667 0.143219 0.379791
0.705078 0.158417 0.392517
0.748840 0.167847 0.402283
0.076416 0.201630 0.387939
0.106689 0.227844 0.425201
0.147552 0.233765 0.487244
0.306946 0.141968 0.433929
0.507355 0.156555 0.422089
0.615570 0.178528 0.419434
0.701935 0.194275 0.432129
0.762482 0.203461 0.435120
0.807983 0.215485 0.444397
0.085876 0.251099 0.403931
0.123474 0.296722 0.450104
0.188660 0.332672 0.502991
0.343384 0.332825 0.527618
0.541626 0.295013 0.510193
0.652100 0.316650 0.508179
0.740814 0.344055 0.517975
0.815094 0.369385 0.516083
0.860535 0.388275 0.521851
0.092468 0.294434 0.415649
0.128937 0.338593 0.456635
0.219055 0.398499 0.515259
0.355011 0.446869 0.550385
0.507050 0.447662 0.563873
0.645630 0.459015 0.564819
0.746704 0.487671 0.574371
0.827667 0.500885 0.566040
0.876160 0.510895 0.562439
0.095398 0.335632 0.423279
0.131500 0.376221 0.461212
0.214661 0.438446 0.514465
0.378082 0.505951 0.564728
0.493591 0.540619 0.584961
0.619995 0.549988 0.596100
0.743652 0.578217 0.603851
0.831329 0.590668 0.600433
0.878357 0.598450 0.598419
0.104034 0.392365 0.440369
0.139648 0.429749 0.476379
0.199371 0.480072 0.518127
0.379120 0.557709 0.574799
0.521179 0.601532 0.608032
0.633698 0.632507 0.632599
0.719421 0.654694 0.634033
0.811035 0.683624 0.648376
0.861481 0.694855 0.648346
0.122070 0.471283 0.479828
0.147217 0.495422 0.499969
0.193390 0.546417 0.539520
0.295837 0.604736 0.573761
0.456207 0.650269 0.595154
0.623169 0.691040 0.626801
0.713440 0.717041 0.638367
0.794434 0.734985 0.641907
0.843323 0.742035 0.634399
0.153900 0.572632 0.528290
0.174835 0.595581 0.545410
0.192078 0.616913 0.558594
0.239746 0.659668 0.575653
0.374176 0.711151 0.582062
0.591614 0.749908 0.590057
0.677917 0.786102 0.600586
0.780548 0.791046 0.637848
0.827789 0.796295 0.628662
0.166840 0.629181 0.541138
0.191223 0.658508 0.558289
0.209930 0.680878 0.568756
0.230988 0.700043 0.573090
0.330048 0.751587 0.575165
0.580048 0.795349 0.587158
0.665558 0.824066 0.577026
0.762909 0.837036 0.624420
0.816254 0.839325 0.632141
0.079193 0.182983 0.437988
0.102203 0.184113 0.463837
0.128571 0.156433 0.505798
0.168427 0.094269 0.428467
0.393921 0.096283 0.422852
0.541473 0.125793 0.425659
0.619659 0.141235 0.428314
0.680420 0.152557 0.441376
0.721466 0.160522 0.450684
0.090271 0.235718 0.458588
0.122589 0.269562 0.500977
0.148499 0.267120 0.541992
0.217285 0.180511 0.525757
0.445038 0.138519 0.469849
0.585022 0.166901 0.468719
0.667755 0.182526 0.467102
0.729065 0.189850 0.477722
0.776581 0.202911 0.492767
0.100647 0.287445 0.475006
0.136993 0.331268 0.521667
0.190521 0.366943 0.572479
0.288147 0.390228 0.609222
0.499268 0.277954 0.579407
0.642548 0.296906 0.570251
0.728302 0.312714 0.565369
0.802094 0.332733 0.571167
0.845917 0.359467 0.580597
0.109192 0.333344 0.490265
0.143860 0.372559 0.529724
0.227722 0.438934 0.589783
0.344940 0.484680 0.628937
0.477753 0.466766 0.638367
0.641144 0.435364 0.624542
0.739044 0.463593 0.625610
0.820160 0.491486 0.633728
0.865173 0.500580 0.631897
0.112701 0.371979 0.498291
0.146942 0.408691 0.535278
0.225281 0.477478 0.589935
0.372467 0.539764 0.639008
0.501587 0.573059 0.658539
0.628601 0.557617 0.669128
0.741394 0.575989 0.668945
0.825684 0.597626 0.675079
0.876007 0.604309 0.673798
0.113312 0.409973 0.502533
0.149261 0.447449 0.540924
0.200195 0.500275 0.585571
0.350555 0.574493 0.638916
0.505463 0.621216 0.668152
0.625183 0.654266 0.693634
0.736664 0.660065 0.701141
0.833344 0.684601 0.707581
0.887512 0.691284 0.704651
0.126373 0.474457 0.529785
0.156433 0.500824 0.554077
0.198273 0.544403 0.591003
0.310089 0.610870 0.634796
0.471649 0.665070 0.671448
0.625092 0.707123 0.707581
0.743103 0.747925 0.735168
0.830109 0.765717 0.746704
0.883850 0.779694 0.751343
0.146301 0.562714 0.571320
0.166412 0.578491 0.586548
0.199554 0.618774 0.619415
0.257568 0.675201 0.655670
0.380310 0.728546 0.681671
0.555511 0.769196 0.697571
0.729767 0.806610 0.716644
0.813751 0.818573 0.740967
0.864197 0.824493 0.738770
0.157776 0.625458 0.602448
0.177856 0.642303 0.618805
0.202515 0.671265 0.639252
0.245972 0.723755 0.671753
0.317993 0.768005 0.689423
0.513611 0.816559 0.702362
0.726440 0.852081 0.724152
0.799835 0.864532 0.737000
0.852722 0.864044 0.738403
0.092255 0.216644 0.508240
0.116394 0.223389 0.538879
0.146698 0.213531 0.598022
0.145447 0.134186 0.526123
0.335571 0.103668 0.490479
0.536499 0.127808 0.497284
0.623688 0.144989 0.495697
0.672760 0.152435 0.498688
0.711761 0.159882 0.507385
0.103424 0.271881 0.529663
0.135010 0.303558 0.570312
0.161743 0.306732 0.611389
0.206177 0.283447 0.642548
0.346069 0.147034 0.542999
0.565308 0.156586 0.523010
0.652924 0.175201 0.521851
0.704285 0.182220 0.524780
0.750732 0.193512 0.540405
0.115082 0.326477 0.549896
0.151001 0.367218 0.595581
0.198212 0.409027 0.645782
0.260468 0.424683 0.674957
0.388611 0.347748 0.665192
0.610962 0.229645 0.606873
0.710693 0.260712 0.601013
0.769989 0.276306 0.604340
0.817169 0.302521 0.621277
0.122314 0.366699 0.560944
0.159119 0.409210 0.605591
0.225128 0.473145 0.663757
0.338348 0.514771 0.702057
0.436462 0.522949 0.716248
0.599182 0.415619 0.695557
0.737213 0.425995 0.686432
0.810913 0.455566 0.685822
0.854004 0.475464 0.693359
0.127808 0.406036 0.571533
0.164459 0.447876 0.613831
0.225464 0.513794 0.670929
0.361298 0.569153 0.713806
0.493195 0.603790 0.733551
0.586029 0.583923 0.741852
0.736572 0.563232 0.739960
0.826111 0.587189 0.739716
0.870422 0.608551 0.749390
0.127350 0.439392 0.573822
0.165619 0.483032 0.617371
0.216125 0.541687 0.670227
0.339142 0.605774 0.714691
0.493683 0.650879 0.743530
0.632446 0.688965 0.769318
0.735718 0.672485 0.774567
0.828613 0.686707 0.776093
0.879456 0.701416 0.784424
0.132355 0.488831 0.590546
0.162170 0.517181 0.617706
0.208038 0.570129 0.667816
0.297394 0.632538 0.709595
0.460480 0.686523 0.746704
0.622253 0.731659 0.779053
0.756287 0.776550 0.810974
0.835297 0.772034 0.811096
0.890961 0.782715 0.821228
0.148407 0.562866 0.622162
0.168701 0.579010 0.637817
0.207794 0.619629 0.675781
0.264679 0.669800 0.708862
0.401550 0.731049 0.747864
0.562927 0.776611 0.780640
0.725769 0.817261 0.812622
0.851135 0.855957 0.843384
0.899780 0.863037 0.850281
0.158325 0.622406 0.652008
0.177734 0.636475 0.666046
0.204834 0.664978 0.690125
0.252319 0.715576 0.725708
0.335083 0.771179 0.761292
0.498199 0.825867 0.797150
0.703735 0.867828 0.824768
0.854370 0.899750 0.850311
0.884247 0.898132 0.840332
0.100891 0.239136 0.560181
0.125977 0.251190 0.591095
0.153534 0.247864 0.645660
0.162231 0.171814 0.611877
0.237671 0.110596 0.526245
0.515472 0.124756 0.536438
0.628876 0.147644 0.543793
0.674866 0.153656 0.545624
0.707489 0.158875 0.550629
0.112274 0.293671 0.584534
0.143005 0.323730 0.623871
0.170868 0.334381 0.667114
0.211884 0.336456 0.711243
0.264343 0.174805 0.609619
0.540894 0.151733 0.563873
0.653381 0.174896 0.569031
0.705688 0.183228 0.571655
0.742889 0.190918 0.581390
0.125977 0.352386 0.611023
0.162079 0.394043 0.657288
0.206268 0.436096 0.711243
0.258881 0.453156 0.739227
0.325958 0.419922 0.747040
0.583740 0.231781 0.668396
0.705994 0.244141 0.642242
0.766296 0.266937 0.648865
0.802155 0.281189 0.660828
0.136566 0.401306 0.630829
0.171600 0.438660 0.669586
0.228790 0.498291 0.730927
0.324127 0.538574 0.763062
0.405640 0.551666 0.776276
0.560516 0.436340 0.753815
0.733276 0.394135 0.729492
0.807098 0.428345 0.733002
0.842773 0.439667 0.735626
0.141022 0.439514 0.641174
0.176666 0.477661 0.678101
0.233459 0.537903 0.735504
0.342438 0.591370 0.775055
0.490997 0.630768 0.796967
0.573425 0.625793 0.805511
0.733398 0.573212 0.798096
0.827942 0.591187 0.793823
0.865753 0.597504 0.794159
0.139801 0.470978 0.643585
0.176666 0.511261 0.682068
0.222656 0.563507 0.731018
0.321777 0.625671 0.776093
0.477509 0.673431 0.803558
0.633514 0.716705 0.831482
0.725403 0.693848 0.834747
0.833496 0.699707 0.833679
0.877533 0.708557 0.836975
0.138458 0.510040 0.650848
0.165863 0.535004 0.674957
0.214661 0.590820 0.727692
0.279816 0.645264 0.767883
0.424011 0.701172 0.803589
0.608032 0.752869 0.835419
0.760223 0.796600 0.866455
0.842682 0.790070 0.868896
0.888000 0.793335 0.871124
0.149048 0.573700 0.673035
0.170288 0.589966 0.689362
0.197601 0.615570 0.714294
0.248535 0.671051 0.760101
0.347809 0.728180 0.800232
0.539246 0.784821 0.834412
0.738373 0.834473 0.871643
0.865295 0.873291 0.898712
0.904755 0.873474 0.901367
0.155151 0.621521 0.690552
0.174591 0.634979 0.704132
0.195709 0.652771 0.721100
0.225464 0.684326 0.746765
0.311218 0.754730 0.797211
0.482147 0.818085 0.838013
0.700195 0.869507 0.874969
0.852539 0.906555 0.899597
0.914856 0.923981 0.915161
