public/LUTs/W-9530-STD.cube
# Copyright: (C) Copyright 2010-2021 by IWLTBAP SAS
# Cannot be resold, shared or otherwise redistributed
# Website: https://luts.iwltbap.com
TITLE "IWLTBAP 9530 (Rec.709, sRGB, DCI-P3)"
LUT_3D_SIZE 5
0.059540 0.065826 0.038818
0.256452 0.092880 0.037011
0.501780 0.118654 0.070787
0.738013 0.145791 0.117072
0.900482 0.176880 0.153259
0.203209 0.236808 0.037433
0.338667 0.239977 0.030756
0.556596 0.243867 0.067602
0.770053 0.259641 0.127440
0.911008 0.296850 0.169738
0.376826 0.439991 0.189570
0.462996 0.431054 0.178095
0.638647 0.429185 0.151921
0.842067 0.427217 0.157906
0.937736 0.423108 0.180675
0.536096 0.650568 0.328796
0.617738 0.640907 0.321027
0.730994 0.625896 0.305452
0.873100 0.634216 0.300156
0.971456 0.641531 0.284216
0.541656 0.778748 0.412415
0.617575 0.779363 0.412638
0.722276 0.779196 0.409241
0.854782 0.772203 0.400093
0.964172 0.781464 0.398834
0.032702 0.123759 0.296789
0.138537 0.137388 0.301390
0.325149 0.182775 0.338990
0.609801 0.223556 0.352551
0.782744 0.261279 0.387109
0.090552 0.270213 0.222806
0.238374 0.299073 0.239898
0.485525 0.309553 0.258845
0.686773 0.334048 0.300822
0.835394 0.371129 0.344086
0.334876 0.458954 0.253254
0.412367 0.498807 0.288836
0.620343 0.477941 0.229675
0.821334 0.483406 0.261127
0.909112 0.481030 0.298352
0.525649 0.669724 0.397425
0.589770 0.694574 0.421950
0.735601 0.664160 0.389739
0.880768 0.673279 0.377691
0.976364 0.682565 0.363885
0.541778 0.801199 0.493774
0.616770 0.812039 0.505754
0.721539 0.810550 0.495810
0.861251 0.804083 0.478428
0.969482 0.811149 0.471965
0.036224 0.178536 0.573489
0.126272 0.187842 0.581327
0.253024 0.225232 0.614986
0.380435 0.280528 0.660951
0.474412 0.321049 0.687847
0.029826 0.318238 0.497601
0.097527 0.348686 0.534167
0.222499 0.349339 0.563967
0.393741 0.399439 0.640559
0.629870 0.438899 0.665046
0.162861 0.503040 0.456545
0.240789 0.544024 0.495320
0.484669 0.546322 0.475450
0.717935 0.564318 0.512738
0.829797 0.552867 0.499784
0.434356 0.710242 0.515155
0.504348 0.738027 0.540977
0.642627 0.732660 0.519126
0.879137 0.729927 0.469553
0.980924 0.744383 0.485045
0.541220 0.845642 0.610786
0.615703 0.856736 0.620615
0.723836 0.862007 0.609853
0.864406 0.852889 0.575515
0.972739 0.861339 0.562920
0.039715 0.233963 0.817651
0.119768 0.242503 0.831273
0.243310 0.263491 0.822720
0.378971 0.314566 0.867200
0.470001 0.356882 0.896688
0.035582 0.354709 0.727414
0.101506 0.382661 0.744755
0.213597 0.383525 0.750223
0.386920 0.435522 0.853536
0.474794 0.477846 0.882671
0.034842 0.554213 0.642129
0.087027 0.593479 0.674253
0.193834 0.600628 0.695982
0.413025 0.581534 0.735620
0.633476 0.597061 0.753624
0.282204 0.758471 0.694583
0.358161 0.785075 0.718200
0.519356 0.780005 0.712894
0.793746 0.794529 0.699752
0.944384 0.810190 0.728503
0.489924 0.889507 0.736510
0.572970 0.900049 0.743257
0.724063 0.903048 0.719098
0.863384 0.908426 0.684498
0.975056 0.921248 0.658503
0.044037 0.272858 0.959595
0.120782 0.279456 0.959700
0.249287 0.297212 0.948646
0.389351 0.345719 0.971948
0.470001 0.375427 0.971954
0.040398 0.390136 0.856726
0.107787 0.414867 0.859895
0.226395 0.415550 0.868096
0.399668 0.469019 0.973654
0.474794 0.497524 0.975791
0.039551 0.579591 0.767121
0.095683 0.620441 0.779680
0.208506 0.619197 0.809792
0.369496 0.602134 0.860126
0.452753 0.621902 0.889895
0.082106 0.802595 0.812458
0.206437 0.823683 0.826666
0.377549 0.818995 0.840041
0.641637 0.840455 0.888438
0.800785 0.840582 0.915617
0.362122 0.926819 0.849854
0.448642 0.937364 0.860825
0.600171 0.940645 0.865770
0.795135 0.960316 0.882583
0.989685 0.976044 0.864655
