public/LUTs/W-9530-STD.cube
# Copyright: (C) Copyright 2010-2021 by IWLTBAP SAS
# Cannot be resold, shared or otherwise redistributed
# Website: https://luts.iwltbap.com
TITLE "IWLTBAP 9530 (Rec.709, sRGB, DCI-P3)"
LUT_3D_SIZE 33
0.059540 0.065826 0.038818
0.082449 0.066434 0.038475
0.115300 0.068022 0.037041
0.146185 0.070983 0.035226
0.173699 0.075246 0.033703
0.193031 0.080221 0.034443
0.207308 0.084899 0.036359
0.229697 0.089005 0.036920
0.256452 0.092880 0.037011
0.284313 0.096630 0.037042
0.313012 0.100275 0.037062
0.342870 0.103660 0.037024
0.373256 0.106816 0.038399
0.404018 0.109828 0.044381
0.435968 0.112804 0.053635
0.468740 0.115663 0.062645
0.501780 0.118654 0.070787
0.535583 0.122031 0.078270
0.567921 0.125581 0.084958
0.596968 0.129073 0.091082
0.625375 0.132359 0.096699
0.654121 0.135480 0.101988
0.682381 0.138729 0.107032
0.710531 0.142177 0.112032
0.738013 0.145791 0.117072
0.764337 0.149294 0.121824
0.790179 0.152716 0.126344
0.815576 0.156219 0.130792
0.839935 0.160359 0.135732
0.860526 0.164495 0.140454
0.874965 0.168466 0.144753
0.887834 0.172587 0.148966
0.900482 0.176880 0.153259
0.087097 0.081736 0.035983
0.108866 0.081083 0.035439
0.135945 0.082370 0.033670
0.159092 0.086552 0.032760
0.186103 0.089900 0.031850
0.216368 0.092775 0.030726
0.237732 0.096715 0.031818
0.246632 0.101913 0.035266
0.265427 0.105907 0.036651
0.291016 0.109120 0.036777
0.319164 0.112282 0.036705
0.349042 0.115495 0.036654
0.379807 0.118628 0.038064
0.411072 0.121671 0.044344
0.443494 0.124668 0.053978
0.476504 0.127615 0.063273
0.509391 0.130517 0.071640
0.542699 0.133558 0.079278
0.574523 0.136797 0.086087
0.603105 0.140080 0.092372
0.630892 0.143375 0.098200
0.659024 0.146740 0.103734
0.686775 0.150327 0.109054
0.714601 0.154196 0.114255
0.741756 0.158105 0.119346
0.767955 0.162110 0.124318
0.793832 0.166208 0.129222
0.819236 0.170565 0.134166
0.843289 0.175136 0.139441
0.863164 0.179598 0.144438
0.876304 0.183729 0.148718
0.889127 0.188100 0.153042
0.901749 0.192399 0.157339
0.105433 0.100774 0.034111
0.121797 0.101096 0.033944
0.141261 0.101646 0.033526
0.168865 0.103717 0.031690
0.196461 0.106017 0.031005
0.226390 0.108176 0.030304
0.250233 0.111372 0.031091
0.260394 0.116512 0.034792
0.277473 0.120621 0.036646
0.301572 0.123488 0.036817
0.328601 0.126086 0.036573
0.357389 0.128968 0.036508
0.387133 0.132079 0.037943
0.417565 0.135230 0.043860
0.449397 0.138358 0.053690
0.482109 0.141482 0.063678
0.514977 0.144618 0.072556
0.548168 0.147781 0.080516
0.579861 0.150886 0.087354
0.608540 0.153960 0.093501
0.636313 0.157212 0.099444
0.664379 0.160650 0.105295
0.692076 0.164246 0.110936
0.719698 0.168025 0.116412
0.746702 0.171961 0.121723
0.772674 0.176059 0.126904
0.798370 0.180402 0.132136
0.823461 0.184982 0.137418
0.846433 0.189700 0.142810
0.865331 0.194362 0.147872
0.878138 0.198614 0.152259
0.890981 0.203002 0.156621
0.903707 0.207387 0.161055
0.118510 0.122735 0.033463
0.132261 0.123524 0.033419
0.148545 0.124209 0.033414
0.170433 0.124434 0.032794
0.197961 0.125811 0.031835
0.230131 0.126634 0.031086
0.258380 0.128487 0.031460
0.272179 0.132978 0.034858
0.290603 0.136692 0.036776
0.314840 0.139253 0.037035
0.341636 0.141250 0.036704
0.369798 0.143466 0.036538
0.398493 0.146164 0.038208
0.427683 0.149152 0.044114
0.458399 0.152254 0.054000
0.490253 0.155428 0.064294
0.522555 0.158637 0.073526
0.555309 0.161868 0.081779
0.586540 0.165008 0.088755
0.614920 0.168055 0.094937
0.642604 0.171238 0.100853
0.670517 0.174611 0.106727
0.697965 0.178219 0.112522
0.725391 0.182117 0.118182
0.752120 0.186196 0.123674
0.777928 0.190469 0.129084
0.803521 0.195032 0.134574
0.828332 0.199748 0.140086
0.850525 0.204590 0.145516
0.868297 0.209217 0.150533
0.881033 0.213596 0.154986
0.893869 0.218108 0.159458
0.906557 0.222503 0.163963
0.131698 0.144439 0.033084
0.144849 0.145085 0.033037
0.159919 0.145782 0.033291
0.178669 0.146088 0.033151
0.200300 0.146541 0.032744
0.227584 0.147692 0.032463
0.257565 0.148340 0.032272
0.278987 0.151078 0.034077
0.301465 0.153855 0.035584
0.327160 0.155953 0.036281
0.354904 0.157542 0.036492
0.383769 0.159147 0.036575
0.412430 0.161147 0.038284
0.441039 0.163766 0.044153
0.470858 0.166782 0.054301
0.501763 0.169933 0.064970
0.533108 0.173157 0.074328
0.564561 0.176400 0.082607
0.594355 0.179507 0.089610
0.621821 0.182517 0.095827
0.649085 0.185685 0.101854
0.676642 0.189071 0.107829
0.703764 0.192688 0.113717
0.730824 0.196513 0.119470
0.757256 0.200534 0.125111
0.782884 0.204792 0.130665
0.808363 0.209383 0.136327
0.833096 0.214155 0.141988
0.854855 0.218939 0.147429
0.871951 0.223530 0.152368
0.884691 0.227882 0.156878
0.897463 0.232436 0.161487
0.910189 0.236977 0.166054
0.146456 0.166342 0.032134
0.159316 0.167086 0.032142
0.173500 0.167521 0.032638
0.190423 0.168174 0.032736
0.209636 0.168733 0.032625
0.232118 0.169411 0.032449
0.258278 0.170840 0.032766
0.283872 0.172465 0.033477
0.310366 0.173838 0.034155
0.337332 0.175316 0.034703
0.364774 0.176637 0.035147
0.393306 0.177815 0.035516
0.422383 0.178925 0.036901
0.451551 0.180263 0.042581
0.481531 0.182101 0.053345
0.512218 0.184671 0.064865
0.543162 0.187727 0.074644
0.573604 0.190841 0.082977
0.602040 0.193874 0.090010
0.628757 0.196888 0.096344
0.655660 0.200045 0.102517
0.682875 0.203382 0.108605
0.709650 0.206937 0.114559
0.736313 0.210734 0.120395
0.762486 0.214733 0.126117
0.787991 0.219030 0.131808
0.813330 0.223642 0.137592
0.837882 0.228415 0.143352
0.859467 0.233163 0.148865
0.876157 0.237721 0.153908
0.888802 0.242067 0.158476
0.901575 0.246661 0.163166
0.914332 0.251248 0.167784
0.162999 0.188931 0.030734
0.175226 0.189951 0.030795
0.188894 0.189900 0.031659
0.204218 0.190628 0.032039
0.221382 0.191532 0.032092
0.242165 0.192170 0.031942
0.265505 0.192808 0.031878
0.291761 0.194190 0.032304
0.319465 0.195248 0.032877
0.347169 0.196168 0.033374
0.374297 0.197181 0.033804
0.401846 0.198233 0.034215
0.429800 0.199191 0.035076
0.457853 0.199903 0.039210
0.487061 0.200468 0.049776
0.517210 0.201401 0.062291
0.547878 0.202908 0.072914
0.578799 0.205235 0.082026
0.608058 0.208206 0.089736
0.635018 0.211270 0.096513
0.661740 0.214470 0.102961
0.688846 0.217811 0.109242
0.715470 0.221347 0.115284
0.741947 0.225142 0.121179
0.767956 0.229164 0.126979
0.793234 0.233464 0.132740
0.818355 0.238043 0.138617
0.842787 0.242814 0.144431
0.864225 0.247626 0.150055
0.880498 0.252274 0.155140
0.892615 0.256721 0.159685
0.904628 0.261417 0.164404
0.916384 0.266053 0.168975
0.182104 0.212165 0.030055
0.192582 0.213520 0.030073
0.205987 0.213044 0.031065
0.220567 0.213502 0.031414
0.236140 0.214745 0.031396
0.254832 0.215570 0.031283
0.276920 0.215879 0.031078
0.301374 0.216266 0.030998
0.328343 0.217415 0.031539
0.356104 0.218321 0.032218
0.383969 0.218999 0.032745
0.411708 0.219802 0.033190
0.438934 0.220763 0.033706
0.465908 0.221600 0.036233
0.493630 0.222036 0.045400
0.521878 0.222128 0.058165
0.550207 0.222016 0.069672
0.579021 0.222373 0.079511
0.607747 0.224021 0.088014
0.635600 0.226726 0.095536
0.663657 0.229752 0.102589
0.692207 0.232851 0.109381
0.719813 0.236124 0.115776
0.746634 0.239779 0.121887
0.772471 0.243779 0.127799
0.797170 0.248041 0.133530
0.821400 0.252629 0.139331
0.844944 0.257442 0.145118
0.865641 0.262358 0.150746
0.881117 0.267200 0.155821
0.892300 0.271804 0.160318
0.903386 0.276622 0.164977
0.914303 0.281348 0.169473
0.203209 0.236808 0.037433
0.212424 0.238394 0.037324
0.224519 0.237428 0.036180
0.239003 0.237267 0.034624
0.253894 0.238255 0.033772
0.270463 0.239483 0.032651
0.290544 0.239817 0.031704
0.313722 0.239756 0.030997
0.338667 0.239977 0.030756
0.364979 0.240880 0.031233
0.392557 0.241559 0.031863
0.420945 0.241909 0.032418
0.448705 0.242460 0.032954
0.475582 0.243219 0.034760
0.502789 0.243880 0.042789
0.530045 0.244193 0.055452
0.556596 0.243867 0.067602
0.582593 0.242913 0.077767
0.608076 0.242377 0.086290
0.633871 0.243471 0.093870
0.661388 0.246064 0.101193
0.689810 0.249203 0.108332
0.717394 0.252406 0.115018
0.744174 0.255858 0.121340
0.770053 0.259641 0.127440
0.794683 0.263736 0.133316
0.818849 0.268221 0.139227
0.842180 0.272950 0.145136
0.862844 0.277900 0.150876
0.878291 0.282836 0.156067
0.889143 0.287434 0.160565
0.900081 0.292193 0.165210
0.911008 0.296850 0.169738
0.224472 0.261571 0.056503
0.233255 0.263360 0.057154
0.243557 0.262169 0.054703
0.257556 0.261126 0.051300
0.272166 0.261515 0.049047
0.287950 0.262647 0.046925
0.305322 0.263379 0.044516
0.327159 0.263180 0.040830
0.350949 0.262981 0.036833
0.375242 0.263112 0.033725
0.401246 0.263839 0.032068
0.429324 0.264275 0.031812
0.457694 0.264433 0.032202
0.485210 0.264786 0.033386
0.512644 0.265344 0.040920
0.539968 0.265894 0.054130
0.566553 0.266092 0.067271
0.592024 0.265301 0.078065
0.615380 0.263615 0.086569
0.637200 0.262458 0.093550
0.660885 0.263271 0.100320
0.687462 0.265963 0.107353
0.714329 0.269182 0.114159
0.740721 0.272424 0.120629
0.766473 0.275967 0.126866
0.791047 0.279929 0.132895
0.815119 0.284326 0.138955
0.838517 0.289005 0.145021
0.859635 0.293856 0.150927
0.875806 0.298663 0.156237
0.886902 0.303165 0.160791
0.898117 0.307733 0.165445
0.909467 0.312261 0.169976
0.245500 0.286087 0.078589
0.254277 0.288115 0.079595
0.262241 0.287052 0.077727
0.275685 0.285002 0.073914
0.290302 0.284726 0.071274
0.305638 0.285319 0.068961
0.321650 0.286244 0.066558
0.341272 0.286326 0.062171
0.364165 0.286066 0.055752
0.387434 0.285846 0.048871
0.411209 0.286032 0.042036
0.437662 0.286607 0.037612
0.465744 0.286938 0.034907
0.493854 0.287001 0.033441
0.522054 0.287195 0.039448
0.549928 0.287674 0.053102
0.577060 0.288159 0.067577
0.603546 0.287994 0.079428
0.627991 0.286776 0.088660
0.648541 0.284784 0.095609
0.667122 0.283098 0.101335
0.688422 0.283452 0.107284
0.713396 0.286093 0.113852
0.739214 0.289213 0.120384
0.764613 0.292614 0.126686
0.789015 0.296447 0.132770
0.812951 0.300735 0.138900
0.836345 0.305318 0.145062
0.858063 0.310052 0.151168
0.875140 0.314708 0.156602
0.886600 0.319046 0.161184
0.898148 0.323476 0.165825
0.909691 0.327834 0.170407
0.266786 0.310917 0.098498
0.275737 0.313222 0.099680
0.282579 0.312430 0.098506
0.294104 0.309403 0.094767
0.308621 0.308370 0.092088
0.323703 0.308564 0.090070
0.339076 0.309217 0.088070
0.356314 0.309642 0.085071
0.377583 0.309447 0.079821
0.400703 0.309215 0.073147
0.423563 0.309073 0.065624
0.447783 0.309204 0.057991
0.474214 0.309703 0.050688
0.502012 0.310081 0.043081
0.530844 0.310131 0.041502
0.559616 0.310279 0.052298
0.587479 0.310700 0.068207
0.614837 0.310874 0.081339
0.641084 0.310350 0.091623
0.663781 0.308942 0.099398
0.681622 0.306478 0.105077
0.697356 0.303949 0.109745
0.716137 0.303655 0.114898
0.739743 0.306082 0.121011
0.764529 0.309277 0.127193
0.788731 0.312863 0.133176
0.812576 0.316960 0.139199
0.835924 0.321321 0.145305
0.858128 0.325906 0.151514
0.876163 0.330445 0.157156
0.888109 0.334670 0.161788
0.899841 0.338978 0.166446
0.911508 0.343203 0.171053
0.288121 0.335796 0.116873
0.297221 0.338374 0.118279
0.303768 0.337773 0.117421
0.313246 0.333905 0.113617
0.326991 0.332119 0.110847
0.341877 0.332072 0.109094
0.356908 0.332366 0.107326
0.372735 0.332757 0.105264
0.391353 0.332685 0.101889
0.413904 0.332476 0.097035
0.436998 0.332274 0.091282
0.460261 0.332136 0.084517
0.484507 0.332301 0.076725
0.510680 0.332844 0.067100
0.539114 0.333300 0.057048
0.568386 0.333452 0.057386
0.597241 0.333545 0.069601
0.625575 0.333609 0.083702
0.652987 0.333385 0.094939
0.678100 0.332640 0.103708
0.698999 0.331022 0.110314
0.714861 0.328227 0.115014
0.728225 0.325015 0.118734
0.744627 0.323718 0.123015
0.766834 0.325978 0.128603
0.790166 0.329306 0.134360
0.813842 0.333133 0.140208
0.837155 0.337232 0.146111
0.859522 0.341578 0.152179
0.878599 0.345971 0.157914
0.891361 0.350129 0.162671
0.903422 0.354315 0.167347
0.915434 0.358516 0.171988
0.309475 0.360797 0.134781
0.318578 0.363481 0.136290
0.325047 0.363012 0.135622
0.332644 0.358408 0.131645
0.345439 0.355938 0.128731
0.360181 0.355739 0.127161
0.375048 0.355874 0.125645
0.390284 0.356017 0.123871
0.406564 0.355925 0.121494
0.427145 0.355521 0.117851
0.450309 0.355300 0.113433
0.473887 0.355226 0.108426
0.497137 0.355194 0.102627
0.521296 0.355430 0.095461
0.548178 0.356073 0.085528
0.576938 0.356736 0.077215
0.606249 0.356976 0.078395
0.635734 0.356789 0.087927
0.664274 0.356431 0.098841
0.690897 0.355967 0.108242
0.714847 0.355159 0.115815
0.734280 0.353618 0.121444
0.748533 0.350670 0.125337
0.760272 0.346707 0.128333
0.774838 0.344851 0.131890
0.794749 0.346527 0.136798
0.817331 0.349766 0.142275
0.840545 0.353631 0.147930
0.862964 0.357689 0.153651
0.883063 0.361928 0.159250
0.897138 0.366029 0.164134
0.909444 0.370132 0.168794
0.921502 0.374229 0.173377
0.331499 0.386630 0.152896
0.340604 0.389363 0.154493
0.347077 0.389038 0.153979
0.353027 0.384003 0.149947
0.364659 0.380717 0.146728
0.379245 0.380327 0.145238
0.394037 0.380408 0.143957
0.409008 0.380382 0.142381
0.424016 0.380181 0.140476
0.441482 0.379381 0.137521
0.463633 0.378845 0.133819
0.487872 0.378889 0.129839
0.511422 0.379045 0.125571
0.534642 0.379115 0.120686
0.559592 0.379444 0.114419
0.586808 0.380282 0.106328
0.615537 0.381165 0.099968
0.645459 0.381301 0.099757
0.675247 0.380734 0.105335
0.703261 0.380108 0.113539
0.729231 0.379556 0.121711
0.751925 0.378888 0.128267
0.769926 0.377569 0.133098
0.783545 0.374482 0.136444
0.793984 0.370045 0.138748
0.806445 0.367301 0.141582
0.824008 0.367653 0.145658
0.845593 0.370498 0.150773
0.867916 0.374284 0.156185
0.888896 0.378326 0.161586
0.904494 0.382272 0.166352
0.916957 0.386205 0.170747
0.928511 0.390111 0.175164
0.354015 0.413100 0.171192
0.363144 0.415927 0.172865
0.369648 0.415742 0.172494
0.374046 0.410610 0.168597
0.384539 0.406525 0.165060
0.398981 0.405707 0.163465
0.413724 0.405673 0.162317
0.428544 0.405581 0.160949
0.443086 0.405359 0.159370
0.458107 0.404518 0.157061
0.477778 0.403203 0.153585
0.501904 0.402935 0.150088
0.526204 0.403325 0.146754
0.549598 0.403581 0.143036
0.573552 0.403717 0.138622
0.598880 0.404152 0.133373
0.626035 0.405145 0.127082
0.655308 0.406012 0.121281
0.685534 0.405890 0.119044
0.714875 0.405060 0.121844
0.742648 0.404272 0.128327
0.767788 0.403780 0.135425
0.788717 0.403351 0.140973
0.805934 0.402084 0.145183
0.819069 0.398994 0.148091
0.828790 0.394428 0.149968
0.839067 0.390386 0.151842
0.854266 0.389432 0.155091
0.873956 0.391552 0.159669
0.894905 0.395047 0.164764
0.911384 0.398841 0.169328
0.923891 0.402525 0.173345
0.934577 0.406205 0.177466
0.376826 0.439991 0.189570
0.385942 0.442885 0.191281
0.392546 0.442885 0.191067
0.395900 0.437882 0.187431
0.405019 0.433124 0.183640
0.419300 0.431612 0.181739
0.433900 0.431371 0.180625
0.448628 0.431261 0.179437
0.462996 0.431054 0.178095
0.477159 0.430485 0.176355
0.493954 0.428657 0.173159
0.516235 0.427370 0.169584
0.540833 0.427553 0.166669
0.564968 0.428142 0.163810
0.589062 0.428477 0.160385
0.613368 0.428674 0.156412
0.638647 0.429185 0.151921
0.666422 0.430238 0.146580
0.696057 0.431025 0.141002
0.725806 0.430704 0.137467
0.755096 0.429705 0.138328
0.782439 0.428940 0.143367
0.805794 0.428690 0.149333
0.825493 0.428353 0.154121
0.842067 0.427217 0.157906
0.855325 0.424774 0.160631
0.864759 0.420353 0.162162
0.873323 0.415795 0.163477
0.886147 0.413414 0.165738
0.902840 0.413758 0.169245
0.916672 0.416194 0.173167
0.927875 0.419686 0.176944
0.937736 0.423108 0.180675
0.400436 0.467858 0.208392
0.409481 0.470732 0.210112
0.416240 0.470985 0.210086
0.419287 0.466423 0.206858
0.426991 0.461203 0.202940
0.440905 0.458821 0.200609
0.455318 0.458357 0.199485
0.469911 0.458196 0.198427
0.484089 0.457952 0.197247
0.498066 0.457557 0.195854
0.513084 0.456068 0.193393
0.532623 0.453702 0.189645
0.555934 0.452634 0.186328
0.580584 0.453181 0.183917
0.605447 0.453990 0.181405
0.629843 0.454434 0.178333
0.654152 0.454725 0.174804
0.680224 0.455374 0.170864
0.708472 0.456472 0.166253
0.737615 0.457149 0.160942
0.767269 0.456742 0.156362
0.796316 0.455827 0.155333
0.821982 0.455233 0.158899
0.843351 0.455001 0.163959
0.861132 0.454752 0.168167
0.876214 0.454145 0.171683
0.888792 0.452420 0.174406
0.896675 0.448753 0.175915
0.904805 0.444043 0.176750
0.914473 0.439749 0.177748
0.923014 0.438223 0.179738
0.931562 0.440267 0.182770
0.939669 0.443066 0.185971
0.424357 0.496043 0.227259
0.433250 0.498785 0.228905
0.440164 0.499294 0.229073
0.443392 0.495486 0.226402
0.450032 0.490176 0.222576
0.463393 0.486897 0.219785
0.477652 0.486214 0.218637
0.492110 0.485972 0.217671
0.506106 0.485680 0.216618
0.519879 0.485331 0.215448
0.534183 0.484470 0.213762
0.551653 0.481944 0.210404
0.572616 0.479273 0.206442
0.596213 0.478633 0.203603
0.621726 0.479680 0.201690
0.646999 0.480773 0.199593
0.671482 0.481400 0.196989
0.696692 0.481908 0.193970
0.723320 0.482685 0.190610
0.751135 0.483734 0.186699
0.779993 0.484310 0.181419
0.809062 0.483946 0.175542
0.835593 0.483147 0.172911
0.857360 0.482499 0.175357
0.874405 0.482243 0.179434
0.887965 0.482225 0.183110
0.900457 0.481921 0.186388
0.910331 0.480862 0.189010
0.919006 0.478267 0.190657
0.926119 0.473583 0.191121
0.932334 0.469288 0.191554
0.939922 0.470342 0.194137
0.946677 0.473252 0.197219
0.447686 0.523441 0.245490
0.456392 0.525981 0.247001
0.463425 0.526713 0.247334
0.467159 0.523711 0.245222
0.472893 0.518590 0.241634
0.485692 0.514544 0.238446
0.499832 0.513595 0.237233
0.514177 0.513263 0.236325
0.528044 0.512929 0.235360
0.541641 0.512559 0.234328
0.555499 0.511978 0.233039
0.571260 0.510164 0.230597
0.590522 0.506932 0.226684
0.612153 0.504464 0.222960
0.636667 0.504454 0.220668
0.662762 0.506006 0.219283
0.688299 0.507476 0.217791
0.713781 0.508458 0.215856
0.739640 0.509231 0.213513
0.765872 0.510029 0.210721
0.793255 0.510910 0.207172
0.820482 0.511449 0.201875
0.844555 0.511311 0.195533
0.864603 0.510692 0.192316
0.880261 0.510176 0.193621
0.892551 0.510230 0.196333
0.904245 0.510388 0.199221
0.914915 0.510307 0.202085
0.924788 0.509743 0.204525
0.933685 0.507949 0.206045
0.941294 0.505018 0.206910
0.950123 0.506744 0.209876
0.957326 0.510529 0.213302
0.470749 0.550503 0.263348
0.479283 0.552886 0.264757
0.486457 0.553857 0.265260
0.490613 0.551536 0.263619
0.495881 0.546784 0.260349
0.508056 0.542166 0.256904
0.522123 0.540810 0.255513
0.536274 0.540280 0.254585
0.549972 0.539848 0.253656
0.563379 0.539414 0.252690
0.576897 0.538832 0.251554
0.591073 0.537704 0.249887
0.608863 0.534886 0.246639
0.629266 0.531418 0.242587
0.651456 0.529333 0.239240
0.676326 0.529855 0.237495
0.702904 0.532002 0.236793
0.729482 0.533945 0.236040
0.755252 0.535262 0.234874
0.779802 0.536163 0.233091
0.803928 0.536812 0.230538
0.827466 0.537603 0.227332
0.847935 0.538408 0.222865
0.865711 0.538732 0.217312
0.881009 0.538579 0.213941
0.893689 0.538619 0.213565
0.905669 0.538805 0.214637
0.917055 0.539052 0.216509
0.927895 0.539328 0.219021
0.938043 0.538863 0.220803
0.947364 0.537965 0.222239
0.957068 0.539474 0.225007
0.964664 0.543016 0.228311
0.493607 0.577316 0.280937
0.501939 0.579562 0.282273
0.509252 0.580779 0.282940
0.513904 0.579122 0.281760
0.519044 0.574909 0.278881
0.530452 0.569996 0.275355
0.544447 0.567981 0.273613
0.558456 0.567112 0.272544
0.571908 0.566512 0.271603
0.585097 0.565975 0.270669
0.598434 0.565313 0.269582
0.612011 0.564474 0.268284
0.627667 0.562384 0.265899
0.646923 0.558919 0.262188
0.667804 0.555476 0.258218
0.689764 0.553825 0.255329
0.714704 0.555030 0.254228
0.741354 0.557722 0.254206
0.766621 0.559939 0.254115
0.789163 0.561403 0.253436
0.809143 0.562168 0.251784
0.828163 0.562604 0.249353
0.846687 0.563519 0.246747
0.863868 0.564565 0.243280
0.879678 0.565105 0.238697
0.893074 0.565456 0.235208
0.905406 0.565844 0.233691
0.917364 0.566229 0.233219
0.928916 0.566715 0.234292
0.940164 0.567087 0.235946
0.950809 0.567257 0.237403
0.961104 0.568501 0.239690
0.969290 0.571409 0.242654
0.514759 0.603110 0.297836
0.522695 0.605126 0.299029
0.529800 0.606441 0.299759
0.535050 0.605465 0.299024
0.540553 0.601963 0.296655
0.551745 0.597175 0.293291
0.566024 0.594466 0.291155
0.579907 0.593148 0.289855
0.592884 0.592400 0.288903
0.605587 0.591749 0.287978
0.618489 0.591030 0.286921
0.631408 0.590226 0.285768
0.645118 0.588849 0.284132
0.662577 0.585823 0.281047
0.683134 0.581992 0.277082
0.703633 0.578864 0.273445
0.724494 0.577794 0.271067
0.747506 0.579559 0.270523
0.770920 0.582645 0.271124
0.791969 0.585083 0.271588
0.810628 0.586518 0.271123
0.827910 0.586990 0.269383
0.844486 0.587237 0.267035
0.861290 0.588131 0.264741
0.877515 0.589103 0.261933
0.891856 0.589726 0.258444
0.904499 0.590570 0.255521
0.916515 0.591406 0.253422
0.928231 0.592054 0.251740
0.940029 0.592717 0.251547
0.951433 0.593388 0.252353
0.962388 0.594524 0.254303
0.971384 0.596942 0.256970
0.530234 0.627635 0.313859
0.537439 0.629376 0.314893
0.543892 0.630701 0.315635
0.549518 0.630217 0.315230
0.555935 0.627599 0.313453
0.567974 0.623335 0.310472
0.583433 0.620159 0.308079
0.597585 0.618436 0.306567
0.609890 0.617558 0.305579
0.621769 0.616862 0.304682
0.633827 0.616112 0.303687
0.645752 0.615289 0.302621
0.657947 0.614343 0.301415
0.672884 0.612055 0.299108
0.692308 0.608273 0.295453
0.712552 0.604506 0.291617
0.730987 0.601744 0.288369
0.749913 0.601221 0.286430
0.770226 0.603718 0.286574
0.790081 0.607348 0.287961
0.808839 0.609911 0.288839
0.826496 0.611067 0.288261
0.842897 0.611175 0.286331
0.859066 0.611255 0.284059
0.875126 0.612074 0.282075
0.890185 0.612878 0.279706
0.903508 0.613670 0.277179
0.915641 0.614912 0.275041
0.927320 0.616106 0.272928
0.939044 0.616758 0.270213
0.950491 0.617293 0.268060
0.961912 0.618193 0.268506
0.971764 0.620098 0.270547
0.536096 0.650568 0.328796
0.542509 0.652019 0.329657
0.548426 0.653250 0.330356
0.554038 0.653189 0.330244
0.560829 0.651384 0.328988
0.573301 0.647651 0.326421
0.589937 0.644045 0.323786
0.605143 0.641877 0.322023
0.617738 0.640907 0.321027
0.629485 0.640204 0.320188
0.641283 0.639453 0.319261
0.652948 0.638668 0.318276
0.664461 0.637858 0.317246
0.677145 0.636366 0.315664
0.693998 0.633144 0.312627
0.712922 0.629247 0.308910
0.730994 0.625896 0.305452
0.748784 0.623544 0.302508
0.767451 0.623982 0.301325
0.787111 0.627576 0.302513
0.806679 0.631499 0.304451
0.824920 0.633788 0.305283
0.841626 0.634438 0.304327
0.857676 0.634273 0.302310
0.873100 0.634216 0.300156
0.888164 0.634766 0.298233
0.902344 0.635449 0.296219
0.914910 0.636387 0.294491
0.926598 0.637773 0.292984
0.938217 0.639183 0.291292
0.949569 0.639803 0.287736
0.961080 0.640227 0.284293
0.971456 0.641531 0.284216
0.537776 0.672533 0.343045
0.543856 0.673775 0.343764
0.549594 0.674879 0.344388
0.555192 0.675220 0.344541
0.561698 0.674010 0.343699
0.573711 0.670554 0.341362
0.590593 0.666552 0.338531
0.606315 0.663827 0.336475
0.619146 0.662603 0.335368
0.630947 0.661794 0.334486
0.642773 0.660942 0.333548
0.654438 0.660093 0.332570
0.665940 0.659236 0.331561
0.678004 0.658105 0.330303
0.693125 0.655612 0.327940
0.711258 0.651922 0.324561
0.729598 0.648360 0.321119
0.747168 0.645395 0.317954
0.764851 0.643942 0.315688
0.783742 0.645813 0.315597
0.803804 0.650311 0.317622
0.822900 0.654160 0.319729
0.840150 0.655794 0.320080
0.856437 0.656123 0.318953
0.871677 0.655935 0.317099
0.886275 0.655735 0.315008
0.900707 0.656112 0.313138
0.913981 0.656802 0.311546
0.925931 0.657826 0.310314
0.937544 0.659218 0.309218
0.948805 0.660694 0.307962
0.960288 0.661551 0.304633
0.970909 0.662536 0.300953
0.538301 0.694286 0.357040
0.544330 0.695354 0.357653
0.550070 0.696332 0.358211
0.555647 0.696931 0.358532
0.562037 0.696275 0.358037
0.573602 0.693210 0.356011
0.590483 0.688998 0.353136
0.606911 0.685652 0.350764
0.620255 0.683935 0.349372
0.632233 0.682870 0.348338
0.644078 0.681910 0.347342
0.655712 0.680932 0.346340
0.667181 0.679937 0.345303
0.678855 0.678896 0.344169
0.692180 0.677068 0.342413
0.709319 0.673650 0.339380
0.728179 0.669747 0.335834
0.746076 0.666468 0.332623
0.763177 0.663870 0.329782
0.780731 0.663363 0.328198
0.800106 0.666639 0.329098
0.819917 0.671781 0.331696
0.838020 0.675039 0.333513
