public/LUTs/W-9530-STD.cube
# Copyright: (C) Copyright 2010-2021 by IWLTBAP SAS
# Cannot be resold, shared or otherwise redistributed
# Website: https://luts.iwltbap.com
TITLE "IWLTBAP 9530 (Rec.709, sRGB, DCI-P3)"
LUT_3D_SIZE 9
0.059540 0.065826 0.038818
0.173699 0.075246 0.033703
0.256452 0.092880 0.037011
0.373256 0.106816 0.038399
0.501780 0.118654 0.070787
0.625375 0.132359 0.096699
0.738013 0.145791 0.117072
0.839935 0.160359 0.135732
0.900482 0.176880 0.153259
0.131698 0.144439 0.033084
0.200300 0.146541 0.032744
0.301465 0.153855 0.035584
0.412430 0.161147 0.038284
0.533108 0.173157 0.074328
0.649085 0.185685 0.101854
0.757256 0.200534 0.125111
0.854855 0.218939 0.147429
0.910189 0.236977 0.166054
0.203209 0.236808 0.037433
0.253894 0.238255 0.033772
0.338667 0.239977 0.030756
0.448705 0.242460 0.032954
0.556596 0.243867 0.067602
0.661388 0.246064 0.101193
0.770053 0.259641 0.127440
0.862844 0.277900 0.150876
0.911008 0.296850 0.169738
0.288121 0.335796 0.116873
0.326991 0.332119 0.110847
0.391353 0.332685 0.101889
0.484507 0.332301 0.076725
0.597241 0.333545 0.069601
0.698999 0.331022 0.110314
0.766834 0.325978 0.128603
0.859522 0.341578 0.152179
0.915434 0.358516 0.171988
0.376826 0.439991 0.189570
0.405019 0.433124 0.183640
0.462996 0.431054 0.178095
0.540833 0.427553 0.166669
0.638647 0.429185 0.151921
0.755096 0.429705 0.138328
0.842067 0.427217 0.157906
0.886147 0.413414 0.165738
0.937736 0.423108 0.180675
0.470749 0.550503 0.263348
0.495881 0.546784 0.260349
0.549972 0.539848 0.253656
0.608863 0.534886 0.246639
0.702904 0.532002 0.236793
0.803928 0.536812 0.230538
0.881009 0.538579 0.213941
0.927895 0.539328 0.219021
0.964664 0.543016 0.228311
0.536096 0.650568 0.328796
0.560829 0.651384 0.328988
0.617738 0.640907 0.321027
0.664461 0.637858 0.317246
0.730994 0.625896 0.305452
0.806679 0.631499 0.304451
0.873100 0.634216 0.300156
0.926598 0.637773 0.292984
0.971456 0.641531 0.284216
0.539372 0.732774 0.381758
0.563312 0.734010 0.382358
0.621712 0.725529 0.376622
0.669616 0.719885 0.371574
0.725265 0.710865 0.363711
0.795062 0.699231 0.352368
0.866361 0.712902 0.358731
0.920938 0.711517 0.351581
0.969160 0.716480 0.349849
0.541656 0.778748 0.412415
0.570175 0.779045 0.413128
0.617575 0.779363 0.412638
0.671809 0.779903 0.411258
0.722276 0.779196 0.409241
0.792065 0.771057 0.401670
0.854782 0.772203 0.400093
0.915779 0.783692 0.406262
0.964172 0.781464 0.398834
0.030819 0.097753 0.150753
0.083063 0.099033 0.155110
0.185352 0.115737 0.170193
0.328865 0.132577 0.166142
0.461680 0.150462 0.169196
0.578511 0.166934 0.185319
0.693033 0.184039 0.208518
0.796960 0.202002 0.232544
0.855254 0.218919 0.253078
0.067539 0.160929 0.104968
0.143093 0.174307 0.118865
0.304593 0.174135 0.110907
0.361643 0.195567 0.146535
0.474210 0.210517 0.162893
0.606921 0.226377 0.187426
0.722282 0.243572 0.213889
0.822530 0.263523 0.239051
0.873537 0.282038 0.261006
0.181102 0.248021 0.076041
0.233199 0.266947 0.083400
0.331187 0.263076 0.076012
0.461236 0.262560 0.078988
0.536395 0.276050 0.128944
0.637235 0.279045 0.165632
0.745473 0.294961 0.195502
0.836607 0.314307 0.221219
0.882678 0.332091 0.239848
0.274586 0.345778 0.143138
0.316199 0.365725 0.159333
0.381386 0.355658 0.141485
0.476877 0.355904 0.111206
0.588856 0.359396 0.110587
0.689576 0.359387 0.162871
0.752665 0.355704 0.186814
0.844209 0.373266 0.215350
0.896557 0.389912 0.235129
0.368646 0.447938 0.213317
0.410462 0.469011 0.230581
0.457344 0.456093 0.222458
0.540362 0.448699 0.205133
0.639163 0.451021 0.189041
0.754837 0.453070 0.178603
0.838918 0.452552 0.204221
0.879021 0.440667 0.218285
0.930281 0.450778 0.236281
0.464194 0.557025 0.286328
0.503618 0.575628 0.301934
0.542638 0.568687 0.300776
0.609043 0.554671 0.286987
0.705360 0.551262 0.274545
0.808130 0.556660 0.266973
0.885511 0.559413 0.250025
0.932547 0.561682 0.260396
0.968843 0.567462 0.273871
0.534519 0.656527 0.353089
0.561186 0.670495 0.367539
0.597679 0.669598 0.368921
0.666266 0.655466 0.358776
0.735091 0.642019 0.342774
0.811892 0.647917 0.339767
0.877534 0.650258 0.333568
0.930229 0.654047 0.326537
0.973872 0.658652 0.319588
0.539372 0.739558 0.412545
0.565367 0.747304 0.423241
0.602927 0.747971 0.423808
0.667912 0.737712 0.416635
0.728536 0.725422 0.402791
0.799325 0.712837 0.387304
0.870106 0.726102 0.391473
0.924316 0.724564 0.383064
0.972195 0.729449 0.381025
0.541656 0.787099 0.449817
0.573721 0.792591 0.458044
0.613961 0.792958 0.457352
0.663388 0.792878 0.454214
0.724209 0.791577 0.448865
0.795548 0.782043 0.435810
0.858760 0.784570 0.432663
0.918835 0.795254 0.436614
0.967098 0.792630 0.428259
0.032702 0.123759 0.296789
0.076764 0.126669 0.297032
0.138537 0.137388 0.301390
0.202954 0.160325 0.323532
0.325149 0.182775 0.338990
0.485307 0.202022 0.341702
0.609801 0.223556 0.352551
0.718777 0.244406 0.370363
0.782744 0.261279 0.387109
0.028006 0.188282 0.253686
0.068952 0.203591 0.280137
0.127284 0.209643 0.298618
0.200106 0.225286 0.328370
0.338961 0.245140 0.346421
0.507707 0.262880 0.348838
0.637717 0.282384 0.353567
0.751747 0.304139 0.368544
0.806989 0.321334 0.384766
0.090552 0.270213 0.222806
0.135733 0.290952 0.243770
0.238374 0.299073 0.239898
0.415961 0.291208 0.219115
0.485525 0.309553 0.258845
0.575238 0.319562 0.278878
0.686773 0.334048 0.300822
0.787461 0.354691 0.327530
0.835394 0.371129 0.344086
0.234741 0.359870 0.204158
0.273448 0.381001 0.223513
0.325135 0.395281 0.229671
0.460068 0.378503 0.143760
0.605912 0.373842 0.175666
0.661988 0.391036 0.233722
0.724796 0.386024 0.256786
0.814215 0.404073 0.286672
0.865504 0.420324 0.306470
0.334876 0.458954 0.253254
0.373188 0.481553 0.274240
0.412367 0.498807 0.288836
0.512749 0.476215 0.252946
0.620343 0.477941 0.229675
0.738651 0.481839 0.226472
0.821334 0.483406 0.261127
0.859053 0.471504 0.279438
0.909112 0.481030 0.298352
0.438765 0.568386 0.327206
0.476436 0.588712 0.345854
0.513049 0.603638 0.358936
0.583160 0.587519 0.342304
0.692609 0.575382 0.319038
0.799152 0.582432 0.310400
0.887076 0.586105 0.292383
0.935931 0.589949 0.310852
0.972425 0.596464 0.327146
0.525649 0.669724 0.397425
0.555442 0.684620 0.412463
0.589770 0.694574 0.421950
0.645012 0.687248 0.414200
0.735601 0.664160 0.389739
0.815727 0.670293 0.385181
0.880768 0.673279 0.377691
0.932861 0.677284 0.368082
0.976364 0.682565 0.363885
0.539413 0.752925 0.457005
0.565319 0.761941 0.467913
0.605023 0.767796 0.473805
0.651700 0.765089 0.468783
0.728596 0.746141 0.450333
0.802378 0.732318 0.432378
0.872911 0.745970 0.435862
0.926748 0.744646 0.426674
0.974966 0.749942 0.423120
0.541778 0.801199 0.493774
0.573531 0.807235 0.501698
0.616770 0.812039 0.505754
0.663021 0.811909 0.502186
0.721539 0.810550 0.495810
0.797606 0.800411 0.481391
0.861251 0.804083 0.478428
0.920881 0.813940 0.481106
0.969482 0.811149 0.471965
0.034268 0.153035 0.453403
0.072809 0.157442 0.462827
0.131909 0.163773 0.453033
0.194805 0.181976 0.473747
0.261107 0.208235 0.495529
0.324337 0.232972 0.508389
0.437555 0.255514 0.518144
0.595860 0.276753 0.527575
0.678555 0.294356 0.538522
0.029135 0.211377 0.418313
0.069148 0.227149 0.446805
0.116065 0.232386 0.459300
0.185116 0.245728 0.476361
0.255374 0.270371 0.504976
0.327974 0.293422 0.515696
0.491463 0.313144 0.516694
0.648730 0.335377 0.520597
0.714430 0.353192 0.529943
0.027192 0.300142 0.357316
0.058212 0.321272 0.385485
0.097779 0.337973 0.411994
0.158146 0.336742 0.421492
0.250749 0.347639 0.454478
0.418432 0.353762 0.474069
0.587002 0.369250 0.479169
0.710643 0.389748 0.485848
0.768552 0.405768 0.494710
0.118542 0.385252 0.340932
0.155049 0.406754 0.362882
0.205629 0.423896 0.379532
0.344995 0.418894 0.357287
0.533820 0.408725 0.330060
0.597363 0.432343 0.384454
0.673690 0.429157 0.384389
0.758553 0.438548 0.395697
0.814376 0.454956 0.413490
0.284377 0.476012 0.334393
0.321993 0.498418 0.355922
0.359221 0.516932 0.372096
0.426702 0.523875 0.365874
0.594740 0.504081 0.266250
0.732665 0.501074 0.285289
0.781530 0.517676 0.343234
0.828351 0.501491 0.350861
0.878025 0.510162 0.369352
0.385609 0.586126 0.385017
0.421872 0.607433 0.405211
0.457181 0.623384 0.419251
0.516111 0.631350 0.421025
0.652690 0.604011 0.371334
0.772973 0.611141 0.354309
0.875114 0.615701 0.341896
0.935788 0.621497 0.371258
0.975227 0.628621 0.392110
0.483806 0.689187 0.455403
0.515085 0.705127 0.471660
0.552786 0.715734 0.481010
0.610915 0.718188 0.477898
0.704816 0.696459 0.445089
0.818373 0.693895 0.426839
0.883423 0.698135 0.418654
0.935095 0.702685 0.405157
0.978946 0.709061 0.410097
0.539784 0.772326 0.511203
0.565406 0.782551 0.523608
0.604867 0.788332 0.527406
0.653729 0.788067 0.521072
0.713354 0.775823 0.503258
0.804734 0.754560 0.476712
0.875212 0.768825 0.479146
0.928772 0.768118 0.469058
0.976825 0.774037 0.463849
0.542378 0.821544 0.548536
0.573278 0.827968 0.556990
0.616556 0.832220 0.557629
0.665715 0.834700 0.552682
0.719882 0.833310 0.544346
0.798848 0.823109 0.528520
0.863511 0.826506 0.524056
0.922489 0.836398 0.525791
0.971353 0.834219 0.515967
0.036224 0.178536 0.573489
0.074191 0.183608 0.585864
0.126272 0.187842 0.581327
0.185074 0.200330 0.586898
0.253024 0.225232 0.614986
0.321447 0.254375 0.639875
0.380435 0.280528 0.660951
0.433962 0.303228 0.675916
0.474412 0.321049 0.687847
0.031003 0.234677 0.555971
0.069804 0.251208 0.580680
0.109490 0.258901 0.597456
0.169020 0.264229 0.582664
0.239896 0.285090 0.620947
0.321768 0.313719 0.649179
0.385585 0.338475 0.665943
0.444932 0.363153 0.678484
0.515635 0.381968 0.690047
0.029826 0.318238 0.497601
0.058816 0.335444 0.516663
0.097527 0.348686 0.534167
0.142052 0.346775 0.540787
0.222499 0.349339 0.563967
0.320246 0.376270 0.619775
0.393741 0.399439 0.640559
0.537966 0.421273 0.652322
0.629870 0.438899 0.665046
0.030115 0.413370 0.457313
0.056236 0.434776 0.479864
0.088371 0.452327 0.499431
0.134213 0.462780 0.517796
0.225509 0.456417 0.531168
0.392275 0.466482 0.567116
0.539127 0.457750 0.562734
0.662585 0.469911 0.570951
0.730291 0.485051 0.579372
0.162861 0.503040 0.456545
0.202157 0.525623 0.477968
0.240789 0.544024 0.495320
0.304682 0.556285 0.506449
0.484669 0.546322 0.475450
0.659676 0.539789 0.455775
0.717935 0.564318 0.512738
0.783834 0.556689 0.503957
0.829797 0.552867 0.499784
0.340216 0.604440 0.470405
0.377246 0.626401 0.491026
0.412033 0.642885 0.505364
0.469793 0.652687 0.509226
0.568455 0.646690 0.481377
0.737616 0.641057 0.400753
0.841221 0.645357 0.410944
0.901192 0.657394 0.463851
0.959143 0.665654 0.490743
0.434356 0.710242 0.515155
0.467046 0.726889 0.531382
0.504348 0.738027 0.540977
0.560136 0.741826 0.540238
0.642627 0.732660 0.519126
0.787354 0.724312 0.485096
0.879137 0.729927 0.469553
0.936843 0.735775 0.457119
0.980924 0.744383 0.485045
0.510684 0.794505 0.572919
0.539610 0.805321 0.584241
0.583246 0.810821 0.588597
0.638276 0.811566 0.585458
0.710350 0.803931 0.569385
0.800371 0.782359 0.533090
0.876038 0.798771 0.533703
0.929508 0.798228 0.520187
0.978796 0.805038 0.509727
0.541220 0.845642 0.610786
0.570933 0.851757 0.618033
0.615703 0.856736 0.620615
0.665181 0.860945 0.619100
0.723836 0.862007 0.609853
0.798233 0.850122 0.584691
0.864406 0.852889 0.575515
0.923537 0.863801 0.575791
0.972739 0.861339 0.562920
0.038342 0.206054 0.696113
0.075517 0.211269 0.709528
0.120781 0.215484 0.713688
0.177715 0.220206 0.689273
0.244357 0.242530 0.717614
0.319242 0.271245 0.746112
0.379175 0.298473 0.768184
0.433932 0.322500 0.786217
0.470001 0.341390 0.802724
0.033838 0.262220 0.683481
0.071275 0.278130 0.708021
0.108937 0.285598 0.721407
0.166402 0.289257 0.706303
0.231283 0.302365 0.714950
0.318996 0.329688 0.754976
0.385065 0.356396 0.775580
0.442325 0.382906 0.792598
0.472343 0.402677 0.806947
0.032882 0.330454 0.612343
0.060744 0.347332 0.629637
0.099065 0.361146 0.645774
0.142052 0.362849 0.652454
0.209521 0.362101 0.651253
0.311116 0.391930 0.725121
0.385870 0.418604 0.753863
0.444258 0.443191 0.773118
0.474835 0.461501 0.787464
0.032350 0.431278 0.568378
0.057760 0.450437 0.584111
0.089585 0.464030 0.597853
0.134902 0.470044 0.612471
0.196326 0.458000 0.616650
0.294568 0.461245 0.651464
0.376091 0.478970 0.683906
0.492748 0.500624 0.709960
0.594083 0.517680 0.720848
0.034514 0.531233 0.560522
0.060043 0.553807 0.581643
0.091473 0.572174 0.598992
0.150417 0.585181 0.613271
0.233707 0.587518 0.621914
0.426057 0.586186 0.648430
0.581828 0.586913 0.669998
0.660202 0.567267 0.651680
0.733952 0.577248 0.660169
0.222182 0.633699 0.579331
0.260530 0.655730 0.599679
0.297347 0.672035 0.614473
0.359118 0.681336 0.622899
0.462218 0.677512 0.617673
0.646050 0.682557 0.602039
0.784126 0.679866 0.588639
0.841832 0.698221 0.630167
0.907790 0.703321 0.634674
0.387110 0.731370 0.604912
0.420413 0.747875 0.620712
0.458640 0.759048 0.630509
0.519445 0.762776 0.630310
0.613444 0.754373 0.609015
0.727151 0.756677 0.579883
0.853100 0.760975 0.524517
0.927532 0.764173 0.525750
0.980197 0.775146 0.573842
0.472667 0.819296 0.637724
0.502473 0.830082 0.648977
0.547021 0.835759 0.652986
0.603027 0.835500 0.647678
0.688173 0.823173 0.622605
0.776624 0.812350 0.592224
0.874689 0.828011 0.586732
0.930158 0.828694 0.567858
0.980623 0.836792 0.556115
0.517168 0.871797 0.669506
0.548760 0.878024 0.676386
0.599328 0.882503 0.677659
0.657890 0.884682 0.673647
0.729691 0.879330 0.657870
0.799574 0.878275 0.644134
0.863616 0.882540 0.635151
0.923390 0.897054 0.636296
0.972702 0.895221 0.620309
0.039715 0.233963 0.817651
0.076419 0.238845 0.828606
0.119768 0.242503 0.831273
0.177309 0.244931 0.801743
0.243310 0.263491 0.822720
0.318150 0.290014 0.845016
0.378971 0.314566 0.867200
0.433842 0.338405 0.883501
0.470001 0.356882 0.896688
0.036103 0.289470 0.802488
0.072165 0.303521 0.814074
0.109544 0.309247 0.820077
0.167136 0.311776 0.802236
0.233969 0.324482 0.810151
0.318460 0.348768 0.842719
0.385622 0.372685 0.871664
0.442764 0.398669 0.885884
0.472343 0.417642 0.894696
0.035582 0.354709 0.727414
0.063174 0.370264 0.737406
0.101506 0.382661 0.744755
0.144848 0.384039 0.750092
0.213597 0.383525 0.750223
0.311387 0.410517 0.815174
0.386920 0.435522 0.853536
0.444838 0.460003 0.871567
0.474794 0.477846 0.882671
0.035109 0.428667 0.657564
0.059742 0.445934 0.669020
0.093056 0.458557 0.679581
0.138795 0.465896 0.693328
0.195190 0.457195 0.698345
0.285241 0.466237 0.730670
0.370336 0.495994 0.779938
0.432128 0.518148 0.810826
0.463717 0.535322 0.821385
0.034842 0.554213 0.642129
0.059535 0.576118 0.659506
0.087027 0.593479 0.674253
0.133628 0.602519 0.685680
0.193834 0.600628 0.695982
0.298148 0.586033 0.713931
0.413025 0.581534 0.735620
0.532599 0.581076 0.738782
0.633476 0.597061 0.753624
0.075769 0.662482 0.670434
0.119400 0.683512 0.687905
0.165609 0.698612 0.700147
0.237549 0.707103 0.707621
0.353165 0.704450 0.709960
0.496877 0.705614 0.721117
0.655320 0.713712 0.752800
0.740114 0.715418 0.769067
0.811501 0.719255 0.776645
0.282204 0.758471 0.694583
0.317197 0.774412 0.708836
0.358161 0.785075 0.718200
0.419310 0.789014 0.721608
0.519356 0.780005 0.712894
0.649892 0.786383 0.713689
0.793746 0.794529 0.699752
0.886092 0.795946 0.700823
0.944384 0.810190 0.728503
0.419239 0.839014 0.718858
0.449556 0.849048 0.728650
0.496865 0.853843 0.732379
0.556782 0.853014 0.728770
0.657837 0.839767 0.704904
0.754778 0.837468 0.682675
0.859459 0.858405 0.674247
0.936201 0.861486 0.633779
0.983616 0.866737 0.632257
0.489924 0.889507 0.736510
0.521611 0.894786 0.742666
0.572970 0.900049 0.743257
0.634495 0.904797 0.738294
0.724063 0.903048 0.719098
0.803259 0.903791 0.699868
0.863384 0.908426 0.684498
0.924822 0.923369 0.680716
0.975056 0.921248 0.658503
0.041729 0.254936 0.898761
0.077885 0.258140 0.899898
0.120197 0.261129 0.898761
0.178126 0.262308 0.867743
0.245922 0.279728 0.888804
0.318972 0.303481 0.904857
0.383744 0.330087 0.933543
0.434546 0.348695 0.938233
0.470001 0.366399 0.943758
0.038334 0.308738 0.871040
0.073825 0.320856 0.870486
0.111010 0.326371 0.877740
0.169504 0.328427 0.859171
0.238686 0.341319 0.868282
0.322676 0.364513 0.896943
0.391068 0.389552 0.930796
0.443847 0.408939 0.937748
0.472343 0.427200 0.943258
0.037964 0.373354 0.798223
0.066152 0.386799 0.796428
0.104499 0.398524 0.800872
0.148586 0.399031 0.805109
0.219560 0.399244 0.808002
0.316972 0.425798 0.870982
0.393028 0.452300 0.916595
0.445867 0.470594 0.928096
0.474794 0.487535 0.936700
0.037875 0.445173 0.737134
0.061675 0.459897 0.734728
0.096786 0.472254 0.738744
0.143411 0.481411 0.752425
0.201971 0.472562 0.760708
0.290327 0.479648 0.795436
0.375906 0.514493 0.854137
0.433476 0.530909 0.880701
0.463291 0.546949 0.887009
0.037239 0.566359 0.716424
0.061214 0.590278 0.723378
0.090957 0.607110 0.730837
0.138827 0.611715 0.740080
0.199880 0.603814 0.755226
0.282896 0.574627 0.766055
0.363934 0.585621 0.804053
0.417227 0.596365 0.821775
0.475868 0.612201 0.835975
0.037350 0.687340 0.741306
0.061605 0.706638 0.753921
0.091420 0.720327 0.762926
0.145303 0.728345 0.771332
0.227312 0.727084 0.778303
0.379015 0.717940 0.790147
0.562015 0.730673 0.825793
0.648520 0.719137 0.830023
0.720728 0.717851 0.832631
0.186951 0.783723 0.767159
0.229117 0.798453 0.778365
0.279194 0.807768 0.785763
0.344020 0.810823 0.789924
0.445795 0.802089 0.788272
0.561094 0.801748 0.791483
0.697580 0.822089 0.818234
0.788532 0.818737 0.837221
0.864013 0.827235 0.854156
0.330677 0.862341 0.790408
0.363038 0.871968 0.799049
0.411513 0.876347 0.803049
0.471064 0.875803 0.802724
0.568066 0.863564 0.791219
0.673556 0.862448 0.787971
0.781686 0.882922 0.803247
0.900017 0.887666 0.784210
0.974578 0.893111 0.795539
0.411454 0.914113 0.809619
0.444449 0.919266 0.815235
0.500661 0.923435 0.816787
0.569083 0.926613 0.814893
0.678803 0.919550 0.797146
0.780072 0.916542 0.776534
0.865186 0.935458 0.778459
0.930413 0.950987 0.768439
0.984803 0.954175 0.727279
0.044037 0.272858 0.959595
0.079482 0.276394 0.960807
0.120782 0.279456 0.959700
0.179316 0.280177 0.928896
0.249287 0.297212 0.948646
0.323163 0.319117 0.959295
0.389351 0.345719 0.971948
0.440338 0.364017 0.971954
0.470001 0.375427 0.971954
0.040497 0.326672 0.929196
0.075782 0.338421 0.928860
0.112910 0.343827 0.936596
0.172685 0.345386 0.918248
0.244452 0.358886 0.929454
0.328940 0.381792 0.954186
0.397220 0.406955 0.973738
0.447621 0.425582 0.974269
0.472343 0.436456 0.974297
0.040398 0.390136 0.856726
0.069451 0.403368 0.855281
0.107787 0.414867 0.859895
0.153012 0.414533 0.863001
0.226395 0.415550 0.868096
0.325337 0.442822 0.932177
0.399668 0.469019 0.973654
0.449971 0.486552 0.975482
0.474794 0.497524 0.975791
0.040035 0.461235 0.793486
0.063577 0.475600 0.790812
0.100658 0.488057 0.795222
0.148488 0.497237 0.809602
0.209921 0.487587 0.818099
0.300132 0.497422 0.856223
0.381848 0.530861 0.911298
0.436866 0.546869 0.934542
0.463128 0.556529 0.939857
0.039551 0.579591 0.767121
0.062795 0.604744 0.773020
0.095683 0.620441 0.779680
0.144649 0.624517 0.791614
0.208506 0.619197 0.809792
0.292683 0.590166 0.822014
0.369496 0.602134 0.860126
0.420086 0.613148 0.879419
0.452753 0.621902 0.889895
0.039667 0.706529 0.783153
0.063177 0.724414 0.793245
0.096527 0.737046 0.801982
0.146865 0.744199 0.810607
0.219867 0.741651 0.820353
0.317311 0.733124 0.844383
0.444377 0.747743 0.887757
0.537016 0.733239 0.894574
0.595236 0.719036 0.889496
0.082106 0.802595 0.812458
0.136636 0.815785 0.819797
0.206437 0.823683 0.826666
0.278826 0.825864 0.833719
0.377549 0.818995 0.840041
0.492941 0.817746 0.851221
0.641637 0.840455 0.888438
0.731440 0.840198 0.904704
0.800785 0.840582 0.915617
0.286318 0.880302 0.834958
0.322087 0.888213 0.840882
0.370218 0.892368 0.846573
0.425657 0.892285 0.851467
0.514272 0.882740 0.851540
0.606650 0.881747 0.858040
0.705196 0.902516 0.881068
0.815411 0.915887 0.903415
0.890444 0.913872 0.922679
0.362122 0.926819 0.849854
0.397021 0.931770 0.854927
0.448642 0.937364 0.860825
0.508320 0.943020 0.867019
0.600171 0.940645 0.865770
0.691812 0.940576 0.865292
0.795135 0.960316 0.882583
0.880955 0.972974 0.890240
0.989685 0.976044 0.864655
