public/LUTs/X-6370-STD.cube
# Copyright: (C) Copyright 2010-2021 by IWLTBAP SAS
# Cannot be resold, shared or otherwise redistributed
# Website: https://luts.iwltbap.com
TITLE "IWLTBAP 6370 (Rec.709, sRGB, DCI-P3)"
LUT_3D_SIZE 33
0.002289 0.025574 0.038483
0.002289 0.026184 0.038208
0.002289 0.026855 0.038361
0.002533 0.027435 0.038727
0.017273 0.035797 0.046051
0.039825 0.030701 0.037903
0.065552 0.033173 0.036041
0.097198 0.036560 0.035034
0.128571 0.040466 0.033234
0.156891 0.043549 0.031830
0.186279 0.047363 0.031128
0.217407 0.052094 0.031097
0.244019 0.057800 0.031403
0.270233 0.062469 0.031219
0.298279 0.066742 0.031799
0.327148 0.068970 0.031738
0.353607 0.072327 0.032410
0.380341 0.074707 0.032990
0.406921 0.076355 0.033600
0.433167 0.078400 0.033966
0.457916 0.080231 0.034302
0.483215 0.082214 0.035034
0.509979 0.084167 0.036072
0.537750 0.085052 0.037720
0.564331 0.087402 0.039398
0.590027 0.089966 0.041138
0.615387 0.094147 0.043213
0.640869 0.097870 0.046143
0.668457 0.104340 0.048798
0.692657 0.109222 0.051849
0.715179 0.113495 0.055969
0.737549 0.118866 0.059723
0.760254 0.124664 0.063873
0.002228 0.046356 0.049835
0.002228 0.048004 0.049835
0.002655 0.050873 0.048309
0.009949 0.054108 0.048645
0.027344 0.056152 0.049866
0.049652 0.056213 0.045074
0.077393 0.057434 0.036774
0.108337 0.061676 0.034088
0.139282 0.065674 0.031952
0.167206 0.068085 0.031097
0.199310 0.070374 0.030823
0.227448 0.072876 0.031097
0.254669 0.076172 0.031036
0.282623 0.079376 0.031250
0.312134 0.082733 0.031372
0.338409 0.085327 0.031982
0.364929 0.087799 0.032562
0.391907 0.089844 0.032959
0.419495 0.092377 0.033234
0.443970 0.094116 0.033691
0.468567 0.095642 0.034302
0.494263 0.098236 0.034729
0.520599 0.100494 0.035828
0.548370 0.102234 0.037659
0.573364 0.105164 0.039276
0.598450 0.108551 0.041321
0.623535 0.112427 0.043671
0.650452 0.118256 0.046295
0.675934 0.123322 0.049042
0.699463 0.128754 0.052185
0.722168 0.134064 0.056366
0.744476 0.139923 0.059875
0.768768 0.146393 0.064117
0.002197 0.065338 0.060944
0.002197 0.065216 0.060364
0.003387 0.064819 0.058594
0.015228 0.066223 0.055450
0.036896 0.069641 0.051758
0.060577 0.070435 0.045258
0.088593 0.071991 0.037842
0.119751 0.075470 0.033569
0.150391 0.078857 0.031158
0.179565 0.082336 0.030273
0.212189 0.086151 0.030457
0.239502 0.089081 0.030792
0.267639 0.091827 0.030640
0.296722 0.094910 0.031128
0.324158 0.097076 0.031586
0.350403 0.099701 0.032166
0.377563 0.103363 0.032318
0.404663 0.105591 0.032867
0.431091 0.107727 0.033020
0.455353 0.109589 0.033600
0.479767 0.111786 0.034088
0.505310 0.114319 0.034912
0.532776 0.116669 0.036133
0.558136 0.119232 0.037964
0.582886 0.122162 0.039642
0.607635 0.125671 0.041901
0.632355 0.130981 0.044189
0.659271 0.136230 0.046906
0.684021 0.141998 0.050049
0.707031 0.147980 0.053284
0.729706 0.154297 0.057373
0.751923 0.160583 0.061035
0.776062 0.167419 0.065002
0.002075 0.084686 0.072601
0.002075 0.083160 0.071259
0.003876 0.082550 0.069031
0.017456 0.082458 0.065216
0.043060 0.085083 0.060913
0.073730 0.089630 0.054230
0.105713 0.091431 0.042847
0.134552 0.092651 0.033966
0.165192 0.095734 0.030212
0.195282 0.099030 0.029877
0.225891 0.102417 0.030121
0.252960 0.105011 0.030548
0.281616 0.107880 0.030701
0.311462 0.111023 0.030884
0.337524 0.112885 0.031372
0.363800 0.115570 0.031921
0.390747 0.119293 0.031860
0.418365 0.121460 0.032501
0.443207 0.122955 0.032959
0.467255 0.124939 0.033386
0.491028 0.127472 0.034027
0.517334 0.129700 0.035126
0.543091 0.132385 0.036346
0.568359 0.135498 0.038269
0.593079 0.139648 0.040314
0.617340 0.144287 0.042419
0.643005 0.149475 0.044830
0.668335 0.155426 0.047668
0.692596 0.161407 0.050659
0.715363 0.167480 0.054718
0.737854 0.175171 0.058472
0.761444 0.182404 0.062195
0.783569 0.192200 0.066254
0.001892 0.108032 0.084625
0.001923 0.107330 0.083405
0.004364 0.106964 0.082214
0.022675 0.107178 0.078979
0.049194 0.105499 0.071533
0.083496 0.105896 0.063660
0.115021 0.106628 0.053528
0.148193 0.110138 0.040863
0.181519 0.113251 0.029205
0.212036 0.115784 0.029388
0.240021 0.118622 0.029846
0.267029 0.121429 0.030243
0.296143 0.124359 0.030365
0.325531 0.127441 0.030579
0.351349 0.129181 0.031006
0.377106 0.131226 0.031372
0.405426 0.134552 0.031616
0.431000 0.137146 0.032135
0.455292 0.139069 0.032562
0.479156 0.140961 0.033051
0.502899 0.143463 0.034027
0.530151 0.146362 0.035248
0.554932 0.149658 0.036743
0.579559 0.154602 0.038361
0.603424 0.158539 0.040497
0.627411 0.162811 0.042816
0.653137 0.168762 0.045471
0.677856 0.175751 0.048431
0.701630 0.182648 0.051758
0.724213 0.189514 0.055939
0.746399 0.197296 0.059662
0.770081 0.207458 0.063568
0.791351 0.216248 0.067688
0.001770 0.129425 0.095764
0.002533 0.129211 0.094604
0.009949 0.129272 0.093048
0.032013 0.128021 0.089844
0.058350 0.125824 0.082733
0.091736 0.122620 0.072693
0.125671 0.118469 0.060211
0.160431 0.123901 0.050018
0.195099 0.129181 0.033386
0.227478 0.134247 0.028870
0.254730 0.136780 0.029083
0.281281 0.139587 0.029694
0.312225 0.142944 0.029816
0.339294 0.144958 0.030243
0.365021 0.146851 0.030426
0.390625 0.148712 0.030792
0.419373 0.151947 0.031342
0.444153 0.154297 0.031372
0.467834 0.156403 0.032104
0.491455 0.158539 0.032623
0.517548 0.161255 0.033752
0.542572 0.164459 0.035095
0.567108 0.169281 0.036835
0.590881 0.173615 0.038879
0.614441 0.178467 0.041290
0.639618 0.184052 0.043762
0.663849 0.190643 0.046570
0.687988 0.197754 0.049652
0.711243 0.205383 0.053131
0.733551 0.213013 0.057434
0.757202 0.223328 0.061157
0.778748 0.231720 0.065094
0.799377 0.240936 0.069061
0.001312 0.153412 0.106384
0.006378 0.153381 0.105530
0.020966 0.153137 0.103912
0.042877 0.151947 0.100922
0.069092 0.149994 0.095612
0.106506 0.146790 0.084442
0.141357 0.139832 0.071960
0.177856 0.138489 0.058411
0.208862 0.144135 0.038696
0.241608 0.150085 0.029480
0.269501 0.155884 0.028381
0.295959 0.160706 0.028381
0.326569 0.163300 0.029144
0.353271 0.164459 0.029510
0.379181 0.166443 0.029907
0.406219 0.168457 0.030273
0.433228 0.171448 0.030518
0.457520 0.173553 0.031189
0.480835 0.175598 0.031830
0.506195 0.178986 0.032593
0.531403 0.183167 0.033875
0.555328 0.186737 0.035309
0.579224 0.190460 0.037415
0.602600 0.195587 0.039459
0.627380 0.201080 0.041931
0.650970 0.207703 0.044403
0.674896 0.214935 0.047211
0.698425 0.222229 0.050873
0.721130 0.229828 0.054413
0.744965 0.239349 0.058533
0.766510 0.247833 0.062592
0.787903 0.256470 0.066437
0.807953 0.266357 0.070435
0.000946 0.180847 0.116882
0.013123 0.180908 0.116364
0.033844 0.180115 0.114624
0.055023 0.179443 0.111938
0.080322 0.179016 0.107300
0.117065 0.176239 0.097168
0.159088 0.167450 0.082184
0.198090 0.159180 0.065918
0.228424 0.159119 0.047180
0.256104 0.166229 0.034241
0.283844 0.173035 0.029968
0.311615 0.179352 0.028534
0.341431 0.184814 0.027924
0.367676 0.187653 0.028442
0.393738 0.190460 0.028992
0.421661 0.193054 0.029327
0.447693 0.195465 0.029572
0.471588 0.197327 0.030426
0.495178 0.199615 0.031464
0.520599 0.202637 0.032776
0.544891 0.206360 0.034149
0.568176 0.210297 0.035706
0.591492 0.215057 0.038116
0.615112 0.220978 0.039886
0.639038 0.226379 0.042542
0.662689 0.232605 0.045349
0.686249 0.239044 0.048492
0.709137 0.246368 0.052002
0.731934 0.255676 0.055664
0.755096 0.263641 0.059998
0.776550 0.271210 0.063843
0.797729 0.278687 0.067657
0.817688 0.286682 0.071747
0.013794 0.211395 0.128387
0.026825 0.211212 0.127625
0.045044 0.210510 0.125732
0.065338 0.210327 0.123138
0.091644 0.209900 0.119354
0.121918 0.207611 0.113068
0.169891 0.202698 0.096893
0.207764 0.188232 0.080017
0.243256 0.183838 0.063049
0.274261 0.184235 0.046173
0.301361 0.190308 0.032562
0.331879 0.199493 0.029755
0.358826 0.205383 0.028229
0.383942 0.210327 0.027557
0.408661 0.215271 0.027466
0.436920 0.217133 0.028168
0.461884 0.218689 0.028961
0.485535 0.220856 0.029907
0.510590 0.223938 0.031158
0.534393 0.227173 0.032471
0.558136 0.230530 0.033997
0.581116 0.234344 0.035767
0.604156 0.238617 0.038422
0.628479 0.243591 0.040863
0.651550 0.248718 0.043579
0.675018 0.254852 0.046509
0.698090 0.261871 0.049835
0.721039 0.269958 0.053345
0.744659 0.276978 0.056885
0.766296 0.283844 0.061279
0.787567 0.291077 0.065002
0.808228 0.298462 0.068787
0.827820 0.306274 0.072845
0.038422 0.245941 0.140594
0.051025 0.245148 0.139709
0.064758 0.243896 0.138489
0.079346 0.243469 0.136292
0.101379 0.242004 0.133270
0.128754 0.241058 0.128601
0.167084 0.239288 0.118805
0.215637 0.231049 0.098724
0.252869 0.216766 0.079895
0.290436 0.212830 0.061127
0.324768 0.211578 0.040527
0.351715 0.217926 0.032684
0.376495 0.224335 0.030060
0.400879 0.229950 0.028320
0.426544 0.235107 0.027924
0.450775 0.240265 0.027710
0.475189 0.243011 0.028229
0.499237 0.244171 0.029297
0.524384 0.246582 0.031250
0.548157 0.249603 0.032715
0.571777 0.252747 0.034393
0.594543 0.256561 0.036285
0.618958 0.260864 0.039124
0.641602 0.265564 0.041718
0.664490 0.270782 0.044464
0.688110 0.278137 0.047729
0.710724 0.284393 0.051086
0.734314 0.291138 0.054565
0.756165 0.297882 0.058075
0.777649 0.304535 0.062531
0.798676 0.311432 0.066223
0.818848 0.318665 0.069916
0.838074 0.326050 0.073792
0.065308 0.276245 0.150787
0.077332 0.276215 0.149902
0.087769 0.274353 0.148651
0.099640 0.274170 0.147217
0.114929 0.272736 0.144745
0.138916 0.270813 0.140594
0.172180 0.269623 0.133881
0.218109 0.268127 0.117249
0.257111 0.251709 0.097290
0.300018 0.240265 0.076599
0.339630 0.238129 0.055115
0.371948 0.238678 0.039825
0.396118 0.243469 0.033813
0.420593 0.249847 0.030975
0.444092 0.255615 0.029449
0.467896 0.261230 0.028748
0.490143 0.265411 0.028870
0.511902 0.269257 0.029083
0.537262 0.271362 0.030426
0.561279 0.273773 0.032440
0.584930 0.276703 0.034302
0.607727 0.280121 0.036377
0.631958 0.284180 0.039581
0.655060 0.290344 0.042389
0.677704 0.295380 0.045319
0.700562 0.300720 0.048553
0.722778 0.306641 0.051910
0.746063 0.313080 0.055450
0.767792 0.319519 0.059082
0.789124 0.325806 0.063568
0.809753 0.332336 0.067139
0.829590 0.339203 0.070831
0.848511 0.346161 0.074524
0.092255 0.305145 0.161591
0.101685 0.305939 0.161041
0.112122 0.304871 0.159882
0.123199 0.303314 0.158417
0.136444 0.301849 0.156494
0.155029 0.300385 0.153717
0.181946 0.297394 0.147888
0.217316 0.296356 0.136475
0.263092 0.291138 0.116760
0.303467 0.273834 0.095917
0.348450 0.267120 0.075867
0.385620 0.265778 0.056580
0.417755 0.266510 0.041901
0.442352 0.270508 0.036652
0.463593 0.276276 0.032623
0.485107 0.281708 0.031281
0.506531 0.286896 0.030701
0.529205 0.291809 0.030823
0.550903 0.297363 0.031097
0.573425 0.301514 0.032074
0.597504 0.303925 0.034515
0.621826 0.307037 0.037323
0.644958 0.310669 0.040558
0.667603 0.314880 0.043396
0.690155 0.319489 0.046387
0.712738 0.324493 0.049530
0.736267 0.330017 0.053009
0.757935 0.335907 0.056610
0.779419 0.341858 0.060242
0.800568 0.347748 0.064575
0.820801 0.353790 0.067902
0.840302 0.360016 0.071533
0.860992 0.368256 0.075317
0.121094 0.334015 0.173187
0.129974 0.333679 0.172943
0.139252 0.332916 0.171997
0.149658 0.331879 0.170349
0.162933 0.330475 0.168091
0.177277 0.328430 0.165649
0.192535 0.326080 0.160797
0.219666 0.324402 0.152405
0.261597 0.325378 0.137604
0.306458 0.311493 0.117584
0.352173 0.299866 0.095551
0.393799 0.294983 0.076447
0.431396 0.294250 0.055542
0.461456 0.294525 0.044708
0.485413 0.297546 0.039551
0.505615 0.303284 0.035797
0.525238 0.310577 0.034454
0.545349 0.315948 0.033752
0.566284 0.321014 0.033478
0.587341 0.325714 0.034088
0.608521 0.330109 0.034973
0.632904 0.333466 0.037567
0.656342 0.336700 0.040924
0.679291 0.340454 0.043976
0.701996 0.344604 0.047180
0.724518 0.349152 0.050537
0.747986 0.354187 0.054108
0.769592 0.359467 0.057739
0.790924 0.364807 0.061157
0.811676 0.370239 0.064667
0.832489 0.377380 0.069000
0.852814 0.383087 0.072510
0.871735 0.388702 0.075897
0.154114 0.365814 0.187744
0.162506 0.364685 0.186768
0.170929 0.363892 0.185669
0.180206 0.362366 0.184265
0.190186 0.360382 0.181854
0.200317 0.358429 0.179535
0.212708 0.356506 0.175049
0.230286 0.354218 0.168610
0.261261 0.354065 0.158661
0.306671 0.351624 0.139984
0.348389 0.337158 0.119965
0.397583 0.330841 0.098389
0.437988 0.327026 0.078796
0.472992 0.325287 0.061523
0.504211 0.325470 0.049805
0.527100 0.327972 0.044983
0.544250 0.333374 0.041412
0.562622 0.338837 0.039581
0.582001 0.344269 0.038879
0.602081 0.349396 0.039001
0.622803 0.354340 0.039673
0.644684 0.358948 0.040283
0.665710 0.363220 0.041107
0.689514 0.366547 0.044373
0.712769 0.370300 0.047729
0.737061 0.374451 0.051331
0.759186 0.378906 0.054962
0.780945 0.383484 0.058594
0.802856 0.390015 0.061981
0.823517 0.394836 0.065399
0.843567 0.399658 0.069824
0.864075 0.404694 0.073303
0.882629 0.409637 0.076569
0.182343 0.395691 0.203430
0.189941 0.393921 0.202148
0.197998 0.391571 0.200562
0.206787 0.389343 0.198914
0.214996 0.387787 0.196991
0.223419 0.385803 0.194153
0.232788 0.383087 0.189880
0.246307 0.380829 0.185089
0.269562 0.380890 0.177155
0.309723 0.383179 0.162292
0.349731 0.373962 0.142883
0.393066 0.364624 0.122955
0.439606 0.361389 0.101959
0.478546 0.358429 0.083008
0.513367 0.355469 0.067291
0.541931 0.354980 0.056641
0.564911 0.356903 0.050903
0.580658 0.362030 0.047363
0.598022 0.367401 0.045380
0.618073 0.372772 0.044495
0.637360 0.378021 0.044373
0.657501 0.383087 0.044495
0.678162 0.387787 0.045227
0.699280 0.392120 0.046021
0.721954 0.397064 0.047852
0.747284 0.401581 0.051788
0.770050 0.405548 0.055420
0.792145 0.409729 0.059082
0.813721 0.413940 0.062775
0.834564 0.418182 0.066284
0.855743 0.422516 0.070587
0.875183 0.426819 0.073944
0.893799 0.431061 0.077148
0.208313 0.422577 0.221466
0.216766 0.420532 0.220245
0.224243 0.418243 0.218475
0.231445 0.415527 0.216431
0.237885 0.413483 0.214264
0.246246 0.410950 0.210175
0.254700 0.408417 0.206238
0.264587 0.406097 0.201721
0.282532 0.404785 0.194153
0.313507 0.405518 0.182343
0.353180 0.403381 0.165009
0.391296 0.396698 0.146729
0.435486 0.392090 0.126648
0.481720 0.390808 0.105469
0.517639 0.388916 0.089630
0.548981 0.386322 0.074219
0.577271 0.385193 0.064362
0.601959 0.385956 0.058929
0.616760 0.390930 0.054626
0.633423 0.396179 0.052124
0.651123 0.401459 0.050995
0.670319 0.407898 0.050598
0.690430 0.413513 0.050659
0.711090 0.418274 0.051147
0.732300 0.422729 0.051636
0.755493 0.426880 0.052185
0.778748 0.430634 0.055359
0.801697 0.434448 0.059326
0.823822 0.438263 0.063019
0.845093 0.442078 0.066650
0.866852 0.445923 0.070221
0.886444 0.449554 0.074524
0.905273 0.453247 0.077698
0.236084 0.449585 0.240509
0.243866 0.447052 0.239532
0.250641 0.445099 0.237854
0.256836 0.442780 0.235901
0.263184 0.440582 0.232910
0.270325 0.437683 0.229736
0.278137 0.435120 0.225739
0.287506 0.432983 0.220398
0.301941 0.431610 0.213226
0.324982 0.430725 0.202759
0.353943 0.428436 0.190033
0.388062 0.424408 0.173553
0.427673 0.420746 0.155029
0.475739 0.420685 0.131744
0.516296 0.420715 0.112427
0.550995 0.419098 0.096527
0.583557 0.417206 0.083221
0.610382 0.415619 0.072906
0.634552 0.416107 0.068115
0.648926 0.422241 0.063843
0.665344 0.426575 0.060608
0.682983 0.431946 0.058929
0.702057 0.437164 0.058044
0.721954 0.442230 0.057770
0.744385 0.447052 0.057556
0.765656 0.451447 0.057831
0.787323 0.455505 0.058044
0.809509 0.459198 0.058960
0.832642 0.462769 0.062988
0.854797 0.466248 0.066925
0.877441 0.469757 0.070282
0.897644 0.472992 0.074860
0.917114 0.476288 0.078186
0.261871 0.474426 0.260193
0.268860 0.472168 0.259125
0.275330 0.469788 0.257538
0.281464 0.467255 0.255188
0.287567 0.464539 0.252289
0.293610 0.461700 0.248749
0.300354 0.458649 0.244415
0.309784 0.455841 0.238525
0.321289 0.454071 0.232117
0.336914 0.452606 0.223175
0.358704 0.451630 0.212097
0.386261 0.446869 0.198334
0.424042 0.444916 0.181854
0.464996 0.444305 0.162018
0.509064 0.446991 0.138641
0.550171 0.448914 0.119568
0.584015 0.449463 0.104584
0.613525 0.449188 0.092865
0.640015 0.448669 0.084778
0.664307 0.448853 0.080322
0.679535 0.452271 0.073730
0.695831 0.456726 0.069763
0.713593 0.461395 0.067352
0.734497 0.465759 0.065826
0.754456 0.470673 0.065063
0.775269 0.475342 0.064697
0.796570 0.479675 0.064514
0.818420 0.483643 0.064484
0.840454 0.487274 0.064178
0.863495 0.490601 0.066315
0.887085 0.493927 0.070282
0.908325 0.496918 0.074127
0.928223 0.499939 0.078644
0.286011 0.496033 0.280426
0.292664 0.493713 0.279358
0.299316 0.490906 0.277832
0.305481 0.488312 0.275391
0.311066 0.485107 0.272034
0.316559 0.481842 0.267883
0.322571 0.478333 0.262878
0.330658 0.475098 0.256989
0.339264 0.472748 0.249725
0.350952 0.470123 0.241364
0.366821 0.469116 0.231873
0.388763 0.465729 0.220367
0.417236 0.462402 0.206451
0.455200 0.464111 0.189758
0.496399 0.467773 0.169495
0.541504 0.473145 0.148071
0.579681 0.476166 0.127533
0.612671 0.477997 0.113892
0.641724 0.478729 0.103271
0.667938 0.478973 0.095673
0.694214 0.479401 0.090942
0.710876 0.482452 0.085449
0.727264 0.486389 0.080963
0.745361 0.490387 0.077942
0.764709 0.493896 0.075165
0.784576 0.498657 0.073059
0.805389 0.503052 0.072235
0.826965 0.507904 0.071594
0.849091 0.512787 0.070953
0.873199 0.516541 0.070496
0.895721 0.519836 0.069855
0.918427 0.522827 0.073547
0.937378 0.525574 0.077789
0.309540 0.517273 0.300781
0.315643 0.514923 0.299744
0.321564 0.512268 0.298004
0.327393 0.509308 0.295380
0.332886 0.505859 0.291931
0.338287 0.502167 0.287811
0.344391 0.498596 0.282959
0.350891 0.495361 0.277679
0.357849 0.492432 0.271362
0.366272 0.489197 0.263031
0.378571 0.486237 0.252655
0.394623 0.483948 0.241547
0.414734 0.477966 0.229340
0.444183 0.478729 0.216888
0.483368 0.484741 0.199463
0.525940 0.491974 0.178650
0.567932 0.498169 0.157074
0.606415 0.502258 0.137848
0.638947 0.505219 0.123596
0.670013 0.507263 0.113892
0.696167 0.508331 0.106995
0.720612 0.509186 0.102753
0.738800 0.511780 0.097015
0.755859 0.515198 0.091553
0.774414 0.519714 0.087677
0.793945 0.523376 0.084808
0.814056 0.527863 0.082855
0.835083 0.531860 0.081360
0.856659 0.535889 0.080078
0.880524 0.539886 0.078430
0.903107 0.543396 0.076691
0.926208 0.546814 0.075867
0.944214 0.549377 0.076538
0.330841 0.535950 0.320465
0.336700 0.533478 0.319305
0.342621 0.530853 0.317383
0.348175 0.527985 0.314941
0.353302 0.524628 0.311646
0.358337 0.521149 0.307800
0.363831 0.517609 0.303375
0.369507 0.514191 0.298645
0.375488 0.511230 0.292999
0.382568 0.507843 0.285553
0.391541 0.504364 0.276306
0.404602 0.501831 0.264740
0.418121 0.495361 0.251190
0.438263 0.491241 0.238800
0.472168 0.497070 0.225830
0.510437 0.505524 0.209320
0.551117 0.514709 0.188477
0.591614 0.522797 0.168152
0.628876 0.528900 0.150970
0.665161 0.533386 0.135803
0.694336 0.536194 0.125854
0.721100 0.538116 0.118958
0.746002 0.539490 0.114655
0.765564 0.541901 0.108887
0.782898 0.544952 0.102570
0.801880 0.548096 0.097534
0.821930 0.550781 0.093964
0.842499 0.554810 0.091339
0.863800 0.558380 0.089203
0.887238 0.562531 0.087555
0.909546 0.566254 0.085938
0.932495 0.569794 0.084717
0.949646 0.572571 0.083374
0.351868 0.553833 0.341187
0.357544 0.551544 0.340057
0.363342 0.549103 0.338074
0.369141 0.546082 0.335297
0.373962 0.543091 0.332245
0.378784 0.539886 0.328796
0.383759 0.536682 0.324799
0.389008 0.533569 0.320312
0.394379 0.530518 0.315277
0.399841 0.527069 0.308075
0.407318 0.523773 0.300049
0.418091 0.521423 0.289581
0.429504 0.515717 0.277252
0.442505 0.509247 0.264648
0.463318 0.508850 0.251221
0.496552 0.517120 0.237488
0.534332 0.527496 0.220947
0.574158 0.537933 0.201691
0.616089 0.547913 0.181335
0.653656 0.554932 0.163910
0.687531 0.559814 0.150208
0.718292 0.563171 0.139221
0.746185 0.565460 0.131897
0.771851 0.567200 0.127716
0.792328 0.569122 0.120911
0.809265 0.572174 0.113159
0.828735 0.574951 0.107483
0.849030 0.577332 0.103210
0.871735 0.580872 0.099915
0.893219 0.584473 0.097229
0.915039 0.588196 0.094818
0.937225 0.591736 0.092804
0.953125 0.594543 0.090790
0.371979 0.571228 0.360077
0.377380 0.569000 0.358673
0.382782 0.566711 0.356750
0.387848 0.564117 0.354462
0.392609 0.561218 0.351654
0.397400 0.558289 0.348572
0.402191 0.555389 0.345154
0.407257 0.552490 0.341309
0.412445 0.550049 0.337433
0.418518 0.547791 0.332825
0.426361 0.546417 0.327026
0.435577 0.544830 0.319092
0.445404 0.541412 0.307434
0.455078 0.534851 0.295929
0.466248 0.529053 0.282379
0.487701 0.530945 0.267975
0.521179 0.539917 0.251678
0.556976 0.550293 0.234497
0.598480 0.562592 0.215546
0.637421 0.572388 0.197266
0.674530 0.580048 0.178955
0.709320 0.585602 0.163879
0.741028 0.589630 0.152771
0.769989 0.592194 0.144531
0.796509 0.593811 0.139008
0.818329 0.595337 0.133392
0.836029 0.598053 0.125183
0.857056 0.600677 0.117126
0.877106 0.602875 0.112122
0.898010 0.606110 0.108032
0.919464 0.609253 0.104523
0.941132 0.612854 0.101654
0.955566 0.615601 0.098938
0.391693 0.591095 0.380035
0.397034 0.589142 0.378662
0.402252 0.587006 0.376862
0.407166 0.584686 0.374756
0.411865 0.582214 0.372498
0.416351 0.579742 0.369965
0.421082 0.577393 0.367279
0.426331 0.575348 0.364410
0.432007 0.573334 0.361237
0.438110 0.571472 0.357391
0.445190 0.570465 0.353180
0.452759 0.569183 0.347321
0.462128 0.567749 0.339630
0.470398 0.563507 0.329803
0.478424 0.556366 0.315735
0.490814 0.551788 0.301331
0.512970 0.555206 0.285736
0.543701 0.563995 0.269531
0.579987 0.574951 0.250702
0.617310 0.585999 0.231812
0.657074 0.596527 0.212891
0.695129 0.604645 0.195190
0.730530 0.610748 0.178436
0.763275 0.614990 0.165405
0.792816 0.617767 0.156860
0.821838 0.619568 0.150848
0.844666 0.620514 0.145325
0.862823 0.622803 0.134979
0.882050 0.625244 0.127747
0.901642 0.627106 0.120422
0.922455 0.630005 0.115479
0.942657 0.632843 0.111328
0.957153 0.636261 0.107697
0.410400 0.611053 0.399078
0.415863 0.609558 0.398224
0.421112 0.607880 0.396912
0.426117 0.605988 0.395203
0.430664 0.603790 0.392975
0.434998 0.601593 0.390625
0.439911 0.599701 0.388519
0.445190 0.597961 0.386353
0.450958 0.596680 0.384155
0.457153 0.595642 0.381836
0.463928 0.594635 0.378784
0.470825 0.593506 0.374359
0.477966 0.591766 0.368317
0.485931 0.588898 0.359955
0.493835 0.583771 0.349304
0.502533 0.578339 0.336060
0.514008 0.574127 0.319611
0.538269 0.579285 0.303467
0.567902 0.588196 0.286743
0.600342 0.597870 0.268250
0.636658 0.608887 0.248352
0.675171 0.619781 0.229156
0.713043 0.628845 0.211029
0.749054 0.635406 0.195038
0.782440 0.640076 0.179901
0.816315 0.642059 0.168365
0.842987 0.643341 0.161652
0.866730 0.644073 0.156464
0.885101 0.646210 0.144958
0.904083 0.649811 0.136017
0.924194 0.652008 0.129456
0.942169 0.654694 0.122192
0.957520 0.656860 0.117279
0.429810 0.632416 0.419861
0.435028 0.631195 0.419098
0.440338 0.629730 0.417847
0.445435 0.628082 0.416504
0.450439 0.626404 0.415039
0.455170 0.624634 0.413422
0.460052 0.622955 0.411682
0.465393 0.621552 0.409851
0.470947 0.620331 0.408142
0.476807 0.619476 0.406281
0.483002 0.618774 0.404053
0.489594 0.617798 0.400909
0.496277 0.616302 0.396271
0.502747 0.613312 0.388367
0.510712 0.610535 0.380066
0.518280 0.605774 0.368286
0.525360 0.600220 0.355316
0.539337 0.598724 0.340790
0.560577 0.602814 0.322723
0.588440 0.610931 0.304443
0.619690 0.620453 0.286011
0.655090 0.631348 0.266113
0.693115 0.642181 0.245239
0.730927 0.651154 0.226318
0.767487 0.658112 0.209106
0.803284 0.663025 0.194519
0.833618 0.665955 0.183319
0.861145 0.667175 0.172729
0.886078 0.667786 0.166656
0.905212 0.670135 0.153778
0.924683 0.672302 0.144043
0.940613 0.674530 0.136047
0.956329 0.676544 0.129486
0.448730 0.653412 0.438873
0.454041 0.652344 0.438171
0.459198 0.651154 0.437378
0.464142 0.649780 0.436249
0.468903 0.648315 0.435028
0.473602 0.646820 0.433594
0.478455 0.645355 0.432068
0.483704 0.644043 0.430634
0.489197 0.643005 0.429199
0.494965 0.642273 0.427826
0.501068 0.641724 0.426300
0.507477 0.641113 0.424286
0.514099 0.640045 0.421265
0.520844 0.638336 0.416626
0.527985 0.636139 0.410156
0.534973 0.632507 0.399261
0.542206 0.627899 0.388031
0.549652 0.622711 0.375549
0.561432 0.621063 0.360748
0.582062 0.625732 0.343658
0.608276 0.633087 0.323090
0.638123 0.642120 0.302948
0.672455 0.652740 0.283112
