public/LUTs/X-6370-STD.cube
# Copyright: (C) Copyright 2010-2021 by IWLTBAP SAS
# Cannot be resold, shared or otherwise redistributed
# Website: https://luts.iwltbap.com
TITLE "IWLTBAP 6370 (Rec.709, sRGB, DCI-P3)"
LUT_3D_SIZE 9
0.002289 0.025574 0.038483
0.017273 0.035797 0.046051
0.128571 0.040466 0.033234
0.244019 0.057800 0.031403
0.353607 0.072327 0.032410
0.457916 0.080231 0.034302
0.564331 0.087402 0.039398
0.668457 0.104340 0.048798
0.760254 0.124664 0.063873
0.001892 0.108032 0.084625
0.049194 0.105499 0.071533
0.181519 0.113251 0.029205
0.296143 0.124359 0.030365
0.405426 0.134552 0.031616
0.502899 0.143463 0.034027
0.603424 0.158539 0.040497
0.701630 0.182648 0.051758
0.791351 0.216248 0.067688
0.013794 0.211395 0.128387
0.091644 0.209900 0.119354
0.243256 0.183838 0.063049
0.358826 0.205383 0.028229
0.461884 0.218689 0.028961
0.558136 0.230530 0.033997
0.651550 0.248718 0.043579
0.744659 0.276978 0.056885
0.827820 0.306274 0.072845
0.121094 0.334015 0.173187
0.162933 0.330475 0.168091
0.261597 0.325378 0.137604
0.431396 0.294250 0.055542
0.525238 0.310577 0.034454
0.608521 0.330109 0.034973
0.701996 0.344604 0.047180
0.790924 0.364807 0.061157
0.871735 0.388702 0.075897
0.236084 0.449585 0.240509
0.263184 0.440582 0.232910
0.301941 0.431610 0.213226
0.427673 0.420746 0.155029
0.583557 0.417206 0.083221
0.665344 0.426575 0.060608
0.744385 0.447052 0.057556
0.832642 0.462769 0.062988
0.917114 0.476288 0.078186
0.330841 0.535950 0.320465
0.353302 0.524628 0.311646
0.375488 0.511230 0.292999
0.418121 0.495361 0.251190
0.551117 0.514709 0.188477
0.694336 0.536194 0.125854
0.782898 0.544952 0.102570
0.863800 0.558380 0.089203
0.949646 0.572571 0.083374
0.410400 0.611053 0.399078
0.430664 0.603790 0.392975
0.450958 0.596680 0.384155
0.477966 0.591766 0.368317
0.514008 0.574127 0.319611
0.636658 0.608887 0.248352
0.782440 0.640076 0.179901
0.885101 0.646210 0.144958
0.957520 0.656860 0.117279
0.484253 0.695831 0.475037
0.504578 0.692108 0.472626
0.524475 0.687592 0.467804
0.547638 0.685242 0.463348
0.574280 0.680176 0.447601
0.602692 0.663391 0.398895
0.706879 0.693939 0.314972
0.848755 0.725006 0.231537
0.943451 0.731964 0.179413
0.543365 0.763580 0.533752
0.562927 0.760681 0.532654
0.582123 0.757263 0.528870
0.603638 0.755432 0.526154
0.628693 0.755402 0.524567
0.652008 0.748657 0.510773
0.676239 0.734497 0.465729
0.761108 0.761169 0.370789
0.872467 0.789307 0.271912
0.002258 0.032593 0.051910
0.009460 0.039703 0.062286
0.114624 0.045166 0.069519
0.242554 0.026001 0.067474
0.357697 0.035095 0.079193
0.463837 0.043213 0.086212
0.567871 0.052795 0.093933
0.665283 0.065399 0.107391
0.758972 0.079620 0.126129
0.001770 0.113678 0.098053
0.066542 0.126624 0.106394
0.178148 0.120599 0.095059
0.305952 0.124071 0.077542
0.414768 0.132748 0.076382
0.514079 0.143467 0.079851
0.610040 0.156375 0.085381
0.706167 0.174408 0.096185
0.797699 0.186951 0.100250
0.009338 0.220673 0.141663
0.095568 0.235257 0.158624
0.220208 0.215529 0.138163
0.359938 0.223477 0.101874
0.468608 0.227732 0.091688
0.565535 0.237057 0.091037
0.657352 0.251980 0.095184
0.748949 0.275289 0.106666
0.835083 0.301849 0.112061
0.121765 0.348541 0.195496
0.171963 0.351888 0.220615
0.237868 0.339956 0.195397
0.405040 0.318644 0.153354
0.517354 0.330248 0.118876
0.611861 0.340613 0.112013
0.706909 0.351973 0.113352
0.797014 0.371165 0.122786
0.883209 0.392029 0.124542
0.246857 0.471588 0.293060
0.274190 0.456567 0.292938
0.306413 0.444373 0.274095
0.397414 0.433553 0.229289
0.559468 0.432441 0.178253
0.655877 0.442796 0.150072
0.743320 0.459357 0.141449
0.838823 0.473345 0.144161
0.929840 0.484467 0.141876
0.349365 0.558685 0.383118
0.368741 0.547682 0.371714
0.394206 0.538055 0.360850
0.430508 0.527954 0.330071
0.531898 0.528313 0.276025
0.679935 0.547404 0.220690
0.775011 0.558163 0.194787
0.861657 0.574249 0.179511
0.961182 0.584991 0.161835
0.429871 0.632599 0.454712
0.453440 0.632273 0.451053
0.476929 0.626875 0.446181
0.501146 0.620338 0.432644
0.534420 0.608110 0.394979
0.635067 0.625254 0.330858
0.771603 0.652157 0.272091
0.871484 0.662791 0.240930
0.961700 0.675323 0.208679
0.503906 0.715149 0.523041
0.527567 0.714111 0.523109
0.549699 0.711836 0.521793
0.571645 0.708649 0.517042
0.595754 0.704010 0.504025
0.622260 0.688531 0.464173
0.712708 0.711901 0.391727
0.837948 0.739760 0.320458
0.941284 0.752075 0.278290
0.566864 0.784302 0.581940
0.590118 0.785187 0.584564
0.611481 0.784851 0.585236
0.632874 0.784149 0.583679
0.655243 0.782745 0.580841
0.678284 0.777252 0.568054
0.696838 0.759796 0.528931
0.774323 0.784363 0.447205
0.874603 0.809082 0.359283
0.002228 0.050446 0.062378
0.007690 0.058289 0.069763
0.097595 0.069336 0.090424
0.238647 0.042358 0.103180
0.355804 0.030884 0.114563
0.459778 0.038635 0.125946
0.562866 0.046051 0.142822
0.659424 0.054810 0.162598
0.754669 0.068115 0.191833
0.001587 0.126068 0.113983
0.073564 0.151035 0.141293
0.148478 0.144748 0.139686
0.284481 0.134932 0.139394
0.408597 0.129473 0.141463
0.512244 0.133080 0.151652
0.609924 0.138811 0.163798
0.707591 0.149336 0.179650
0.806671 0.141968 0.178040
0.012909 0.230286 0.178986
0.107178 0.260210 0.217329
0.209370 0.262712 0.230456
0.326807 0.249873 0.213925
0.448447 0.254080 0.201222
0.553330 0.263103 0.201527
0.650258 0.274646 0.206805
0.751746 0.274356 0.190165
0.850952 0.295929 0.193146
0.122070 0.360809 0.245850
0.185781 0.376543 0.277568
0.246268 0.369374 0.290088
0.360533 0.351478 0.267680
0.488913 0.357585 0.236608
0.599281 0.364988 0.227945
0.697330 0.377100 0.228194
0.797709 0.386088 0.211348
0.892639 0.406982 0.214325
0.249146 0.482452 0.347504
0.288869 0.481482 0.353658
0.319094 0.473186 0.356334
0.377800 0.462515 0.326976
0.522583 0.453823 0.293247
0.633416 0.468982 0.265363
0.731711 0.481284 0.255913
0.839199 0.490723 0.242673
0.933777 0.507660 0.246246
0.348389 0.568451 0.432587
0.384993 0.574456 0.436011
0.410074 0.569476 0.429231
0.442830 0.561085 0.410840
0.515785 0.553865 0.368338
0.656151 0.561421 0.325086
0.756626 0.577545 0.299794
0.859284 0.596636 0.283298
0.960693 0.611023 0.279236
0.435699 0.647644 0.503265
0.472622 0.658583 0.510623
0.494920 0.656857 0.502673
0.521335 0.651028 0.493902
0.553630 0.643644 0.467118
0.631080 0.644777 0.417270
0.757502 0.663666 0.364787
0.866031 0.686523 0.343486
0.958710 0.705536 0.324890
0.517181 0.731812 0.568878
0.548723 0.737640 0.576152
0.573741 0.737634 0.576965
0.597894 0.736515 0.575422
0.622654 0.733134 0.565450
0.649089 0.723450 0.534590
0.720510 0.734331 0.474209
0.837046 0.759854 0.414500
0.939301 0.778290 0.386505
0.584473 0.800446 0.625244
0.614410 0.808655 0.634216
0.639435 0.811676 0.638367
0.661316 0.811249 0.638977
0.682220 0.809235 0.635468
0.705933 0.806702 0.625549
0.727203 0.793640 0.595917
0.788696 0.808838 0.526794
0.879639 0.832214 0.453705
0.006012 0.090179 0.120453
0.040863 0.094025 0.118225
0.100067 0.102692 0.121002
0.218903 0.120178 0.143402
0.344208 0.111786 0.162292
0.458313 0.098206 0.187805
0.559235 0.094849 0.211121
0.653625 0.093689 0.238312
0.747253 0.079346 0.272797
0.002991 0.147888 0.152924
0.092594 0.178630 0.181508
0.160149 0.188727 0.185760
0.258114 0.193468 0.200819
0.382897 0.179274 0.214399
0.494575 0.174489 0.231639
0.594547 0.177053 0.250058
0.691569 0.186350 0.274058
0.797974 0.178009 0.287903
0.025116 0.239227 0.218689
0.124210 0.272929 0.259955
0.219567 0.292276 0.286066
0.297938 0.286722 0.281780
0.419412 0.276825 0.281728
0.534131 0.279399 0.289100
0.634539 0.285740 0.300645
0.740994 0.283302 0.298909
0.839661 0.295074 0.318298
0.109924 0.359406 0.305328
0.184336 0.382470 0.337467
0.258599 0.395461 0.359678
0.342162 0.392680 0.358454
0.462979 0.380018 0.340057
0.579366 0.385221 0.331158
0.686064 0.390627 0.327475
0.787859 0.403012 0.329753
0.878906 0.426605 0.351074
0.239380 0.475861 0.382294
0.285773 0.484270 0.398441
0.331117 0.495457 0.414406
0.386092 0.499006 0.420134
0.493135 0.483302 0.396188
0.612286 0.488300 0.367004
0.725878 0.497411 0.357285
0.830502 0.515513 0.361942
0.922028 0.540405 0.377502
0.329803 0.558380 0.461945
0.376272 0.576501 0.476112
0.419448 0.590441 0.484653
0.459946 0.595735 0.487357
0.512144 0.587288 0.457068
0.635095 0.582813 0.425768
0.744659 0.600196 0.402022
0.852485 0.621250 0.398126
0.954773 0.638977 0.405304
0.418213 0.643951 0.532349
0.463077 0.662282 0.548611
0.505665 0.678661 0.558351
0.543100 0.682106 0.560448
0.574721 0.675593 0.541858
0.631529 0.669475 0.500366
0.747783 0.683859 0.463126
0.858239 0.712535 0.449544
0.955994 0.732758 0.437561
0.505371 0.730560 0.598450
0.548923 0.746836 0.614671
0.589915 0.761339 0.629974
0.621073 0.765154 0.633619
0.648573 0.763404 0.627007
0.676948 0.758677 0.604333
0.730204 0.761332 0.558743
0.835822 0.780782 0.509694
0.938019 0.805817 0.487000
0.585999 0.804413 0.656769
0.625336 0.821259 0.674896
0.660980 0.833527 0.688660
0.686584 0.837830 0.693085
0.709900 0.838593 0.693176
0.734436 0.836060 0.684784
0.756989 0.828369 0.661530
0.803253 0.833923 0.605225
0.886230 0.855408 0.542084
0.049286 0.137390 0.199585
0.098480 0.144165 0.202515
0.143188 0.141815 0.188782
0.213745 0.157074 0.184601
0.325500 0.189453 0.226135
0.422089 0.207458 0.272888
0.516144 0.215210 0.311768
0.612427 0.222717 0.350769
0.712158 0.225739 0.384918
0.030426 0.187073 0.230377
0.117666 0.219764 0.259735
0.190809 0.232602 0.259867
0.259593 0.240143 0.254259
0.363308 0.263078 0.286655
0.464332 0.271566 0.320363
0.561581 0.274272 0.351630
0.658623 0.280650 0.381300
0.753693 0.292969 0.415680
0.058838 0.255768 0.274384
0.152123 0.293288 0.311422
0.239936 0.318410 0.333268
0.309682 0.329891 0.336119
0.397376 0.338135 0.352390
0.505762 0.336469 0.372061
0.606984 0.339007 0.391919
0.708517 0.345266 0.411682
0.804260 0.363220 0.441742
0.123627 0.358795 0.356201
0.200972 0.386125 0.386451
0.273698 0.406394 0.408794
0.354559 0.425374 0.423641
0.437202 0.422625 0.419765
0.550049 0.415091 0.421599
0.659034 0.420556 0.427781
0.757992 0.436835 0.447544
0.854004 0.450562 0.468811
0.225281 0.471191 0.429565
0.281572 0.488051 0.452694
0.330861 0.503937 0.471281
0.397637 0.525209 0.493635
0.480996 0.524658 0.489317
0.594583 0.511440 0.469697
0.705222 0.520116 0.466815
0.807346 0.536462 0.478509
0.899506 0.553253 0.495453
0.324066 0.553101 0.492188
0.374647 0.575691 0.510814
0.418410 0.594287 0.525279
0.470827 0.616124 0.546188
0.527582 0.626315 0.551874
0.618259 0.613986 0.527429
0.727767 0.620516 0.503804
0.841054 0.638825 0.506022
0.938782 0.660767 0.517395
0.402374 0.637512 0.560516
0.451877 0.658644 0.577840
0.497070 0.678483 0.592736
0.549550 0.699391 0.613452
0.598229 0.712986 0.622587
0.644368 0.707561 0.592894
0.739123 0.709588 0.563274
0.847409 0.734575 0.549228
0.951263 0.751404 0.537323
0.484680 0.722473 0.622009
0.530209 0.740651 0.640459
0.576243 0.759884 0.659515
0.626634 0.782450 0.681024
0.672879 0.796488 0.693122
0.705139 0.794820 0.678426
0.746568 0.791518 0.642107
0.834310 0.803223 0.603611
0.933533 0.826416 0.580902
0.570007 0.796814 0.678406
0.612854 0.817139 0.699188
0.658691 0.838745 0.720490
0.699371 0.855774 0.738312
0.734009 0.863495 0.745819
0.761505 0.865265 0.741211
0.786102 0.863678 0.727448
0.821838 0.862854 0.687042
0.889618 0.875183 0.631256
0.097321 0.184448 0.293549
0.147003 0.195526 0.302460
0.199554 0.205200 0.301605
0.237762 0.196503 0.267120
0.314331 0.224274 0.274170
0.408112 0.272125 0.327393
0.489594 0.312988 0.384460
0.573761 0.348877 0.440033
0.664062 0.373047 0.487823
0.085480 0.235229 0.323242
0.172251 0.267826 0.349131
0.238217 0.283583 0.355967
0.294118 0.286689 0.341624
0.354594 0.298560 0.334713
0.448981 0.339464 0.381734
0.533454 0.370575 0.431146
0.618723 0.394887 0.475905
0.708282 0.419342 0.519592
0.102020 0.298553 0.359009
0.192230 0.331811 0.390510
0.271962 0.359296 0.411043
0.341384 0.375549 0.411330
0.399997 0.381558 0.406413
0.489136 0.405501 0.437529
0.580013 0.423833 0.474773
0.665988 0.449049 0.516510
0.756073 0.464233 0.550354
0.159302 0.378479 0.416962
0.236138 0.405250 0.443865
0.306703 0.430822 0.464309
0.381811 0.455302 0.479204
0.452337 0.467380 0.481829
0.530199 0.475124 0.495653
0.627709 0.484201 0.520781
0.719276 0.504015 0.552327
0.812439 0.515167 0.575806
0.234985 0.473236 0.485291
0.296994 0.495297 0.508589
0.349965 0.515645 0.527297
0.414304 0.538310 0.549209
0.495868 0.559312 0.563429
0.573420 0.558495 0.559588
0.674539 0.557097 0.567374
0.772942 0.574239 0.585229
0.861725 0.589783 0.601471
0.332825 0.563232 0.542664
0.377865 0.584761 0.561252
0.418701 0.602916 0.577319
0.469948 0.624111 0.600128
0.538980 0.650641 0.626931
0.613650 0.652100 0.624353
0.712925 0.646795 0.610700
0.816610 0.659821 0.614153
0.905945 0.671448 0.622498
0.412537 0.645935 0.597931
0.457686 0.663157 0.612715
0.500000 0.680363 0.626544
0.548642 0.701723 0.648667
0.605173 0.728528 0.675982
0.662483 0.744518 0.686215
0.733828 0.739588 0.662538
0.836134 0.750797 0.639523
0.935760 0.762543 0.635651
0.481812 0.720642 0.650116
0.525299 0.738702 0.668701
0.571150 0.758484 0.688232
0.618123 0.779995 0.709524
0.673458 0.807821 0.736393
0.729604 0.830827 0.754500
0.770745 0.830451 0.730123
0.838148 0.831075 0.695438
0.926239 0.844666 0.672791
0.550385 0.787811 0.700562
0.595947 0.808502 0.721588
0.641357 0.830963 0.743256
0.686737 0.850891 0.763794
0.740662 0.878143 0.791260
0.787842 0.893860 0.806519
0.819000 0.895782 0.798035
0.847107 0.893555 0.765350
0.893738 0.898926 0.717987
0.138336 0.230438 0.375580
0.188629 0.246429 0.389496
0.241180 0.261597 0.395874
0.284668 0.257690 0.378601
0.327881 0.251678 0.343872
0.403717 0.299927 0.376495
0.484680 0.358337 0.434906
0.562775 0.411835 0.496582
0.642914 0.458893 0.553650
0.143890 0.283173 0.408844
0.221029 0.312632 0.431261
0.276316 0.332102 0.443481
0.331638 0.345028 0.441315
0.378947 0.338142 0.415388
0.443024 0.367167 0.426958
0.524831 0.417304 0.479635
0.602919 0.462511 0.534936
0.683868 0.507080 0.590790
0.156219 0.342621 0.441559
0.241669 0.376723 0.472880
0.320390 0.404814 0.494828
0.381895 0.423665 0.501770
0.435769 0.429713 0.491177
0.487870 0.439965 0.486813
0.567970 0.475981 0.526908
0.646895 0.520304 0.581936
0.725769 0.552582 0.629028
0.203339 0.415070 0.493469
0.282016 0.444539 0.520094
0.350056 0.470883 0.539899
0.420665 0.497835 0.558854
0.487967 0.517020 0.560235
0.539445 0.521084 0.555521
0.613303 0.542696 0.583392
0.695211 0.577301 0.630103
0.775116 0.603790 0.667419
0.264099 0.495361 0.552277
0.333157 0.522071 0.575443
0.386523 0.541059 0.589759
0.455818 0.566984 0.611978
0.528559 0.592282 0.627255
0.592980 0.603839 0.629691
0.658950 0.612716 0.642373
0.746358 0.634752 0.675992
0.828033 0.645416 0.696228
0.353760 0.586365 0.606140
0.396603 0.603855 0.624705
0.436346 0.619135 0.638173
0.493692 0.641959 0.663163
0.556955 0.665913 0.688338
0.630574 0.685208 0.700757
0.699748 0.689898 0.700565
0.793210 0.697978 0.714142
0.873352 0.700562 0.717773
0.426880 0.664337 0.650726
0.467400 0.679487 0.663991
0.503167 0.692318 0.675494
0.551783 0.713228 0.697759
0.604876 0.737389 0.723952
0.670543 0.764754 0.751348
0.737511 0.771764 0.753879
0.826813 0.777001 0.745473
0.908722 0.782318 0.742401
0.493073 0.729370 0.687439
0.535550 0.745511 0.703200
0.580543 0.764432 0.721775
0.625844 0.784966 0.742517
0.674201 0.811079 0.768517
0.732388 0.842183 0.800486
0.789347 0.862518 0.814033
0.844350 0.860490 0.790209
0.924255 0.865784 0.762054
0.553802 0.787384 0.727966
0.598297 0.808289 0.748962
0.642822 0.830261 0.769928
0.686310 0.849365 0.790344
0.732452 0.873810 0.814148
0.788696 0.901520 0.844635
0.844818 0.924713 0.866974
0.879486 0.927032 0.851990
0.907166 0.925232 0.809692
0.175812 0.273621 0.448730
0.225555 0.291565 0.462830
0.278076 0.310303 0.475067
0.327759 0.318085 0.471954
0.377045 0.310486 0.446716
0.421906 0.326233 0.437469
0.492371 0.379486 0.484436
0.568604 0.438477 0.543182
0.641144 0.488495 0.595367
0.191437 0.326111 0.479706
0.257348 0.355530 0.505446
0.311462 0.376604 0.521030
0.366119 0.394094 0.526510
0.418718 0.394301 0.511766
0.466868 0.400886 0.497263
0.530501 0.441535 0.528436
0.602929 0.491597 0.578915
0.678528 0.545074 0.635590
0.208984 0.385925 0.516479
0.292121 0.420197 0.550293
0.359582 0.447364 0.572086
0.413191 0.468011 0.583089
0.470676 0.483480 0.581041
0.519297 0.483514 0.566508
0.573140 0.508901 0.579380
0.641981 0.551497 0.623023
0.716522 0.597321 0.676208
0.255005 0.454132 0.567505
0.334690 0.489193 0.598195
0.405701 0.518351 0.623101
0.468828 0.542426 0.641120
0.525896 0.564005 0.647895
0.577952 0.572744 0.640947
0.621192 0.581377 0.639109
0.686693 0.613186 0.672621
0.759583 0.651978 0.720032
0.316376 0.533112 0.627411
0.380724 0.560771 0.649180
0.447374 0.586558 0.671794
0.508921 0.609968 0.689775
0.572859 0.635162 0.705366
0.632802 0.657199 0.708442
0.674174 0.659471 0.705784
0.733849 0.676517 0.726861
0.807190 0.703430 0.763916
0.381042 0.617126 0.678162
0.427497 0.634410 0.695391
0.484239 0.656172 0.716404
0.537947 0.676632 0.736213
0.600142 0.699795 0.754344
0.669800 0.725359 0.769823
0.725603 0.735667 0.772966
0.780304 0.742747 0.781453
0.851410 0.753143 0.802246
0.440277 0.687653 0.711761
0.483507 0.704230 0.728166
0.530009 0.723423 0.748192
0.576840 0.743127 0.768368
0.628553 0.765957 0.791741
0.689985 0.790863 0.818125
0.760606 0.810255 0.832089
0.820652 0.815708 0.833160
0.889954 0.813446 0.834106
0.496704 0.745880 0.735931
0.540317 0.762424 0.752852
0.584395 0.780951 0.770606
0.629215 0.800300 0.790388
0.677656 0.823422 0.814491
0.731652 0.849840 0.842767
0.796343 0.878608 0.871413
0.855693 0.887078 0.876339
0.918915 0.887634 0.863770
0.559265 0.794067 0.762268
0.604187 0.813782 0.781067
0.650635 0.834229 0.799072
0.693817 0.852997 0.819885
0.740143 0.877441 0.845673
0.787811 0.902374 0.872650
0.849152 0.932800 0.908752
0.902405 0.952850 0.925751
0.927673 0.952301 0.902985
0.214996 0.317719 0.516418
0.261841 0.335541 0.530945
0.315887 0.356659 0.546936
0.367218 0.371155 0.553345
0.413605 0.367706 0.537750
0.465790 0.376251 0.527191
0.521790 0.414429 0.550049
0.584137 0.459991 0.594452
0.651550 0.505493 0.640228
0.230560 0.371460 0.551025
0.287323 0.395752 0.571991
0.343750 0.418427 0.590302
0.396912 0.437988 0.603027
0.450195 0.446198 0.596863
0.506439 0.449799 0.584198
0.562073 0.479187 0.601166
0.621155 0.518890 0.634705
0.683472 0.559357 0.675751
0.261353 0.427765 0.589905
0.330597 0.457458 0.618744
0.391571 0.484711 0.640900
0.441498 0.505829 0.654816
0.498535 0.524170 0.659515
0.553223 0.531525 0.650879
0.607727 0.550323 0.653900
0.659729 0.580200 0.679260
0.718536 0.614319 0.713257
0.312836 0.496887 0.643646
0.388519 0.532288 0.674316
0.454926 0.562958 0.698853
0.508911 0.585510 0.715332
0.558838 0.606110 0.726074
0.613953 0.625763 0.726685
0.661285 0.628967 0.721558
0.703430 0.645233 0.729034
0.755432 0.669403 0.754272
0.371155 0.576141 0.701538
0.443420 0.609375 0.729218
0.507996 0.637390 0.753357
0.562561 0.657715 0.769501
0.616852 0.681885 0.784302
0.668945 0.706390 0.792358
0.713379 0.709900 0.787811
0.749603 0.712372 0.783447
0.800476 0.730316 0.801575
0.417084 0.651581 0.751099
0.478729 0.677551 0.774536
0.536438 0.700012 0.794128
0.589142 0.718109 0.808807
0.645477 0.738403 0.821594
0.708344 0.765106 0.838745
0.762665 0.784912 0.842926
0.794952 0.780334 0.837372
0.839813 0.785492 0.847717
0.457916 0.715210 0.779083
0.510895 0.738556 0.801819
0.559692 0.757904 0.821259
0.607849 0.775177 0.837830
0.657379 0.792786 0.854614
0.721252 0.816528 0.872986
0.789978 0.842773 0.889740
0.839111 0.845276 0.892120
0.878998 0.846100 0.893005
0.503052 0.767853 0.793823
0.551331 0.789093 0.815338
0.597076 0.808929 0.836334
0.642853 0.828156 0.855377
0.689514 0.847107 0.874847
0.742706 0.869293 0.897736
0.811737 0.895935 0.926880
0.875244 0.912903 0.942749
0.916229 0.910797 0.941528
0.552185 0.808777 0.806885
0.599304 0.829224 0.826111
0.645325 0.849701 0.845062
0.690796 0.868164 0.863678
0.739594 0.890625 0.887970
0.788330 0.911530 0.912964
0.848724 0.938446 0.943451
0.911255 0.964752 0.968872
0.948761 0.973724 0.976898
