public/LUTs/X-6370-STD.cube
# Copyright: (C) Copyright 2010-2021 by IWLTBAP SAS
# Cannot be resold, shared or otherwise redistributed
# Website: https://luts.iwltbap.com
TITLE "IWLTBAP 6370 (Rec.709, sRGB, DCI-P3)"
LUT_3D_SIZE 5
0.002289 0.025574 0.038483
0.128571 0.040466 0.033234
0.353607 0.072327 0.032410
0.564331 0.087402 0.039398
0.760254 0.124664 0.063873
0.013794 0.211395 0.128387
0.243256 0.183838 0.063049
0.461884 0.218689 0.028961
0.651550 0.248718 0.043579
0.827820 0.306274 0.072845
0.236084 0.449585 0.240509
0.301941 0.431610 0.213226
0.583557 0.417206 0.083221
0.744385 0.447052 0.057556
0.917114 0.476288 0.078186
0.410400 0.611053 0.399078
0.450958 0.596680 0.384155
0.514008 0.574127 0.319611
0.782440 0.640076 0.179901
0.957520 0.656860 0.117279
0.543365 0.763580 0.533752
0.582123 0.757263 0.528870
0.628693 0.755402 0.524567
0.676239 0.734497 0.465729
0.872467 0.789307 0.271912
0.002228 0.050446 0.062378
0.097595 0.069336 0.090424
0.355804 0.030884 0.114563
0.562866 0.046051 0.142822
0.754669 0.068115 0.191833
0.012909 0.230286 0.178986
0.209370 0.262712 0.230456
0.448447 0.254080 0.201222
0.650258 0.274646 0.206805
0.850952 0.295929 0.193146
0.249146 0.482452 0.347504
0.319094 0.473186 0.356334
0.522583 0.453823 0.293247
0.731711 0.481284 0.255913
0.933777 0.507660 0.246246
0.435699 0.647644 0.503265
0.494920 0.656857 0.502673
0.553630 0.643644 0.467118
0.757502 0.663666 0.364787
0.958710 0.705536 0.324890
0.584473 0.800446 0.625244
0.639435 0.811676 0.638367
0.682220 0.809235 0.635468
0.727203 0.793640 0.595917
0.879639 0.832214 0.453705
0.049286 0.137390 0.199585
0.143188 0.141815 0.188782
0.325500 0.189453 0.226135
0.516144 0.215210 0.311768
0.712158 0.225739 0.384918
0.058838 0.255768 0.274384
0.239936 0.318410 0.333268
0.397376 0.338135 0.352390
0.606984 0.339007 0.391919
0.804260 0.363220 0.441742
0.225281 0.471191 0.429565
0.330861 0.503937 0.471281
0.480996 0.524658 0.489317
0.705222 0.520116 0.466815
0.899506 0.553253 0.495453
0.402374 0.637512 0.560516
0.497070 0.678483 0.592736
0.598229 0.712986 0.622587
0.739123 0.709588 0.563274
0.951263 0.751404 0.537323
0.570007 0.796814 0.678406
0.658691 0.838745 0.720490
0.734009 0.863495 0.745819
0.786102 0.863678 0.727448
0.889618 0.875183 0.631256
0.138336 0.230438 0.375580
0.241180 0.261597 0.395874
0.327881 0.251678 0.343872
0.484680 0.358337 0.434906
0.642914 0.458893 0.553650
0.156219 0.342621 0.441559
0.320390 0.404814 0.494828
0.435769 0.429713 0.491177
0.567970 0.475981 0.526908
0.725769 0.552582 0.629028
0.264099 0.495361 0.552277
0.386523 0.541059 0.589759
0.528559 0.592282 0.627255
0.658950 0.612716 0.642373
0.828033 0.645416 0.696228
0.426880 0.664337 0.650726
0.503167 0.692318 0.675494
0.604876 0.737389 0.723952
0.737511 0.771764 0.753879
0.908722 0.782318 0.742401
0.553802 0.787384 0.727966
0.642822 0.830261 0.769928
0.732452 0.873810 0.814148
0.844818 0.924713 0.866974
0.907166 0.925232 0.809692
0.214996 0.317719 0.516418
0.315887 0.356659 0.546936
0.413605 0.367706 0.537750
0.521790 0.414429 0.550049
0.651550 0.505493 0.640228
0.261353 0.427765 0.589905
0.391571 0.484711 0.640900
0.498535 0.524170 0.659515
0.607727 0.550323 0.653900
0.718536 0.614319 0.713257
0.371155 0.576141 0.701538
0.507996 0.637390 0.753357
0.616852 0.681885 0.784302
0.713379 0.709900 0.787811
0.800476 0.730316 0.801575
0.457916 0.715210 0.779083
0.559692 0.757904 0.821259
0.657379 0.792786 0.854614
0.789978 0.842773 0.889740
0.878998 0.846100 0.893005
0.552185 0.808777 0.806885
0.645325 0.849701 0.845062
0.739594 0.890625 0.887970
0.848724 0.938446 0.943451
0.948761 0.973724 0.976898
