public/LUTs/X-7080-STD.cube
# Copyright: (C) Copyright 2010-2021 by IWLTBAP SAS
# Cannot be resold, shared or otherwise redistributed
# Website: https://luts.iwltbap.com
TITLE "IWLTBAP 7080 (Rec.709, sRGB, DCI-P3)"
LUT_3D_SIZE 33
0.043274 0.056824 0.046173
0.056183 0.056213 0.044006
0.068390 0.055573 0.041016
0.082886 0.054291 0.037872
0.104156 0.053009 0.037079
0.128113 0.050354 0.035492
0.154388 0.047607 0.033905
0.183075 0.043274 0.031555
0.213318 0.039429 0.029175
0.245270 0.034698 0.028381
0.277954 0.030762 0.027618
0.311218 0.027618 0.027618
0.344788 0.026031 0.029175
0.378937 0.024445 0.030762
0.413483 0.023651 0.033112
0.448578 0.022888 0.034698
0.484131 0.023651 0.036285
0.519989 0.023651 0.038635
0.555847 0.024445 0.040222
0.591400 0.025238 0.041779
0.626526 0.026031 0.043274
0.660797 0.027618 0.044739
0.694000 0.028381 0.045471
0.726105 0.029175 0.046173
0.757111 0.029968 0.046906
0.787048 0.030762 0.048309
0.816010 0.031555 0.048981
0.844177 0.032349 0.049683
0.871521 0.033142 0.051025
0.898163 0.033905 0.051025
0.924347 0.034698 0.051697
0.950012 0.035492 0.053009
0.975037 0.035492 0.053009
0.041779 0.079102 0.048981
0.055573 0.077148 0.047607
0.068390 0.075653 0.045441
0.083801 0.073639 0.043243
0.106415 0.072083 0.041748
0.130890 0.069458 0.039429
0.156677 0.065643 0.036285
0.185211 0.061035 0.033142
0.215332 0.056183 0.030762
0.246979 0.051666 0.028381
0.279724 0.046875 0.026825
0.313080 0.042511 0.026825
0.346649 0.040222 0.027618
0.380707 0.038635 0.028381
0.415131 0.037048 0.029968
0.450134 0.036255 0.032349
0.485413 0.036255 0.033905
0.521240 0.036255 0.036285
0.556824 0.036255 0.037872
0.592346 0.037048 0.039429
0.627167 0.037842 0.041016
0.661285 0.039429 0.041779
0.694397 0.040222 0.043274
0.726227 0.041748 0.044739
0.757111 0.042511 0.045471
0.786926 0.044006 0.046173
0.815765 0.044739 0.047607
0.843903 0.045441 0.048309
0.871185 0.046875 0.048981
0.897888 0.048279 0.049683
0.924011 0.048981 0.050354
0.949646 0.049652 0.051697
0.974792 0.051025 0.052368
0.039429 0.101074 0.051666
0.053650 0.099518 0.051025
0.064514 0.096313 0.049652
0.080048 0.093842 0.047577
0.103760 0.092163 0.046173
0.130280 0.090027 0.044006
0.156677 0.086517 0.040222
0.184784 0.082397 0.037048
0.214783 0.077637 0.033905
0.246521 0.072083 0.030762
0.279572 0.066742 0.028381
0.313324 0.062225 0.026825
0.347595 0.058044 0.026825
0.381989 0.054932 0.026825
0.416718 0.052979 0.028381
0.451721 0.051666 0.029968
0.487000 0.051025 0.031555
0.522552 0.050354 0.033905
0.558197 0.050354 0.035492
0.593475 0.051025 0.037079
0.628174 0.051025 0.038635
0.662170 0.052338 0.040222
0.695129 0.053650 0.041016
0.726837 0.054932 0.042511
0.757507 0.055573 0.043274
0.787170 0.056824 0.044739
0.815979 0.058655 0.045471
0.843994 0.059845 0.046173
0.871185 0.061035 0.047607
0.897827 0.062225 0.048309
0.923889 0.063385 0.048981
0.949463 0.064514 0.050354
0.974518 0.065643 0.051025
0.037079 0.124329 0.054291
0.052338 0.122711 0.053650
0.061646 0.119080 0.052979
0.074158 0.115356 0.051666
0.097534 0.113251 0.051025
0.124969 0.111145 0.048981
0.153076 0.108612 0.045441
0.181976 0.105652 0.041748
0.211670 0.101868 0.038635
0.243408 0.096313 0.034698
0.276886 0.090881 0.031525
0.311676 0.085602 0.029175
0.346771 0.080536 0.027618
0.382172 0.076660 0.026825
0.417633 0.073120 0.027618
0.453003 0.070526 0.028381
0.488556 0.068939 0.029968
0.524170 0.067291 0.031555
0.559723 0.066742 0.033142
0.594910 0.066193 0.034698
0.629578 0.066742 0.036285
0.663452 0.067291 0.037872
0.696167 0.067841 0.038635
0.727814 0.068939 0.040222
0.758270 0.070007 0.041779
0.787842 0.071564 0.042511
0.816498 0.073120 0.043274
0.844360 0.074158 0.044739
0.871582 0.075653 0.045471
0.898010 0.077148 0.046173
0.923950 0.078613 0.047607
0.949463 0.080048 0.048309
0.974487 0.081482 0.048981
0.034698 0.147797 0.056213
0.051666 0.146973 0.056213
0.060455 0.143127 0.056824
0.070526 0.138580 0.056824
0.091736 0.135956 0.056183
0.115356 0.132996 0.054291
0.144226 0.131195 0.051025
0.175110 0.129974 0.047577
0.206268 0.127472 0.044006
0.238312 0.123688 0.040985
0.271667 0.118408 0.037048
0.307037 0.113251 0.033905
0.343536 0.107513 0.031525
0.380341 0.102234 0.029175
0.417145 0.097931 0.028381
0.453583 0.094238 0.027618
0.489899 0.090881 0.028381
0.525787 0.088715 0.029968
0.561462 0.086517 0.030762
0.596680 0.085602 0.032349
0.631317 0.085175 0.033905
0.665009 0.085175 0.035492
0.697693 0.085602 0.037079
0.729126 0.086060 0.038635
0.759521 0.086945 0.039429
0.788940 0.087830 0.040222
0.817413 0.089142 0.041779
0.845154 0.090881 0.042511
0.872192 0.092163 0.043274
0.898468 0.093842 0.044006
0.924347 0.095093 0.045471
0.949829 0.096710 0.046173
0.974609 0.098328 0.047607
0.032349 0.171936 0.058075
0.050354 0.171234 0.058075
0.061646 0.167969 0.059265
0.071045 0.163635 0.060455
0.086945 0.160217 0.061646
0.109344 0.157715 0.061035
0.133911 0.154907 0.058044
0.163879 0.153351 0.053650
0.196350 0.152557 0.049652
0.230103 0.151245 0.046173
0.264801 0.148590 0.044006
0.300110 0.144226 0.040985
0.337158 0.138885 0.037842
0.375183 0.133301 0.034698
0.413818 0.128113 0.031525
0.452087 0.123016 0.029968
0.489624 0.118408 0.029175
0.526581 0.114990 0.029175
0.562805 0.112213 0.029968
0.598206 0.109711 0.031555
0.632935 0.108246 0.032349
0.666748 0.107513 0.033905
0.699280 0.107147 0.034698
0.730621 0.107147 0.036285
0.761047 0.107147 0.037079
0.790253 0.107880 0.038635
0.818604 0.108978 0.039429
0.846252 0.109711 0.040222
0.873108 0.110779 0.041016
0.899353 0.112549 0.042511
0.925049 0.113953 0.043274
0.950378 0.115356 0.044006
0.974487 0.117401 0.045471
0.031555 0.196960 0.060455
0.048279 0.196350 0.060455
0.064514 0.194550 0.061646
0.073639 0.190033 0.063934
0.084259 0.184998 0.066193
0.105652 0.182861 0.067291
0.128113 0.180695 0.066193
0.153351 0.178253 0.061646
0.184143 0.176910 0.055573
0.218536 0.176697 0.051025
0.255341 0.176239 0.048279
0.292480 0.174683 0.046875
0.330322 0.171234 0.045441
0.368713 0.166534 0.041748
0.408173 0.161194 0.038635
0.447876 0.155914 0.034698
0.487183 0.150452 0.031525
0.525421 0.145874 0.030731
0.562744 0.141998 0.029968
0.598907 0.138885 0.030762
0.633942 0.136841 0.031555
0.667847 0.134796 0.033142
0.700562 0.133606 0.033905
0.731934 0.132996 0.034698
0.762238 0.132385 0.036285
0.791443 0.132385 0.037079
0.819763 0.132690 0.037872
0.847290 0.132996 0.038635
0.874084 0.133606 0.039429
0.900208 0.134491 0.041016
0.925842 0.135681 0.041779
0.950958 0.136841 0.042511
0.974487 0.138580 0.044006
0.030762 0.223114 0.062805
0.047577 0.222595 0.062805
0.066193 0.221558 0.063385
0.078125 0.217834 0.066193
0.085175 0.212036 0.069458
0.102997 0.209076 0.072083
0.124969 0.207031 0.073120
0.148041 0.205322 0.071564
0.173767 0.203033 0.065063
0.205902 0.201660 0.056824
0.243073 0.202240 0.051697
0.282379 0.202637 0.050354
0.322632 0.202454 0.050354
0.361908 0.199921 0.048981
0.401398 0.196136 0.046875
0.441620 0.191284 0.042511
0.482056 0.186066 0.038635
0.521881 0.180908 0.034698
0.560699 0.176239 0.033112
0.598175 0.172150 0.032318
0.633942 0.169128 0.032349
0.668365 0.166779 0.032349
0.701324 0.164856 0.033905
0.732849 0.163391 0.033905
0.763123 0.162170 0.035492
0.792419 0.161438 0.036285
0.820679 0.160950 0.037079
0.848145 0.160706 0.037872
0.874847 0.160950 0.038635
0.900970 0.160950 0.039429
0.926544 0.161438 0.040222
0.951660 0.162170 0.041016
0.974518 0.163879 0.042511
0.029968 0.250671 0.065643
0.046875 0.250061 0.065643
0.065643 0.249146 0.066193
0.082397 0.247131 0.067841
0.090454 0.241669 0.072083
0.101868 0.236847 0.076660
0.122711 0.234741 0.079102
0.145599 0.232758 0.079559
0.169128 0.231445 0.077148
0.196136 0.229248 0.068390
0.229095 0.227570 0.058075
0.270142 0.228912 0.051697
0.311676 0.230438 0.051025
0.353821 0.231262 0.052338
0.395508 0.230103 0.052979
0.435394 0.227051 0.051025
0.475922 0.222931 0.046875
0.516479 0.218201 0.042511
0.556458 0.213684 0.038635
0.595276 0.209076 0.035492
0.632385 0.205505 0.033905
0.667633 0.202454 0.033905
0.701111 0.199921 0.033905
0.733032 0.198151 0.034698
0.763428 0.196564 0.035492
0.792786 0.195343 0.036285
0.821075 0.194153 0.037079
0.848633 0.193542 0.037079
0.875366 0.192932 0.037872
0.901398 0.192505 0.038635
0.927002 0.192108 0.039429
0.952026 0.192322 0.040222
0.974487 0.193726 0.041016
0.029175 0.279449 0.068939
0.046173 0.279053 0.068390
0.064514 0.278229 0.068939
0.083801 0.276886 0.070007
0.097534 0.273468 0.073120
0.104523 0.267639 0.079559
0.120728 0.264069 0.084259
0.143677 0.262054 0.086517
0.167480 0.260315 0.086945
0.191681 0.259308 0.083344
0.220490 0.257263 0.072083
0.255035 0.255341 0.058075
0.299744 0.257385 0.051025
0.342896 0.259460 0.051025
0.386383 0.260925 0.054291
0.429565 0.261200 0.056183
0.470551 0.259460 0.054932
0.510803 0.256226 0.051666
0.550964 0.252472 0.046875
0.590546 0.248535 0.042511
0.628815 0.244812 0.039429
0.665100 0.241364 0.037048
0.699432 0.238464 0.036255
0.731995 0.236206 0.035492
0.762848 0.234253 0.036285
0.792480 0.232758 0.036285
0.820831 0.231445 0.037079
0.848419 0.230255 0.037079
0.875244 0.229248 0.037872
0.901276 0.228424 0.038635
0.926758 0.227753 0.039429
0.951843 0.227386 0.040222
0.974304 0.228241 0.041016
0.028381 0.310028 0.072601
0.045441 0.309662 0.071594
0.062805 0.308838 0.072083
0.082397 0.307770 0.073120
0.101868 0.306091 0.075165
0.110779 0.301239 0.080994
0.121735 0.296021 0.088287
0.141998 0.293243 0.092590
0.166046 0.291595 0.095490
0.190460 0.290192 0.095490
0.216034 0.289154 0.091309
0.247131 0.287476 0.076172
0.284882 0.285797 0.058655
0.330780 0.287354 0.050354
0.375763 0.290192 0.051025
0.420258 0.292114 0.054932
0.464325 0.293365 0.058075
0.506104 0.292999 0.058044
0.546112 0.291077 0.056183
0.585266 0.288269 0.051666
0.623718 0.285278 0.046875
0.660828 0.282104 0.043243
0.696045 0.279175 0.040222
0.729370 0.276764 0.038635
0.760895 0.274567 0.037842
0.790955 0.272644 0.037872
0.819763 0.270996 0.037872
0.847412 0.269867 0.037872
0.874237 0.268616 0.038635
0.900391 0.267639 0.039429
0.925903 0.266785 0.039429
0.950867 0.266205 0.040222
0.973755 0.266785 0.041016
0.027618 0.342163 0.077637
0.044006 0.341736 0.076172
0.061646 0.341217 0.075653
0.080536 0.340149 0.076660
0.101868 0.339081 0.078125
0.117401 0.336212 0.082397
0.126862 0.331207 0.090881
0.140869 0.326782 0.098724
0.164612 0.325012 0.102234
0.189636 0.323425 0.104919
0.215332 0.321960 0.105652
0.242462 0.321289 0.100311
0.275787 0.320038 0.080994
0.316345 0.318420 0.059875
0.363281 0.319336 0.049683
0.409851 0.322296 0.049683
0.455139 0.324768 0.054291
0.499420 0.326691 0.059265
0.541595 0.327362 0.061035
0.581421 0.326782 0.059845
0.619354 0.325012 0.056183
0.656189 0.322876 0.051666
0.691681 0.320374 0.047577
0.725342 0.318085 0.044006
0.757538 0.315765 0.041748
0.788055 0.313782 0.040222
0.817383 0.312042 0.040222
0.845337 0.310486 0.040222
0.872406 0.309418 0.040222
0.898621 0.308350 0.040222
0.924225 0.307526 0.041016
0.949280 0.306793 0.041016
0.972961 0.307159 0.041779
0.026825 0.375763 0.082397
0.042511 0.375397 0.081024
0.059845 0.374725 0.080536
0.079102 0.373962 0.080994
0.099915 0.373016 0.082397
0.120728 0.371490 0.084717
0.134491 0.368042 0.091736
0.145050 0.363281 0.102234
0.163147 0.360046 0.109344
0.188812 0.358551 0.113251
0.214966 0.356934 0.116028
0.242126 0.355957 0.116730
0.270721 0.355347 0.110077
0.306213 0.354218 0.086945
0.349121 0.352722 0.061646
0.396484 0.353027 0.048309
0.444916 0.355957 0.047607
0.490479 0.358551 0.053009
0.534454 0.360626 0.058655
0.576904 0.362396 0.062225
0.616089 0.362488 0.062225
0.653168 0.362000 0.059845
0.687988 0.360443 0.056183
0.721436 0.358734 0.052338
0.753540 0.356934 0.048981
0.784332 0.355133 0.046173
0.813904 0.353333 0.044006
0.842346 0.351685 0.042511
0.869629 0.350372 0.041779
0.896088 0.349243 0.041779
0.921722 0.348206 0.041779
0.946960 0.347595 0.042511
0.971252 0.347473 0.042511
0.026031 0.410461 0.087402
0.040985 0.410034 0.086090
0.057434 0.409424 0.085632
0.076172 0.408752 0.085602
0.097107 0.407898 0.086945
0.120728 0.406982 0.088287
0.140015 0.404999 0.092987
0.152832 0.401398 0.102997
0.164124 0.396851 0.114990
0.187317 0.394806 0.120422
0.214417 0.393494 0.124634
0.242126 0.392242 0.128113
0.270996 0.391449 0.128418
0.300598 0.390900 0.120728
0.338013 0.389923 0.093414
0.382538 0.388367 0.063934
0.430420 0.388031 0.047607
0.480377 0.390533 0.045471
0.526001 0.393219 0.051025
0.569336 0.395355 0.057434
0.610657 0.397095 0.062225
0.649567 0.398346 0.063385
0.685486 0.398499 0.062225
0.718781 0.397888 0.059845
0.750458 0.396759 0.056183
0.780823 0.395508 0.052979
0.810242 0.394012 0.049652
0.838715 0.392609 0.047577
0.866180 0.391266 0.046173
0.892792 0.389923 0.044739
0.918762 0.388824 0.044006
0.943970 0.388031 0.044006
0.968536 0.387665 0.044006
0.024445 0.446075 0.093414
0.039429 0.445526 0.091736
0.055573 0.445160 0.090912
0.074158 0.444550 0.090881
0.094238 0.443695 0.091736
0.118073 0.442932 0.093414
0.142273 0.441864 0.095490
0.160217 0.439606 0.103394
0.172150 0.435944 0.116028
0.187531 0.432556 0.127472
0.213318 0.431000 0.132690
0.241821 0.429779 0.137146
0.271118 0.428680 0.140869
0.301239 0.427887 0.141144
0.331879 0.427643 0.132385
0.371033 0.426819 0.100677
0.416870 0.425140 0.066193
0.465759 0.424255 0.046906
0.515900 0.426025 0.043274
0.561218 0.428284 0.048309
0.603638 0.430359 0.054932
0.643555 0.432007 0.061066
0.681030 0.433685 0.063385
0.715790 0.434540 0.063385
0.748474 0.434937 0.061646
0.778564 0.434235 0.058655
0.807617 0.433350 0.056183
0.835754 0.432343 0.053650
0.862915 0.431213 0.051025
0.889343 0.430176 0.048981
0.915344 0.429230 0.047577
0.940704 0.428284 0.046875
0.965515 0.427643 0.046173
0.023651 0.482269 0.099915
0.037048 0.481720 0.098328
0.053650 0.481293 0.096741
0.072083 0.480743 0.096313
0.091736 0.480103 0.097107
0.115356 0.479340 0.098328
0.140869 0.478577 0.100311
0.164368 0.477325 0.104523
0.180237 0.474884 0.115692
0.192719 0.471558 0.130585
0.212952 0.469208 0.140289
0.241180 0.467926 0.145325
0.270996 0.466766 0.150208
0.301727 0.465759 0.154114
0.332855 0.465027 0.153870
0.364075 0.464905 0.144226
0.404663 0.464081 0.107880
0.451874 0.462341 0.069458
0.501251 0.461029 0.046906
0.551086 0.461700 0.041016
0.595642 0.463654 0.044739
0.636871 0.465454 0.051697
0.675049 0.467041 0.058075
0.710754 0.468567 0.062225
0.744324 0.469849 0.063385
0.776184 0.470917 0.062805
0.805420 0.470825 0.060486
0.833618 0.470551 0.058655
0.860535 0.469910 0.056183
0.886658 0.469269 0.053650
0.912354 0.468475 0.051666
0.937683 0.467773 0.050354
0.962494 0.467041 0.048981
0.022888 0.518860 0.105682
0.035492 0.518372 0.104553
0.051025 0.517853 0.103027
0.069458 0.517365 0.101868
0.089600 0.516785 0.102631
0.112549 0.516083 0.103760
0.138000 0.515381 0.105652
0.164856 0.514557 0.107880
0.186279 0.513031 0.116028
0.201660 0.510742 0.129974
0.216400 0.508026 0.145325
0.240875 0.506348 0.153595
0.270721 0.505249 0.158722
0.301727 0.504059 0.163879
0.333710 0.502899 0.167725
0.365417 0.502289 0.167236
0.396942 0.502167 0.155396
0.438599 0.501312 0.114990
0.486603 0.499603 0.072601
0.536194 0.497864 0.046906
0.585114 0.497345 0.039429
0.628906 0.498993 0.041779
0.668610 0.500519 0.048309
0.705261 0.501953 0.054932
0.739349 0.503265 0.059875
0.771484 0.504517 0.061646
0.801941 0.505676 0.062225
0.830933 0.506409 0.061066
0.858643 0.507050 0.059875
0.884766 0.506866 0.057434
0.910339 0.506470 0.055573
0.935333 0.505951 0.054291
0.960022 0.505554 0.052979
0.022095 0.555359 0.112579
0.033905 0.554840 0.111145
0.048981 0.554382 0.109344
0.066742 0.553864 0.107910
0.086945 0.553345 0.108276
0.109711 0.552704 0.109344
0.135071 0.552124 0.111145
0.162659 0.551300 0.113251
0.188812 0.550385 0.117737
0.208710 0.548798 0.129333
0.223969 0.546692 0.145599
0.242310 0.544617 0.160461
0.270569 0.543304 0.167236
0.301605 0.542175 0.172394
0.333832 0.540802 0.177826
0.366394 0.539734 0.181763
0.398499 0.539001 0.180237
0.430267 0.538940 0.165833
0.472626 0.538177 0.121063
0.520874 0.536530 0.075165
0.570068 0.534302 0.047607
0.617310 0.532806 0.037872
0.660797 0.534027 0.039429
0.698975 0.535339 0.044739
0.734161 0.536499 0.051025
0.766907 0.537750 0.056213
0.797852 0.539032 0.059265
0.827240 0.540100 0.060486
0.855530 0.541107 0.060486
0.882629 0.542114 0.059265
0.908569 0.542603 0.058075
0.933807 0.542877 0.056824
0.958374 0.542633 0.055573
0.021301 0.591614 0.118774
0.032318 0.591064 0.117737
0.046875 0.590607 0.116058
0.064514 0.589966 0.114319
0.084259 0.589478 0.113983
0.106781 0.588928 0.115356
0.132111 0.588226 0.116730
0.159698 0.587585 0.118744
0.188812 0.586731 0.121063
0.213684 0.585754 0.129028
0.232086 0.584320 0.144226
0.248535 0.582520 0.162659
0.270844 0.580841 0.175354
0.301605 0.579468 0.180695
0.333710 0.578217 0.186279
0.366608 0.576843 0.191895
0.399719 0.575623 0.195343
0.431793 0.574951 0.192322
0.463867 0.574890 0.174683
0.506348 0.574127 0.126251
0.554321 0.572571 0.078125
0.602539 0.570343 0.048309
0.648315 0.568115 0.036285
0.691223 0.568634 0.036285
0.728058 0.569641 0.041016
0.761963 0.570740 0.046906
0.793762 0.571960 0.051697
0.823822 0.573090 0.056213
0.852356 0.574127 0.058655
0.879700 0.575195 0.058655
0.906250 0.576111 0.058075
0.932007 0.577118 0.057434
0.957153 0.577972 0.056824
0.019714 0.627075 0.125275
0.031525 0.626587 0.124023
0.045441 0.626038 0.122711
0.061646 0.625458 0.121094
0.081482 0.624786 0.119751
0.104156 0.624207 0.120758
0.129333 0.623657 0.122070
0.156952 0.622925 0.124023
0.186493 0.622101 0.126251
0.215515 0.621216 0.130890
0.238464 0.620270 0.143127
0.256500 0.618896 0.161194
0.274841 0.617310 0.179596
0.301727 0.615784 0.189209
0.333832 0.614349 0.194336
0.366608 0.612885 0.200104
0.399994 0.611450 0.205902
0.433197 0.610291 0.208740
0.465118 0.609558 0.204010
0.497223 0.609711 0.182220
0.539551 0.609100 0.130585
0.586884 0.607819 0.080536
0.634155 0.605804 0.048981
0.678680 0.603546 0.036285
0.720062 0.603058 0.034698
0.756470 0.603638 0.038635
0.789429 0.604675 0.043274
0.820343 0.605652 0.048309
0.849670 0.606689 0.052368
0.877380 0.607788 0.054291
0.904175 0.608765 0.055573
0.930298 0.609711 0.056213
0.955688 0.610657 0.055573
0.019714 0.661621 0.132111
0.030731 0.661011 0.130585
0.043243 0.660522 0.129059
0.059845 0.659912 0.127197
0.079102 0.659180 0.125610
0.101074 0.658569 0.126251
0.126556 0.657837 0.127502
0.154388 0.657166 0.129059
0.184143 0.656372 0.131500
0.215149 0.655457 0.134521
0.242767 0.654572 0.142548
0.263519 0.653564 0.159454
0.281708 0.652161 0.179596
0.303436 0.650604 0.195740
0.333923 0.649170 0.202271
0.366791 0.647644 0.207977
0.400177 0.646118 0.214264
0.433838 0.644684 0.219635
0.466919 0.643555 0.221375
0.498291 0.643158 0.214630
0.530426 0.643494 0.188385
0.572418 0.643311 0.133606
0.618591 0.642395 0.082886
0.664368 0.640472 0.051666
0.707886 0.638397 0.037872
0.748535 0.637360 0.034698
0.784698 0.637390 0.036285
0.816895 0.638275 0.040222
0.846924 0.639191 0.044006
0.875366 0.640106 0.048309
0.902649 0.641052 0.051025
0.929199 0.641907 0.052368
0.954834 0.642822 0.053650
0.018921 0.694763 0.138031
0.029968 0.694153 0.136871
0.041748 0.693481 0.135406
0.056824 0.692810 0.133606
0.076172 0.692047 0.131500
0.098328 0.691376 0.131805
0.123688 0.690765 0.133026
0.151520 0.690002 0.134521
0.181549 0.689148 0.136566
0.213501 0.688171 0.138885
0.244507 0.687195 0.144226
0.269165 0.686279 0.157715
0.289154 0.685089 0.177368
0.308228 0.683807 0.197937
0.334381 0.682373 0.210388
0.366974 0.680817 0.215698
0.400330 0.679260 0.221558
0.434143 0.677856 0.227936
0.467834 0.676392 0.233124
0.500397 0.675476 0.233276
0.531158 0.675354 0.223480
0.563110 0.676086 0.192719
0.604675 0.676331 0.136261
0.649475 0.675720 0.086517
0.693970 0.674377 0.054291
0.736633 0.672668 0.037872
0.776672 0.671265 0.032349
0.813110 0.670715 0.033142
0.844421 0.671356 0.037872
0.873627 0.672119 0.041016
0.901611 0.672913 0.044006
0.928619 0.673798 0.046906
0.954620 0.674652 0.048309
0.018921 0.726074 0.144257
0.029175 0.725464 0.142853
0.040985 0.724854 0.141174
0.054932 0.724121 0.139740
0.073120 0.723206 0.138031
0.096313 0.722534 0.137146
0.121063 0.721710 0.138031
0.148865 0.721069 0.139465
0.179138 0.720154 0.141449
0.211121 0.719177 0.143982
0.244019 0.718079 0.147247
0.273346 0.717102 0.156433
0.295532 0.716064 0.175110
0.314972 0.714966 0.196960
0.336853 0.713623 0.215332
0.367462 0.712097 0.223114
0.400787 0.710571 0.228943
0.434540 0.709198 0.235229
0.468567 0.707703 0.241516
0.501984 0.706635 0.245605
0.533905 0.706055 0.243561
0.563843 0.706360 0.230103
0.595581 0.707397 0.195160
0.636536 0.708130 0.137451
0.680054 0.708008 0.087860
0.723328 0.707184 0.055573
0.765106 0.705872 0.038635
0.804718 0.704559 0.032349
0.841064 0.703552 0.031555
0.872009 0.703979 0.035492
0.900970 0.704559 0.038635
0.928558 0.705200 0.041779
0.955109 0.705811 0.043274
0.018921 0.755737 0.149933
0.028381 0.754944 0.148621
0.039429 0.754242 0.147247
0.052979 0.753601 0.145355
0.071045 0.752686 0.143677
0.093842 0.751770 0.142303
0.118408 0.751068 0.142853
0.145874 0.750244 0.144257
0.176483 0.749359 0.145905
0.209076 0.748474 0.148346
0.242767 0.747314 0.151520
0.275269 0.746155 0.157196
0.300598 0.745239 0.172852
0.321960 0.744141 0.193726
0.341431 0.742889 0.216949
0.368439 0.741577 0.230103
0.401398 0.740112 0.235901
0.435242 0.738708 0.242004
0.469269 0.737366 0.248688
0.503021 0.736328 0.254608
0.536011 0.735382 0.257263
0.566986 0.735260 0.251740
0.596252 0.736206 0.234253
0.627625 0.737671 0.195557
0.668030 0.738831 0.137146
0.710571 0.739227 0.088287
0.752747 0.738892 0.056183
0.793762 0.738068 0.037872
0.832947 0.737122 0.031555
0.868378 0.736328 0.031555
0.899902 0.736389 0.033142
0.929016 0.736664 0.036285
0.955811 0.737030 0.038635
0.018158 0.783691 0.155426
0.027588 0.782928 0.154144
0.037842 0.782166 0.152588
0.051666 0.781403 0.151001
0.068939 0.780548 0.149139
0.091309 0.779602 0.147247
0.116028 0.778687 0.147522
0.143677 0.777954 0.148865
0.174225 0.777008 0.150482
0.207031 0.776123 0.152832
0.241180 0.774963 0.155670
0.275787 0.773682 0.159210
0.304626 0.772705 0.171478
0.327789 0.771729 0.191498
0.348511 0.770630 0.214233
0.370148 0.769440 0.235718
0.402252 0.768036 0.242798
0.436035 0.766724 0.248840
0.470123 0.765503 0.255341
0.504150 0.764496 0.261810
0.537628 0.763611 0.266937
0.569733 0.763306 0.267090
0.599731 0.763733 0.258453
0.628113 0.765015 0.236877
0.659576 0.767029 0.194153
0.699402 0.768738 0.135406
0.740906 0.769592 0.087860
0.782166 0.769745 0.055573
0.822296 0.769531 0.037872
0.860657 0.768982 0.031555
0.895508 0.768433 0.030762
0.927307 0.768341 0.032349
0.956390 0.768433 0.034698
0.018158 0.810089 0.160461
0.026794 0.809448 0.159485
0.037048 0.808563 0.157959
0.050354 0.807861 0.156189
0.066742 0.806946 0.154388
0.088715 0.805969 0.152313
0.113617 0.805054 0.152069
0.141144 0.804260 0.153107
0.172150 0.803345 0.154907
0.205139 0.802368 0.156952
0.239594 0.801239 0.159973
0.274994 0.799988 0.162933
0.307770 0.798889 0.170532
0.332855 0.797913 0.189209
0.355133 0.796997 0.211304
0.375275 0.795837 0.236053
0.403290 0.794556 0.249756
0.436981 0.793427 0.255493
0.471191 0.792358 0.261658
0.505371 0.791351 0.268494
0.539215 0.790619 0.274719
0.572083 0.790222 0.278259
0.603241 0.790344 0.275543
0.631897 0.791321 0.262939
0.659912 0.793030 0.236877
0.691406 0.795593 0.190887
0.730499 0.797729 0.132111
0.771027 0.799133 0.085632
0.811432 0.799835 0.054291
0.850525 0.800171 0.036285
0.887909 0.799988 0.030762
0.922546 0.799805 0.030762
0.954620 0.799927 0.032349
0.018158 0.835358 0.165588
0.026001 0.834595 0.164154
0.037048 0.833862 0.162933
0.048981 0.832947 0.161469
0.065063 0.832092 0.159485
0.086517 0.831055 0.157471
0.111481 0.830200 0.156433
0.139160 0.829285 0.157471
0.170074 0.828430 0.158966
0.203613 0.827454 0.160950
0.238159 0.826416 0.163666
0.273895 0.825195 0.167023
0.309418 0.823975 0.171021
0.337067 0.822998 0.187134
0.360626 0.822021 0.208710
0.381989 0.821045 0.232941
0.405762 0.819946 0.253998
0.438293 0.818878 0.261810
0.472412 0.817993 0.267914
0.506683 0.817139 0.274719
0.540771 0.816498 0.281586
0.574249 0.816101 0.287109
0.606171 0.816101 0.288391
