public/LUTs/X-7080-STD.cube
# Copyright: (C) Copyright 2010-2021 by IWLTBAP SAS
# Cannot be resold, shared or otherwise redistributed
# Website: https://luts.iwltbap.com
TITLE "IWLTBAP 7080 (Rec.709, sRGB, DCI-P3)"
LUT_3D_SIZE 9
0.043274 0.056824 0.046173
0.104156 0.053009 0.037079
0.213318 0.039429 0.029175
0.344788 0.026031 0.029175
0.484131 0.023651 0.036285
0.626526 0.026031 0.043274
0.757111 0.029968 0.046906
0.871521 0.033142 0.051025
0.975037 0.035492 0.053009
0.034698 0.147797 0.056213
0.091736 0.135956 0.056183
0.206268 0.127472 0.044006
0.343536 0.107513 0.031525
0.489899 0.090881 0.028381
0.631317 0.085175 0.033905
0.759521 0.086945 0.039429
0.872192 0.092163 0.043274
0.974609 0.098328 0.047607
0.029968 0.250671 0.065643
0.090454 0.241669 0.072083
0.169128 0.231445 0.077148
0.311676 0.230438 0.051025
0.475922 0.222931 0.046875
0.632385 0.205505 0.033905
0.763428 0.196564 0.035492
0.875366 0.192932 0.037872
0.974487 0.193726 0.041016
0.026825 0.375763 0.082397
0.099915 0.373016 0.082397
0.163147 0.360046 0.109344
0.270721 0.355347 0.110077
0.444916 0.355957 0.047607
0.616089 0.362488 0.062225
0.753540 0.356934 0.048981
0.869629 0.350372 0.041779
0.971252 0.347473 0.042511
0.022888 0.518860 0.105682
0.089600 0.516785 0.102631
0.186279 0.513031 0.116028
0.270721 0.505249 0.158722
0.396942 0.502167 0.155396
0.585114 0.497345 0.039429
0.739349 0.503265 0.059875
0.858643 0.507050 0.059875
0.960022 0.505554 0.052979
0.019714 0.661621 0.132111
0.079102 0.659180 0.125610
0.184143 0.656372 0.131500
0.281708 0.652161 0.179596
0.400177 0.646118 0.214264
0.530426 0.643494 0.188385
0.707886 0.638397 0.037872
0.846924 0.639191 0.044006
0.954834 0.642822 0.053650
0.018158 0.783691 0.155426
0.068939 0.780548 0.149139
0.174225 0.777008 0.150482
0.304626 0.772705 0.171478
0.402252 0.768036 0.242798
0.537628 0.763611 0.266937
0.659576 0.767029 0.194153
0.822296 0.769531 0.037872
0.956390 0.768433 0.034698
0.018158 0.882568 0.174469
0.062225 0.879395 0.168671
0.166290 0.875732 0.166779
0.308594 0.871643 0.178040
0.416229 0.867981 0.252472
0.544312 0.865601 0.293762
0.672974 0.866699 0.302948
0.786377 0.877747 0.169861
0.937805 0.888184 0.031555
0.017365 0.970062 0.191284
0.057434 0.967163 0.186066
0.159454 0.964111 0.181122
0.306458 0.960999 0.192108
0.438324 0.958466 0.240723
0.552948 0.958191 0.317627
0.687683 0.960052 0.344696
0.803650 0.967651 0.305725
0.916992 0.984528 0.120758
0.061035 0.054932 0.075653
0.115356 0.062805 0.110077
0.158447 0.075165 0.095490
0.308014 0.051025 0.108978
0.476501 0.023651 0.112549
0.621307 0.025238 0.119080
0.752258 0.029175 0.124969
0.867218 0.032349 0.129333
0.971741 0.035492 0.132690
0.039429 0.138000 0.112213
0.111481 0.141998 0.126862
0.192719 0.126862 0.110779
0.346863 0.090454 0.093842
0.496429 0.067291 0.095093
0.631989 0.072083 0.106415
0.757812 0.081940 0.115356
0.870026 0.089600 0.121735
0.972778 0.097107 0.126862
0.006317 0.242615 0.124634
0.085602 0.245758 0.133606
0.157196 0.228088 0.130280
0.324341 0.223816 0.122711
0.491943 0.195953 0.101868
0.644684 0.174683 0.092987
0.770020 0.170990 0.100311
0.878601 0.174438 0.108246
0.974792 0.181976 0.116028
0.005524 0.369293 0.139435
0.070007 0.371033 0.140594
0.161194 0.363190 0.146698
0.264801 0.351593 0.157196
0.446960 0.354340 0.123016
0.618652 0.358032 0.135071
0.758484 0.347168 0.118073
0.874908 0.337799 0.111481
0.973297 0.336304 0.115692
0.011047 0.515564 0.161926
0.060455 0.514954 0.156952
0.170074 0.512787 0.161438
0.261627 0.502441 0.187134
0.393219 0.498688 0.192719
0.585388 0.495209 0.107513
0.739929 0.502747 0.136841
0.858887 0.506134 0.141449
0.960632 0.504120 0.135376
0.012634 0.659912 0.184357
0.054291 0.658203 0.177826
0.158447 0.655457 0.178925
0.282654 0.650574 0.201874
0.396149 0.643982 0.235718
0.529449 0.641479 0.221710
0.709473 0.637634 0.096710
0.848724 0.639771 0.116730
0.956390 0.643829 0.134186
0.014191 0.782349 0.204163
0.051025 0.779846 0.197540
0.149658 0.776428 0.195557
0.299622 0.772095 0.208344
0.400085 0.767517 0.261353
0.537750 0.764191 0.285278
0.663147 0.768555 0.226379
0.828308 0.772339 0.092163
0.961731 0.772125 0.104156
0.014191 0.881439 0.220490
0.048981 0.878906 0.214233
0.143127 0.875671 0.210571
0.298248 0.872192 0.221710
0.421814 0.869263 0.268463
0.546631 0.868378 0.310394
0.678040 0.870575 0.322327
0.794769 0.882812 0.201477
0.947693 0.894836 0.080048
0.014984 0.969238 0.235229
0.047577 0.967163 0.229584
0.136261 0.964905 0.225189
0.296783 0.962646 0.235229
0.442627 0.960999 0.268768
0.557404 0.962830 0.333740
0.695007 0.966064 0.361420
0.814026 0.974823 0.326019
0.930054 0.990784 0.152039
0.092590 0.063385 0.107147
0.107513 0.075165 0.106781
0.193329 0.080048 0.185425
0.213135 0.127808 0.165588
0.393311 0.104919 0.206085
0.600464 0.043243 0.212585
0.745361 0.029175 0.216766
0.861938 0.031555 0.222412
0.967468 0.034698 0.227570
0.101868 0.129974 0.162659
0.126221 0.130280 0.160217
0.206848 0.147522 0.203979
0.253845 0.153595 0.184143
0.433929 0.125275 0.203613
0.617889 0.081482 0.205505
0.752991 0.079102 0.211121
0.865967 0.087402 0.217834
0.969543 0.095093 0.223633
0.046173 0.233917 0.199524
0.071045 0.230103 0.196136
0.186707 0.238800 0.219421
0.307770 0.220673 0.205688
0.501312 0.170319 0.183502
0.654175 0.143951 0.184570
0.773865 0.150208 0.196960
0.879517 0.161926 0.207031
0.974609 0.174896 0.215515
0.000793 0.364349 0.213501
0.006317 0.362701 0.205139
0.142273 0.368713 0.222931
0.256226 0.351196 0.224335
0.461639 0.353210 0.225189
0.631744 0.339203 0.213501
0.775696 0.316589 0.192719
0.887817 0.306580 0.192932
0.975128 0.315643 0.205688
0.000000 0.510925 0.230255
0.009460 0.510864 0.223450
0.121399 0.512909 0.230255
0.264648 0.505676 0.240540
0.388123 0.495605 0.255615
0.589539 0.494629 0.211121
0.744019 0.503723 0.236359
0.860657 0.503937 0.236847
0.963318 0.500854 0.230255
0.002380 0.657959 0.253845
0.022064 0.657043 0.247284
0.105652 0.655579 0.244019
0.278381 0.651459 0.254883
0.389465 0.642639 0.279968
0.527832 0.640106 0.281982
0.713379 0.637146 0.190857
0.851929 0.641357 0.216034
0.958466 0.645660 0.235229
0.007111 0.781403 0.272644
0.027588 0.779602 0.265076
0.097931 0.777161 0.258148
0.272095 0.773254 0.266632
0.404327 0.768311 0.296631
0.536743 0.765991 0.324097
0.667664 0.770508 0.288910
0.836121 0.776001 0.182648
0.967651 0.776245 0.201477
0.009460 0.880737 0.286957
0.031525 0.878998 0.279297
0.094238 0.877258 0.271667
0.269470 0.874176 0.278778
0.428925 0.871521 0.305603
0.547791 0.872253 0.346039
0.683411 0.875366 0.363495
0.805420 0.888428 0.268188
0.959686 0.902588 0.165100
0.010254 0.968689 0.299255
0.033905 0.967896 0.292480
0.090027 0.967346 0.285126
0.268341 0.965820 0.290955
0.444305 0.964539 0.314362
0.561066 0.968933 0.367767
0.702087 0.973572 0.396057
0.826111 0.982910 0.372559
0.945190 0.992859 0.226379
0.121399 0.083344 0.153351
0.136841 0.090881 0.153870
0.161438 0.112213 0.154114
0.299500 0.099915 0.288635
0.289703 0.188385 0.239441
0.453827 0.186920 0.307037
0.671631 0.117737 0.334381
0.842865 0.051666 0.337708
0.961426 0.035492 0.342377
0.140289 0.133301 0.208344
0.157440 0.134796 0.206635
0.184143 0.146698 0.194733
0.307648 0.164612 0.299622
0.307404 0.210754 0.257263
0.479370 0.212402 0.315308
0.690979 0.152832 0.334473
0.851135 0.100311 0.335876
0.965027 0.092590 0.340576
0.136871 0.220490 0.275665
0.164612 0.216949 0.273346
0.207764 0.216583 0.271393
0.320587 0.246979 0.318207
0.364838 0.256378 0.296265
0.550446 0.244812 0.328552
0.735840 0.192505 0.330536
0.872620 0.161438 0.331207
0.973755 0.167725 0.337067
0.056824 0.355133 0.311920
0.075165 0.352203 0.310486
0.111481 0.351196 0.309082
0.285919 0.361603 0.337280
0.450836 0.350891 0.335785
0.653870 0.293365 0.302460
0.798431 0.267059 0.304016
0.901611 0.267365 0.314972
0.976257 0.298523 0.331635
0.000000 0.507172 0.329895
0.000793 0.506927 0.325012
0.004730 0.509125 0.314850
0.226898 0.512573 0.337494
0.398956 0.499481 0.350250
0.600830 0.497162 0.349030
0.753784 0.500000 0.357147
0.872345 0.490387 0.344574
0.970825 0.491943 0.345612
0.000000 0.654846 0.346863
0.000000 0.654419 0.340912
0.008667 0.655823 0.329346
0.210571 0.654602 0.342590
0.400513 0.647034 0.360229
0.524261 0.639893 0.375763
0.724426 0.638306 0.329681
0.857391 0.644470 0.352509
0.960938 0.648438 0.367065
0.000000 0.779968 0.364166
0.000000 0.779175 0.357544
0.026031 0.779114 0.348511
0.193329 0.777008 0.351196
0.414307 0.772278 0.371979
0.533478 0.769531 0.398499
0.672058 0.773407 0.393829
0.848145 0.780762 0.320587
0.973572 0.780518 0.338989
0.000793 0.880432 0.379120
0.005524 0.879730 0.373016
0.036255 0.880005 0.363464
0.184143 0.879395 0.361023
0.417969 0.876251 0.381805
0.550568 0.877869 0.415710
0.688354 0.882141 0.441010
0.818848 0.894958 0.384918
0.975525 0.912170 0.312866
0.003174 0.969086 0.392151
0.012634 0.969391 0.386749
0.039429 0.971313 0.376617
0.173309 0.972656 0.371979
0.420898 0.971039 0.392761
0.567047 0.976440 0.433136
0.708557 0.983459 0.465973
0.840820 0.990784 0.465118
0.964294 0.995483 0.358429
0.152588 0.104919 0.222229
0.170319 0.110077 0.222595
0.197754 0.124969 0.223114
0.232269 0.166046 0.212769
0.427795 0.117065 0.414551
0.366425 0.261353 0.311462
0.509186 0.263367 0.395966
0.666260 0.244171 0.448883
0.860657 0.173523 0.472626
0.164612 0.146149 0.270996
0.183929 0.148041 0.268341
0.212952 0.156952 0.260925
0.247772 0.187531 0.240082
0.428284 0.185211 0.416229
0.377380 0.275269 0.324799
0.522125 0.287994 0.405701
0.682159 0.275787 0.454498
0.873840 0.214935 0.475220
0.179596 0.219086 0.341949
0.202057 0.217133 0.340790
0.235229 0.218719 0.341736
0.283966 0.235870 0.306458
0.443848 0.264954 0.435944
0.409882 0.310028 0.359741
0.559296 0.326569 0.430115
0.726990 0.312256 0.466919
0.909760 0.258270 0.478851
0.155182 0.339935 0.420410
0.187744 0.336639 0.420349
0.236847 0.334259 0.421417
0.319458 0.337280 0.421967
0.455536 0.371033 0.453827
0.487488 0.383179 0.425629
0.659088 0.385193 0.467987
0.823059 0.358734 0.477478
0.963135 0.329132 0.477051
0.068939 0.498810 0.447662
0.088287 0.497162 0.448120
0.118744 0.496429 0.448944
0.187958 0.498749 0.450531
0.409088 0.505493 0.475159
0.597595 0.501251 0.486115
0.779602 0.455597 0.446442
0.904968 0.450897 0.451813
0.973999 0.481628 0.479614
0.000000 0.652222 0.466248
0.000000 0.652039 0.463806
0.000793 0.653687 0.457947
0.014191 0.659943 0.442932
0.353821 0.656189 0.471832
0.557098 0.646729 0.494812
0.729492 0.642822 0.490784
0.863647 0.647247 0.504578
0.964050 0.649048 0.508362
0.000000 0.777893 0.481079
0.000000 0.777679 0.476776
0.000000 0.779480 0.468353
0.022858 0.785461 0.450439
0.357758 0.780365 0.476837
0.557404 0.775360 0.503540
0.674713 0.778564 0.521362
0.862427 0.786682 0.486115
0.976135 0.782593 0.501892
0.000000 0.879578 0.491730
0.000000 0.880249 0.487488
0.000000 0.883087 0.478821
0.035492 0.889526 0.463318
0.353943 0.885742 0.485138
0.567383 0.883026 0.514435
0.693665 0.891449 0.549225
0.832947 0.902832 0.533508
0.988892 0.924011 0.488678
0.000000 0.970215 0.502106
0.000000 0.972229 0.499023
0.000000 0.976746 0.491669
0.023651 0.985535 0.475311
0.339508 0.982300 0.493805
0.569305 0.981628 0.526428
0.714844 0.991272 0.570923
0.856537 0.993378 0.591492
0.985596 0.997925 0.522491
0.181122 0.124664 0.303070
0.200897 0.128754 0.303558
0.230774 0.139465 0.304047
0.274445 0.169830 0.295898
0.314392 0.232086 0.281342
0.565186 0.125610 0.551788
0.442719 0.338470 0.381256
0.562927 0.344482 0.464691
0.691589 0.333832 0.533966
0.187561 0.161926 0.345825
0.209076 0.163391 0.343536
0.240723 0.170532 0.339081
0.285400 0.193726 0.325012
0.324219 0.247589 0.296021
0.558929 0.201874 0.545166
0.447144 0.348541 0.389130
0.571899 0.361023 0.473816
0.701538 0.360138 0.540802
0.198151 0.226715 0.416626
0.221008 0.225708 0.416809
0.255920 0.227753 0.415985
0.310730 0.241821 0.390350
0.351898 0.284363 0.336945
0.568634 0.282379 0.557098
0.464630 0.374146 0.412323
0.596100 0.389923 0.496704
0.727661 0.394989 0.557861
0.194550 0.335449 0.506805
0.226044 0.332947 0.507446
0.270020 0.331879 0.510223
0.336090 0.334686 0.517273
0.411957 0.357239 0.441864
0.583832 0.387756 0.576447
0.520020 0.430664 0.474457
0.652679 0.447205 0.545441
0.793427 0.448730 0.591400
0.160461 0.483856 0.579620
0.195160 0.482056 0.582458
0.245117 0.480591 0.587097
0.329010 0.479706 0.593292
0.462341 0.486725 0.586945
0.594910 0.511505 0.594360
0.640869 0.524689 0.576233
0.769348 0.529419 0.602875
0.921265 0.520935 0.623871
0.087402 0.644592 0.590332
0.106781 0.643555 0.590851
0.137726 0.643250 0.591644
0.198151 0.644836 0.593140
0.313324 0.651459 0.598938
0.547913 0.652405 0.616028
0.731201 0.648071 0.631744
0.882935 0.630585 0.606476
0.977051 0.637390 0.621277
0.001556 0.777100 0.603912
0.001556 0.777466 0.602539
0.002350 0.779968 0.599823
0.004730 0.787659 0.592712
0.087830 0.800446 0.581909
0.510498 0.787872 0.616852
0.707703 0.781403 0.644012
0.862732 0.788055 0.646790
0.972015 0.781372 0.652039
0.000000 0.880127 0.614349
0.000000 0.881714 0.612793
0.000000 0.885681 0.609528
0.000000 0.895447 0.599670
0.099518 0.909058 0.585236
0.525421 0.895569 0.625092
0.709717 0.895874 0.658386
0.845551 0.910950 0.677521
0.992371 0.934601 0.660706
0.000000 0.972229 0.626892
0.000000 0.975403 0.626129
0.000000 0.981384 0.623108
0.000000 0.991516 0.611725
0.090454 0.995605 0.592712
0.524231 0.985596 0.634979
0.714294 0.991760 0.678589
0.871735 0.996887 0.717865
0.991333 1.000000 0.681152
0.203033 0.140320 0.383575
0.224854 0.143402 0.384674
0.257263 0.152313 0.385315
0.306091 0.175812 0.379425
0.355042 0.233582 0.348114
0.402435 0.298035 0.360046
0.692444 0.127502 0.679871
0.525696 0.404938 0.454559
0.615112 0.433685 0.521210
0.206482 0.175812 0.422455
0.229919 0.177155 0.421478
0.263794 0.183075 0.419037
0.313904 0.201660 0.409027
0.366425 0.248688 0.374084
0.410553 0.310638 0.371307
0.684265 0.209656 0.670898
0.530243 0.413055 0.461639
0.622314 0.442413 0.529449
0.209290 0.236206 0.493225
0.234406 0.235077 0.494812
0.273468 0.237335 0.491516
0.332184 0.249603 0.473114
0.391449 0.284760 0.426758
0.431244 0.341217 0.398346
0.689697 0.293365 0.677551
0.544800 0.433533 0.481506
0.641113 0.461273 0.549744
0.210785 0.336945 0.589874
0.241516 0.335236 0.591522
0.284088 0.335114 0.595581
0.349640 0.338776 0.600983
0.437286 0.358856 0.536774
0.478455 0.406555 0.459930
0.704407 0.398956 0.695312
0.590210 0.480835 0.535278
0.686157 0.506348 0.596436
0.171021 0.480103 0.684509
0.211517 0.478455 0.686340
0.266785 0.477173 0.688965
0.351288 0.476990 0.694305
0.466492 0.479980 0.692566
0.565521 0.506073 0.599884
0.711151 0.526398 0.704773
0.674683 0.567383 0.627289
0.771790 0.586639 0.674866
0.168915 0.632141 0.722534
0.205322 0.631226 0.724915
0.256958 0.630707 0.728760
0.338867 0.631409 0.737732
0.462860 0.633850 0.746216
0.615387 0.642029 0.732117
0.726196 0.655640 0.726685
0.779480 0.675171 0.714203
0.901154 0.677521 0.737488
0.113983 0.771484 0.718262
0.133911 0.771637 0.719116
0.168182 0.773102 0.720642
0.229767 0.777161 0.724304
0.318756 0.785645 0.729156
0.493347 0.791504 0.740143
0.699738 0.789062 0.753357
0.858826 0.784973 0.763672
0.980103 0.784241 0.762451
0.007080 0.881317 0.728302
0.007874 0.883789 0.729126
0.010254 0.888550 0.730255
0.017334 0.898804 0.730988
0.030731 0.918121 0.726837
0.240234 0.934814 0.725281
0.681396 0.906616 0.762451
0.858246 0.909302 0.790985
0.986816 0.924438 0.799194
0.000000 0.975525 0.739685
0.000000 0.979675 0.741150
0.000000 0.986755 0.742371
0.000000 0.992859 0.740967
0.002350 0.997803 0.729767
0.276337 1.000000 0.729980
0.696686 0.988281 0.775024
0.881226 0.999573 0.828186
0.995239 1.000000 0.827454
0.219086 0.152069 0.459076
0.243103 0.154907 0.460907
0.277710 0.162201 0.462219
0.330231 0.181793 0.457977
0.390106 0.228912 0.432495
0.426941 0.315552 0.384033
0.504608 0.343018 0.461700
0.803040 0.127808 0.791504
0.611145 0.463318 0.530243
0.220673 0.187134 0.495697
0.245911 0.188385 0.496307
0.281982 0.193542 0.495514
0.335999 0.209259 0.488220
0.399048 0.248383 0.459442
0.437531 0.324768 0.401733
0.511963 0.358551 0.471924
0.794952 0.213135 0.782349
0.615540 0.471283 0.536865
0.217865 0.244659 0.567993
0.246063 0.244019 0.568787
0.287750 0.246368 0.565125
0.349457 0.257111 0.551300
0.419098 0.287231 0.513062
0.461273 0.350067 0.440399
0.529449 0.388489 0.495026
0.797791 0.300232 0.785645
0.628815 0.489105 0.554688
0.215881 0.341644 0.666077
0.247772 0.340363 0.668976
0.291077 0.340363 0.674469
0.360229 0.344055 0.677277
0.454498 0.362396 0.622314
0.510864 0.407318 0.527832
0.568176 0.448883 0.545441
0.809998 0.406219 0.800415
0.660126 0.535889 0.594421
0.185028 0.478455 0.770844
0.225372 0.477051 0.773987
0.280273 0.476288 0.778351
0.362396 0.477112 0.785828
0.471680 0.481293 0.796295
0.582306 0.504517 0.680176
0.633362 0.547150 0.629089
0.820251 0.534729 0.812683
0.716370 0.624512 0.663818
0.122711 0.631470 0.848328
0.170074 0.630829 0.850525
0.235382 0.630676 0.853271
0.335785 0.631653 0.857391
0.469055 0.634766 0.864868
0.623169 0.640137 0.831970
0.712219 0.664825 0.737610
0.827332 0.669617 0.821289
0.799225 0.737732 0.760986
0.185028 0.764099 0.841492
0.223114 0.764771 0.843536
0.278229 0.766602 0.847595
0.364349 0.770630 0.856384
0.484528 0.778442 0.874817
0.633179 0.786194 0.876099
0.762207 0.792419 0.855835
0.854309 0.791168 0.852875
0.918579 0.830444 0.853088
0.158234 0.878998 0.828918
0.180908 0.881439 0.831177
0.218719 0.885498 0.834961
0.289307 0.892456 0.841797
0.393311 0.903381 0.853027
0.503357 0.917725 0.861755
0.681396 0.925385 0.873230
0.863953 0.909119 0.886719
0.985779 0.925446 0.903564
0.022858 0.978119 0.839325
0.024445 0.983032 0.843201
0.029968 0.990173 0.848328
0.044739 0.993713 0.855652
0.065063 0.998169 0.863464
0.180450 1.000000 0.866791
0.565796 1.000000 0.884338
0.865692 0.987610 0.907379
0.998657 1.000000 0.949158
0.231445 0.161713 0.533539
0.257111 0.163910 0.536316
0.294037 0.170563 0.538544
0.349884 0.187347 0.535706
0.417389 0.226898 0.514526
0.466919 0.305023 0.460388
0.506744 0.379883 0.453979
0.606140 0.376984 0.564056
0.904236 0.126556 0.893677
0.231964 0.196747 0.568970
0.258606 0.197754 0.570862
0.296783 0.202240 0.571533
0.354218 0.216034 0.566528
0.424683 0.249451 0.542664
0.478180 0.316010 0.486115
0.514465 0.390106 0.463745
0.611603 0.397736 0.571350
0.897400 0.214050 0.885681
0.225891 0.252472 0.641113
0.256378 0.252167 0.641357
0.299530 0.254272 0.639435
0.363861 0.264069 0.629089
0.440857 0.290436 0.596832
0.500153 0.344147 0.531952
0.531403 0.414154 0.485077
0.620972 0.432739 0.582672
0.899414 0.303558 0.887756
0.217865 0.346863 0.741882
0.250824 0.345612 0.746155
0.295654 0.345520 0.753662
0.369598 0.349335 0.752625
0.468353 0.366119 0.705627
0.541962 0.405334 0.621460
0.569641 0.468079 0.534271
0.644348 0.495514 0.610077
0.910400 0.410370 0.901031
0.189850 0.478729 0.856110
0.230103 0.477753 0.860107
0.285278 0.477386 0.865204
0.367462 0.478943 0.873840
0.479004 0.483917 0.880493
0.599304 0.506195 0.776978
0.644226 0.555939 0.646637
0.689392 0.595520 0.659546
0.926270 0.536682 0.919952
0.125275 0.630341 0.942993
0.174469 0.629883 0.945374
0.241821 0.630127 0.948730
0.343018 0.631897 0.954895
0.475800 0.636169 0.966553
0.627686 0.643311 0.951233
0.736450 0.668976 0.819855
0.769348 0.713928 0.751953
0.929138 0.675659 0.921814
0.107880 0.767151 0.974060
0.157196 0.768646 0.977570
0.225189 0.771545 0.983887
0.326782 0.777008 0.990692
0.467255 0.785828 0.994690
0.642151 0.792603 0.991577
0.789612 0.801208 0.958008
0.861938 0.827240 0.870300
0.948975 0.801056 0.943146
0.217499 0.877747 0.946777
0.258575 0.880920 0.950256
0.317505 0.885681 0.955688
0.408752 0.893555 0.965820
0.531555 0.905945 0.983704
0.677582 0.918640 0.990601
0.815430 0.930359 0.991577
0.928223 0.940369 0.981079
0.975098 0.915405 0.974182
0.222443 0.978638 0.931763
0.248535 0.983826 0.936584
0.293365 0.990295 0.943481
0.378662 0.992859 0.954346
0.505676 0.995850 0.970886
0.645782 0.999603 0.982910
0.787720 1.000000 0.992157
0.926666 1.000000 0.997986
0.985870 0.985962 0.985840
