public/LUTs/X-7080-STD.cube
# Copyright: (C) Copyright 2010-2021 by IWLTBAP SAS
# Cannot be resold, shared or otherwise redistributed
# Website: https://luts.iwltbap.com
TITLE "IWLTBAP 7080 (Rec.709, sRGB, DCI-P3)"
LUT_3D_SIZE 5
0.043274 0.056824 0.046173
0.213318 0.039429 0.029175
0.484131 0.023651 0.036285
0.757111 0.029968 0.046906
0.975037 0.035492 0.053009
0.029968 0.250671 0.065643
0.169128 0.231445 0.077148
0.475922 0.222931 0.046875
0.763428 0.196564 0.035492
0.974487 0.193726 0.041016
0.022888 0.518860 0.105682
0.186279 0.513031 0.116028
0.396942 0.502167 0.155396
0.739349 0.503265 0.059875
0.960022 0.505554 0.052979
0.018158 0.783691 0.155426
0.174225 0.777008 0.150482
0.402252 0.768036 0.242798
0.659576 0.767029 0.194153
0.956390 0.768433 0.034698
0.017365 0.970062 0.191284
0.159454 0.964111 0.181122
0.438324 0.958466 0.240723
0.687683 0.960052 0.344696
0.916992 0.984528 0.120758
0.092590 0.063385 0.107147
0.193329 0.080048 0.185425
0.393311 0.104919 0.206085
0.745361 0.029175 0.216766
0.967468 0.034698 0.227570
0.046173 0.233917 0.199524
0.186707 0.238800 0.219421
0.501312 0.170319 0.183502
0.773865 0.150208 0.196960
0.974609 0.174896 0.215515
0.000000 0.510925 0.230255
0.121399 0.512909 0.230255
0.388123 0.495605 0.255615
0.744019 0.503723 0.236359
0.963318 0.500854 0.230255
0.007111 0.781403 0.272644
0.097931 0.777161 0.258148
0.404327 0.768311 0.296631
0.667664 0.770508 0.288910
0.967651 0.776245 0.201477
0.010254 0.968689 0.299255
0.090027 0.967346 0.285126
0.444305 0.964539 0.314362
0.702087 0.973572 0.396057
0.945190 0.992859 0.226379
0.152588 0.104919 0.222229
0.197754 0.124969 0.223114
0.427795 0.117065 0.414551
0.509186 0.263367 0.395966
0.860657 0.173523 0.472626
0.179596 0.219086 0.341949
0.235229 0.218719 0.341736
0.443848 0.264954 0.435944
0.559296 0.326569 0.430115
0.909760 0.258270 0.478851
0.068939 0.498810 0.447662
0.118744 0.496429 0.448944
0.409088 0.505493 0.475159
0.779602 0.455597 0.446442
0.973999 0.481628 0.479614
0.000000 0.777893 0.481079
0.000000 0.779480 0.468353
0.357758 0.780365 0.476837
0.674713 0.778564 0.521362
0.976135 0.782593 0.501892
0.000000 0.970215 0.502106
0.000000 0.976746 0.491669
0.339508 0.982300 0.493805
0.714844 0.991272 0.570923
0.985596 0.997925 0.522491
0.203033 0.140320 0.383575
0.257263 0.152313 0.385315
0.355042 0.233582 0.348114
0.692444 0.127502 0.679871
0.615112 0.433685 0.521210
0.209290 0.236206 0.493225
0.273468 0.237335 0.491516
0.391449 0.284760 0.426758
0.689697 0.293365 0.677551
0.641113 0.461273 0.549744
0.171021 0.480103 0.684509
0.266785 0.477173 0.688965
0.466492 0.479980 0.692566
0.711151 0.526398 0.704773
0.771790 0.586639 0.674866
0.113983 0.771484 0.718262
0.168182 0.773102 0.720642
0.318756 0.785645 0.729156
0.699738 0.789062 0.753357
0.980103 0.784241 0.762451
0.000000 0.975525 0.739685
0.000000 0.986755 0.742371
0.002350 0.997803 0.729767
0.696686 0.988281 0.775024
0.995239 1.000000 0.827454
0.231445 0.161713 0.533539
0.294037 0.170563 0.538544
0.417389 0.226898 0.514526
0.506744 0.379883 0.453979
0.904236 0.126556 0.893677
0.225891 0.252472 0.641113
0.299530 0.254272 0.639435
0.440857 0.290436 0.596832
0.531403 0.414154 0.485077
0.899414 0.303558 0.887756
0.189850 0.478729 0.856110
0.285278 0.477386 0.865204
0.479004 0.483917 0.880493
0.644226 0.555939 0.646637
0.926270 0.536682 0.919952
0.107880 0.767151 0.974060
0.225189 0.771545 0.983887
0.467255 0.785828 0.994690
0.789612 0.801208 0.958008
0.948975 0.801056 0.943146
0.222443 0.978638 0.931763
0.293365 0.990295 0.943481
0.505676 0.995850 0.970886
0.787720 1.000000 0.992157
0.985870 0.985962 0.985840
