public/LUTs/X-8850-STD.cube
# Copyright: (C) Copyright 2010-2021 by IWLTBAP SAS
# Cannot be resold, shared or otherwise redistributed
# Website: https://luts.iwltbap.com
TITLE "IWLTBAP 8850 (Rec.709, sRGB, DCI-P3)"
LUT_3D_SIZE 33
0.071899 0.079559 0.094452
0.111535 0.094756 0.087058
0.167537 0.094087 0.075318
0.218399 0.081039 0.061459
0.260099 0.065945 0.050001
0.294797 0.052340 0.039816
0.324287 0.052109 0.038985
0.350496 0.058012 0.040964
0.375180 0.067120 0.044065
0.399686 0.077438 0.047881
0.423069 0.088428 0.052260
0.445462 0.099955 0.056729
0.467028 0.111619 0.060732
0.487781 0.123340 0.064225
0.507055 0.136892 0.067844
0.524934 0.152707 0.071483
0.542012 0.170373 0.074851
0.558506 0.189726 0.078136
0.574504 0.210560 0.081807
0.590014 0.232472 0.086584
0.605045 0.254381 0.093026
0.619880 0.274944 0.100889
0.635649 0.293021 0.108671
0.653881 0.307949 0.114079
0.674445 0.318331 0.115230
0.695820 0.325571 0.112714
0.715734 0.331410 0.108929
0.732225 0.336929 0.105744
0.747007 0.342062 0.103645
0.760117 0.346913 0.102622
0.772207 0.351624 0.102293
0.784207 0.355955 0.102317
0.794922 0.359009 0.102142
0.087471 0.100536 0.108617
0.122040 0.111564 0.096659
0.169167 0.121301 0.087337
0.217570 0.122158 0.081909
0.260030 0.116045 0.076956
0.297406 0.106154 0.069703
0.329595 0.093892 0.059711
0.356360 0.090100 0.055573
0.380134 0.092568 0.055141
0.403160 0.102175 0.058486
0.425366 0.113771 0.062086
0.447060 0.125118 0.065093
0.468325 0.136137 0.066840
0.488680 0.147824 0.068246
0.507370 0.161642 0.070526
0.524877 0.177657 0.073362
0.541933 0.195412 0.076306
0.558660 0.214410 0.079526
0.575109 0.234442 0.083229
0.591184 0.254906 0.087832
0.607073 0.274671 0.093488
0.623550 0.292828 0.099460
0.641429 0.307936 0.104683
0.660947 0.320189 0.107736
0.681171 0.329359 0.108281
0.702126 0.336163 0.107147
0.722808 0.341944 0.106105
0.739679 0.347030 0.105111
0.753718 0.351615 0.104171
0.765727 0.356174 0.103971
0.776923 0.360689 0.104184
0.787812 0.365347 0.104988
0.798226 0.370194 0.106212
0.086523 0.132179 0.138730
0.134373 0.136472 0.116528
0.169419 0.143679 0.102353
0.212032 0.149123 0.089852
0.254170 0.150309 0.085791
0.294288 0.147579 0.083382
0.330351 0.142225 0.080004
0.358920 0.136346 0.075090
0.383283 0.134315 0.071846
0.406369 0.137172 0.071497
0.428180 0.145341 0.072527
0.449418 0.155972 0.074013
0.469971 0.167110 0.074701
0.489663 0.178874 0.074909
0.508231 0.191652 0.075477
0.525883 0.206235 0.076749
0.543137 0.222860 0.078557
0.560284 0.240550 0.081173
0.577449 0.258769 0.084983
0.594357 0.276918 0.089916
0.611165 0.293700 0.095430
0.629044 0.308721 0.100061
0.648553 0.321489 0.102760
0.669003 0.331336 0.103716
0.689131 0.339113 0.104055
0.708796 0.345562 0.103924
0.728011 0.351396 0.104430
0.745780 0.356561 0.105003
0.760426 0.361135 0.105027
0.772379 0.365718 0.105361
0.783115 0.370318 0.106091
0.793166 0.375585 0.107590
0.802237 0.381434 0.109685
0.079462 0.159969 0.166483
0.136483 0.159167 0.135307
0.173768 0.165008 0.118610
0.208503 0.178017 0.107430
0.247084 0.184032 0.094581
0.287497 0.186565 0.089023
0.325906 0.184425 0.086916
0.360607 0.180527 0.085474
0.388827 0.177539 0.083468
0.413594 0.178475 0.083284
0.435415 0.184045 0.083522
0.455492 0.192397 0.083801
0.475052 0.202416 0.084010
0.494184 0.213454 0.083825
0.512691 0.225207 0.083572
0.530708 0.237457 0.083326
0.548452 0.250411 0.083150
0.565822 0.264673 0.084490
0.582691 0.280009 0.088308
0.599408 0.295553 0.093588
0.616703 0.310324 0.098806
0.635612 0.323478 0.102281
0.656402 0.334632 0.103090
0.677368 0.342932 0.102513
0.697374 0.349363 0.102100
0.716353 0.355278 0.102486
0.734581 0.361070 0.103577
0.751631 0.366396 0.105014
0.766954 0.371366 0.106413
0.779203 0.376046 0.107406
0.789664 0.380795 0.108448
0.798984 0.386609 0.110334
0.806859 0.393475 0.113084
0.064989 0.192971 0.197146
0.129686 0.182015 0.151784
0.172338 0.183063 0.132832
0.206227 0.193644 0.118886
0.238623 0.211219 0.108997
0.277771 0.222548 0.097594
0.319189 0.227639 0.093391
0.357204 0.225750 0.091122
0.390436 0.222594 0.090633
0.419631 0.222172 0.092224
0.443951 0.225122 0.094135
0.464909 0.230857 0.095568
0.483845 0.238925 0.096349
0.501924 0.248232 0.096289
0.519761 0.258310 0.095771
0.537468 0.268575 0.094562
0.555065 0.278828 0.093075
0.572529 0.289443 0.092508
0.589727 0.301064 0.094232
0.606837 0.313686 0.098335
0.624539 0.326063 0.102675
0.643608 0.337308 0.105192
0.664327 0.346879 0.105195
0.685296 0.354476 0.104192
0.705142 0.360412 0.103738
0.723747 0.365864 0.104291
0.741226 0.371301 0.105170
0.757048 0.376526 0.106469
0.771972 0.381576 0.107938
0.784866 0.386670 0.109542
0.794841 0.392343 0.111397
0.803060 0.399202 0.114085
0.810041 0.406838 0.117404
0.049130 0.234736 0.232563
0.115750 0.213168 0.180034
0.167114 0.206030 0.148943
0.203477 0.210124 0.131277
0.232961 0.223194 0.116485
0.264621 0.244066 0.107810
0.308498 0.261568 0.104127
0.351666 0.268903 0.102847
0.388002 0.267776 0.101601
0.420184 0.266089 0.103468
0.448580 0.266870 0.107304
0.471526 0.270271 0.110660
0.490621 0.275195 0.113016
0.508400 0.281763 0.113708
0.525972 0.289353 0.112460
0.543526 0.297229 0.110097
0.561062 0.305163 0.107680
0.578582 0.313240 0.105798
0.596171 0.321952 0.105196
0.614113 0.331481 0.106166
0.632662 0.341277 0.107691
0.652095 0.350465 0.108462
0.672615 0.358549 0.107936
0.693267 0.365437 0.107152
0.712858 0.371297 0.106832
0.731115 0.376586 0.107367
0.748022 0.381719 0.108030
0.762763 0.386802 0.109068
0.776075 0.392180 0.110498
0.788217 0.397928 0.112482
0.798062 0.404324 0.114989
0.806522 0.411388 0.118012
0.813473 0.419154 0.121730
0.040352 0.289467 0.267877
0.096068 0.262581 0.225097
0.161668 0.243548 0.173819
0.204473 0.239782 0.151953
0.234332 0.243915 0.132470
0.261044 0.257193 0.118349
0.295324 0.278910 0.115651
0.340750 0.297291 0.116867
0.383278 0.306223 0.118251
0.417772 0.306499 0.118948
0.447319 0.305935 0.121461
0.473945 0.307176 0.125769
0.496306 0.309770 0.129860
0.515119 0.313379 0.132060
0.532702 0.317741 0.131928
0.550091 0.322943 0.129531
0.567394 0.328749 0.125867
0.584751 0.335011 0.122414
0.602279 0.341892 0.120041
0.620518 0.349247 0.118368
0.639927 0.356743 0.116462
0.660092 0.363852 0.114175
0.680741 0.370354 0.111926
0.701193 0.376489 0.110626
0.720446 0.382163 0.110192
0.738342 0.387580 0.110637
0.754658 0.392496 0.111142
0.768604 0.397360 0.112066
0.780902 0.402798 0.113569
0.791696 0.408980 0.115923
0.801154 0.415693 0.118964
0.809864 0.422810 0.122285
0.817435 0.430308 0.126059
0.037140 0.339298 0.295579
0.082705 0.319493 0.272298
0.148695 0.295195 0.212547
0.204844 0.280738 0.179556
0.245967 0.278032 0.161012
0.273356 0.281950 0.142318
0.300428 0.296321 0.133249
0.331243 0.314185 0.132165
0.373759 0.330026 0.135475
0.414118 0.338316 0.138540
0.445727 0.339594 0.139976
0.473280 0.339415 0.142330
0.498148 0.340273 0.146688
0.520406 0.342012 0.150544
0.539827 0.344412 0.151627
0.557214 0.347297 0.150291
0.574081 0.351090 0.147349
0.591116 0.355776 0.142982
0.608463 0.361107 0.138745
0.626839 0.367074 0.134810
0.646825 0.373079 0.129595
0.667638 0.378629 0.123845
0.688578 0.383663 0.118695
0.708878 0.388625 0.115709
0.727796 0.393585 0.114337
0.745255 0.398701 0.114173
0.760928 0.403586 0.114432
0.773836 0.408451 0.115506
0.785256 0.413853 0.117244
0.795301 0.420000 0.119786
0.804431 0.426585 0.122902
0.813040 0.433519 0.126390
0.820958 0.440777 0.130117
0.039487 0.376855 0.315808
0.074880 0.370289 0.314205
0.136359 0.348564 0.259762
0.200522 0.330077 0.213706
0.252779 0.320160 0.192456
0.292544 0.318512 0.177640
0.318398 0.323634 0.162703
0.342229 0.334416 0.155487
0.369578 0.347687 0.154381
0.407620 0.359991 0.157782
0.443671 0.367601 0.161550
0.472988 0.368961 0.163670
0.498037 0.368334 0.166036
0.521614 0.368584 0.169147
0.544288 0.369606 0.170917
0.564164 0.371128 0.170484
0.581339 0.373384 0.168466
0.597941 0.376477 0.164525
0.614961 0.380231 0.159053
0.633240 0.384640 0.152688
0.653500 0.389466 0.144731
0.674730 0.393832 0.135635
0.695810 0.397596 0.127344
0.715929 0.401475 0.122269
0.734424 0.405488 0.119632
0.751335 0.409826 0.118524
0.766413 0.414320 0.118174
0.778653 0.419028 0.118963
0.789249 0.424510 0.120966
0.798708 0.430640 0.123680
0.807568 0.437092 0.126751
0.816051 0.443868 0.130189
0.823987 0.450962 0.133880
0.050776 0.402564 0.334413
0.074389 0.405903 0.342436
0.125126 0.397584 0.314059
0.195106 0.379619 0.254108
0.253760 0.364081 0.224323
0.302007 0.357308 0.209288
0.337824 0.357266 0.198163
0.364002 0.361230 0.187185
0.386299 0.369900 0.181841
0.411208 0.380938 0.181245
0.443298 0.390904 0.184347
0.472951 0.395638 0.186705
0.497887 0.395658 0.187972
0.521311 0.394473 0.188971
0.545008 0.394049 0.189482
0.567781 0.394482 0.189123
0.587509 0.395763 0.187570
0.604756 0.397587 0.184277
0.621648 0.399777 0.178962
0.639785 0.402445 0.170932
0.659933 0.405526 0.160189
0.681233 0.408800 0.148521
0.702322 0.411611 0.137479
0.722259 0.414534 0.129859
0.740331 0.417757 0.125908
0.756594 0.421404 0.124064
0.770824 0.425375 0.122967
0.782561 0.429776 0.123032
0.792748 0.435040 0.124721
0.801964 0.441021 0.127377
0.810625 0.447374 0.130401
0.819009 0.453957 0.133733
0.826880 0.460874 0.137401
0.067056 0.420967 0.349816
0.081117 0.429385 0.362132
0.119074 0.432505 0.355183
0.183600 0.421611 0.301882
0.248300 0.406623 0.258312
0.302265 0.393724 0.235685
0.346427 0.390476 0.226941
0.379628 0.391382 0.218207
0.406565 0.395635 0.211332
0.427994 0.403969 0.208237
0.450047 0.413290 0.207776
0.475105 0.419288 0.208683
0.498897 0.420977 0.209499
0.521594 0.419967 0.209462
0.544839 0.418320 0.208352
0.568216 0.417475 0.206870
0.590420 0.417875 0.205076
0.610206 0.418854 0.201893
0.628247 0.419851 0.196516
0.646767 0.420957 0.187634
0.666783 0.422342 0.175072
0.687704 0.424043 0.161225
0.708476 0.425764 0.148112
0.728053 0.427713 0.138415
0.745574 0.430186 0.132860
0.761136 0.433290 0.130289
0.774612 0.436869 0.128509
0.785918 0.440940 0.127797
0.795981 0.445798 0.128480
0.805136 0.451481 0.130799
0.813699 0.457559 0.133763
0.821997 0.463961 0.137071
0.829777 0.470655 0.140758
0.084529 0.435881 0.361745
0.094768 0.446639 0.377681
0.120960 0.456048 0.381152
0.170184 0.456104 0.349303
0.238188 0.444346 0.295270
0.296219 0.429375 0.263547
0.344346 0.420415 0.247525
0.384063 0.418747 0.240381
0.416537 0.420366 0.234400
0.443127 0.425427 0.231177
0.463058 0.433331 0.229359
0.481638 0.440621 0.229065
0.501959 0.443952 0.229338
0.522957 0.443965 0.229256
0.544894 0.442310 0.227758
0.567874 0.440264 0.224929
0.590981 0.439261 0.221770
0.613261 0.439345 0.217835
0.633852 0.439640 0.211903
0.653610 0.439700 0.202406
0.673964 0.439662 0.188913
0.694460 0.439992 0.173799
0.714570 0.440396 0.159220
0.733547 0.441089 0.147530
0.750388 0.442773 0.140326
0.765169 0.445372 0.136723
0.777954 0.448703 0.134358
0.788978 0.452478 0.132997
0.799047 0.456743 0.132546
0.808217 0.461916 0.134093
0.816747 0.467604 0.136759
0.824971 0.473811 0.140082
0.832633 0.480247 0.143822
0.102168 0.449013 0.372029
0.111930 0.461252 0.390707
0.130448 0.473800 0.399226
0.166861 0.481185 0.382904
0.226135 0.475975 0.332907
0.285573 0.463705 0.293311
0.336073 0.450435 0.268695
0.379521 0.444363 0.256926
0.416915 0.443317 0.250718
0.447984 0.446023 0.247723
0.472983 0.451512 0.246504
0.491117 0.458693 0.246295
0.507521 0.464462 0.246795
0.525866 0.466350 0.247092
0.545918 0.465397 0.246367
0.567608 0.463112 0.243728
0.590658 0.460553 0.239304
0.614102 0.458971 0.233851
0.637213 0.458599 0.226813
0.659432 0.458232 0.216357
0.680822 0.457341 0.202078
0.701438 0.456579 0.186069
0.720770 0.455727 0.170367
0.738980 0.455101 0.157028
0.755052 0.455596 0.148071
0.768979 0.457529 0.143216
0.781076 0.460501 0.140290
0.791773 0.464035 0.138590
0.801820 0.467823 0.137452
0.811127 0.472299 0.137763
0.819724 0.477513 0.139702
0.827917 0.483428 0.142760
0.835476 0.489624 0.146542
0.119232 0.461481 0.382026
0.129501 0.474948 0.402259
0.145128 0.488837 0.412461
0.173644 0.499289 0.403034
0.218964 0.501407 0.365254
0.276058 0.492971 0.319668
0.326769 0.480539 0.291587
0.371792 0.470204 0.272988
0.411419 0.466345 0.264116
0.445583 0.466527 0.260151
0.474866 0.469698 0.259044
0.497704 0.474827 0.259388
0.514414 0.481115 0.260441
0.529979 0.485723 0.261553
0.547727 0.486559 0.261843
0.567661 0.484836 0.260693
0.589718 0.481884 0.256961
0.613441 0.478686 0.250416
0.637990 0.476934 0.241883
0.662826 0.476350 0.230411
0.686652 0.475334 0.215274
0.708166 0.473931 0.198530
0.727266 0.472099 0.181784
0.744424 0.469958 0.166526
0.759721 0.468907 0.155459
0.773000 0.469751 0.149072
0.784530 0.472058 0.145545
0.794751 0.475388 0.143923
0.804602 0.478964 0.142685
0.813957 0.482953 0.142164
0.822684 0.487690 0.143162
0.830947 0.493161 0.145507
0.838423 0.499215 0.149228
0.134715 0.474331 0.393655
0.146164 0.488652 0.413560
0.161470 0.502952 0.422861
0.185712 0.514383 0.416084
0.222322 0.520144 0.386092
0.272194 0.515765 0.339952
0.320145 0.507131 0.311733
0.364348 0.496389 0.290584
0.403547 0.490015 0.277581
0.439212 0.487732 0.271349
0.470840 0.488410 0.268940
0.497625 0.491265 0.269084
0.518580 0.495740 0.270457
0.534657 0.501010 0.272153
0.550133 0.504468 0.273437
0.568034 0.504529 0.273665
0.588922 0.502216 0.271769
0.612293 0.498695 0.266082
0.637294 0.495436 0.256914
0.663715 0.493783 0.244658
0.690221 0.492786 0.228505
0.713870 0.491247 0.210553
0.733649 0.488900 0.192868
0.750148 0.485747 0.176217
0.764548 0.483360 0.163384
0.777325 0.482562 0.154843
0.788486 0.483805 0.150355
0.798319 0.486675 0.148601
0.807764 0.490268 0.147754
0.816865 0.494193 0.147309
0.825625 0.498568 0.147564
0.834024 0.503690 0.149009
0.841582 0.509575 0.152234
0.148510 0.487366 0.406825
0.161394 0.502269 0.425534
0.177112 0.516757 0.433461
0.199832 0.528150 0.426238
0.232224 0.534584 0.398799
0.274750 0.533372 0.354793
0.318100 0.528225 0.327381
0.358447 0.520804 0.307991
0.395910 0.513872 0.292917
0.431215 0.509816 0.283387
0.463935 0.508240 0.278730
0.492718 0.508736 0.277281
0.517249 0.511035 0.278180
0.537173 0.514628 0.280062
0.553157 0.518786 0.281955
0.569052 0.521314 0.282895
0.588386 0.520694 0.282103
0.611009 0.517804 0.278415
0.635730 0.514111 0.270651
0.662499 0.510984 0.258645
0.690625 0.509067 0.241850
0.717103 0.507326 0.221652
0.738867 0.504855 0.202223
0.756099 0.501695 0.184922
0.769758 0.498728 0.171520
0.781968 0.496739 0.161617
0.792920 0.496470 0.155491
0.802620 0.498193 0.152719
0.811652 0.501651 0.152155
0.820374 0.505719 0.152205
0.828937 0.510129 0.152449
0.837282 0.515134 0.153419
0.844981 0.520624 0.155685
0.160640 0.499784 0.420517
0.174876 0.515335 0.439124
0.190898 0.529953 0.446474
0.213270 0.540958 0.436943
0.243159 0.547352 0.410102
0.281464 0.547545 0.366882
0.320030 0.545056 0.340524
0.355880 0.541011 0.323347
0.389825 0.536526 0.309706
0.423736 0.532215 0.298033
0.456456 0.529363 0.290147
0.486215 0.527874 0.286150
0.512324 0.527947 0.285191
0.535391 0.529476 0.286422
0.554608 0.531994 0.288470
0.570782 0.535032 0.289674
0.588236 0.536533 0.288701
0.609416 0.535143 0.285682
0.633608 0.531783 0.279747
0.660215 0.527788 0.269144
0.688827 0.524382 0.252917
0.717355 0.521828 0.231356
0.742102 0.519275 0.209381
0.761280 0.516549 0.191363
0.775491 0.513902 0.178100
0.786951 0.511839 0.168788
0.797657 0.510404 0.161447
0.807375 0.510911 0.157395
0.816421 0.513456 0.156010
0.824903 0.517464 0.156275
0.833158 0.522128 0.157002
0.841251 0.527155 0.158115
0.848803 0.532308 0.159834
0.171094 0.511344 0.434239
0.186627 0.527644 0.454068
0.202713 0.542301 0.461750
0.224493 0.552995 0.451128
0.252985 0.559139 0.423834
0.288916 0.559767 0.379584
0.324254 0.558839 0.352716
0.356754 0.557018 0.336778
0.386839 0.555518 0.325251
0.418058 0.553249 0.314597
0.449856 0.550480 0.304429
0.479471 0.548227 0.297108
0.506117 0.546648 0.293385
0.530571 0.546151 0.292436
0.552524 0.546608 0.293563
0.571508 0.547883 0.294686
0.589230 0.549594 0.293211
0.608541 0.550043 0.289165
0.631390 0.547811 0.283110
0.657977 0.543513 0.273277
0.686908 0.538856 0.257838
0.716214 0.535004 0.236946
0.743131 0.532039 0.214098
0.764825 0.529568 0.195144
0.781072 0.527551 0.181610
0.792654 0.526057 0.173343
0.802833 0.524921 0.167107
0.812434 0.525031 0.162788
0.821787 0.526383 0.160152
0.830246 0.529845 0.160051
0.838183 0.534349 0.160986
0.845804 0.539109 0.162358
0.852827 0.543956 0.164180
0.179934 0.522192 0.447288
0.196896 0.539035 0.468524
0.213032 0.554066 0.478591
0.232909 0.564632 0.470093
0.259899 0.570413 0.443251
0.294424 0.570960 0.396036
0.328179 0.569938 0.364406
0.358528 0.569188 0.347644
0.386261 0.569055 0.336280
0.414521 0.569219 0.327500
0.444277 0.568572 0.318831
0.472809 0.567085 0.309725
0.499388 0.565614 0.303301
0.524671 0.564081 0.299642
0.548181 0.562854 0.298230
0.569744 0.562179 0.298099
0.590099 0.561959 0.295855
0.609650 0.562253 0.290216
0.630296 0.561388 0.282025
0.655496 0.557608 0.270698
0.685096 0.552187 0.255297
0.715149 0.547186 0.236003
0.742872 0.543495 0.215161
0.766568 0.540984 0.196545
0.785112 0.539414 0.182812
0.798715 0.538528 0.174344
0.808864 0.538498 0.170069
0.818138 0.539003 0.166897
0.827313 0.540100 0.164558
0.835771 0.542669 0.163896
0.843332 0.546467 0.164647
0.850289 0.550500 0.166004
0.856598 0.554687 0.167874
0.186343 0.532269 0.459176
0.205240 0.549368 0.481184
0.221795 0.565053 0.494994
0.239498 0.575775 0.491003
0.263820 0.581263 0.467453
0.297184 0.581481 0.417558
0.329939 0.579764 0.378340
0.359106 0.578234 0.356711
0.385375 0.577947 0.342905
0.411448 0.578662 0.333015
0.438837 0.580206 0.326305
0.466130 0.580930 0.319147
0.492496 0.581007 0.312083
0.518254 0.580414 0.306652
0.542993 0.578912 0.302771
0.566067 0.577223 0.300363
0.588779 0.575267 0.296435
0.611002 0.573393 0.288628
0.631574 0.571903 0.277287
0.653928 0.569104 0.262940
0.682145 0.564116 0.246497
0.713459 0.558533 0.228708
0.742459 0.554101 0.211038
0.767346 0.551332 0.195294
0.787392 0.550185 0.182982
0.803344 0.549896 0.174480
0.815360 0.550431 0.170171
0.824608 0.551433 0.168281
0.833173 0.552952 0.167345
0.841127 0.554929 0.166904
0.848059 0.557848 0.167671
0.854365 0.561117 0.169049
0.860031 0.564601 0.170942
0.188850 0.541124 0.469362
0.209839 0.557795 0.491164
0.228102 0.574144 0.507956
0.244856 0.585517 0.509960
0.265854 0.591162 0.492493
0.297216 0.591531 0.444593
0.329718 0.589594 0.398264
0.358873 0.586775 0.368855
0.383970 0.585126 0.349952
0.407820 0.584724 0.335804
0.432598 0.585738 0.326011
0.458261 0.587646 0.319318
0.484082 0.589312 0.313601
0.509877 0.590387 0.308051
0.535567 0.590376 0.303252
0.560528 0.589203 0.299295
0.585176 0.587031 0.293785
0.609997 0.583881 0.283754
0.633425 0.580606 0.269406
0.655264 0.577754 0.252297
0.679900 0.574295 0.234258
0.710033 0.569565 0.217608
0.741168 0.564619 0.202598
0.768030 0.561260 0.190543
0.789181 0.560098 0.181162
0.806161 0.560389 0.174322
0.820589 0.561132 0.169459
0.830916 0.562298 0.167662
0.839299 0.563906 0.167390
0.846338 0.565740 0.167893
0.852397 0.568009 0.169206
0.858031 0.570784 0.171077
0.863184 0.573925 0.173499
0.187326 0.548623 0.477651
0.209475 0.563312 0.497857
0.230345 0.580054 0.516524
0.247639 0.592868 0.525431
0.265943 0.599587 0.516915
0.293688 0.601116 0.478147
0.325494 0.599711 0.428633
0.356850 0.596440 0.389290
0.382707 0.593221 0.363127
0.405056 0.591114 0.343747
0.426848 0.589960 0.327366
0.449657 0.590192 0.315252
0.473608 0.591499 0.306984
0.498332 0.593163 0.300948
0.524357 0.594414 0.295818
0.551536 0.594693 0.291183
0.579390 0.593654 0.284941
0.607342 0.591172 0.273858
0.633914 0.587887 0.258044
0.658238 0.584813 0.239542
0.681396 0.582583 0.221137
0.707090 0.580269 0.205699
0.737755 0.576175 0.192845
0.767488 0.572013 0.183491
0.790805 0.569820 0.176974
0.808600 0.569873 0.172268
0.823705 0.570788 0.168453
0.835561 0.571998 0.166545
0.844336 0.573531 0.166502
0.851003 0.575248 0.167663
0.856525 0.577251 0.169585
0.861673 0.579825 0.172138
0.866409 0.582823 0.175326
0.183676 0.555707 0.485533
0.205409 0.567065 0.502879
0.228046 0.582586 0.520413
0.247743 0.597182 0.534446
0.264683 0.606185 0.536871
0.287115 0.609857 0.514621
0.315565 0.610063 0.472788
0.348232 0.607289 0.424451
0.377777 0.603490 0.389137
0.401564 0.599918 0.363358
0.422727 0.596895 0.340796
0.443358 0.594819 0.321338
0.464565 0.593516 0.304829
0.487182 0.593372 0.292390
0.512038 0.594031 0.283862
0.540024 0.594647 0.277755
0.571334 0.594841 0.270875
0.604353 0.594108 0.259219
0.635519 0.592592 0.243235
0.662648 0.591074 0.225422
0.686203 0.590049 0.208027
0.708368 0.589668 0.194245
0.734230 0.588200 0.183770
0.764389 0.584326 0.176512
0.790880 0.580773 0.171909
0.810582 0.579378 0.169100
0.825815 0.579739 0.166868
0.837919 0.580726 0.165811
0.847220 0.582293 0.166229
0.854299 0.584096 0.167867
0.860126 0.586130 0.170140
0.865397 0.588690 0.173039
0.870052 0.591651 0.176658
0.180324 0.563903 0.495673
0.200018 0.571705 0.509830
0.223359 0.584350 0.523638
0.244989 0.598969 0.538080
0.263167 0.610815 0.548020
0.280705 0.617286 0.544376
0.303613 0.619704 0.520021
0.333057 0.618734 0.476519
0.364351 0.615443 0.431881
0.392972 0.611293 0.397244
0.417383 0.607153 0.369278
0.439310 0.603386 0.343449
0.460328 0.599953 0.319078
0.481756 0.596646 0.295595
0.504941 0.594473 0.277152
0.531515 0.593485 0.265108
0.563113 0.593301 0.255663
0.600479 0.593835 0.243299
0.638316 0.594665 0.227019
0.669881 0.595863 0.210537
0.694346 0.597443 0.196174
0.714071 0.598808 0.185189
0.735028 0.599314 0.177155
0.760670 0.597427 0.171655
0.788019 0.593468 0.168230
0.810562 0.590244 0.166483
0.826459 0.588930 0.165715
0.838342 0.589129 0.165802
0.847894 0.590383 0.166797
0.855726 0.592290 0.168732
0.862527 0.594631 0.171284
0.868476 0.597341 0.174376
0.873621 0.600449 0.178286
0.180544 0.574421 0.511412
0.197529 0.580050 0.522817
0.219940 0.589210 0.532892
0.242513 0.602004 0.543827
0.261972 0.614728 0.555014
0.278659 0.623373 0.559410
0.295897 0.628104 0.552905
0.318783 0.629280 0.526993
0.348169 0.627468 0.483617
0.379502 0.623713 0.439990
0.409372 0.619292 0.406222
0.436358 0.614924 0.377203
0.460819 0.610417 0.347620
0.484385 0.605550 0.316481
0.507191 0.600749 0.287259
0.531054 0.596576 0.263266
0.560149 0.594081 0.245792
0.596849 0.593740 0.230852
0.638014 0.595478 0.214141
0.675831 0.599192 0.197794
0.704192 0.603715 0.185545
0.723803 0.607467 0.177902
0.741067 0.609332 0.172500
0.761347 0.608882 0.168577
0.783741 0.606437 0.166179
0.806889 0.602309 0.165155
0.824894 0.599089 0.165378
0.837506 0.597859 0.166445
0.847373 0.598331 0.168034
0.855851 0.600039 0.170136
0.863332 0.602480 0.172900
0.870125 0.605460 0.176260
0.876142 0.608818 0.180467
0.185889 0.587048 0.532579
0.200963 0.591768 0.541832
0.221465 0.598807 0.549624
0.243522 0.609406 0.557427
0.263581 0.621237 0.565686
0.280288 0.630564 0.571867
0.295744 0.636617 0.572061
0.312867 0.639363 0.560548
0.335850 0.639214 0.532417
0.366258 0.636234 0.486972
0.399714 0.631983 0.445213
0.432572 0.627483 0.412646
0.463507 0.622759 0.381852
0.491382 0.617511 0.348120
0.516362 0.611780 0.312697
0.539664 0.605723 0.279012
0.565716 0.600305 0.248939
0.599695 0.597680 0.224900
0.639484 0.598505 0.206173
0.678627 0.602564 0.190204
0.711622 0.609089 0.178704
0.734586 0.614906 0.172464
0.751191 0.618136 0.169390
0.767272 0.618557 0.166849
0.783549 0.617333 0.165495
0.800743 0.614610 0.165195
0.819475 0.610387 0.165949
0.834892 0.607335 0.167520
0.846183 0.606593 0.169718
0.855508 0.607740 0.171978
0.863509 0.610024 0.174896
0.870800 0.612970 0.178537
0.876972 0.616349 0.183145
0.194244 0.599709 0.554666
0.209887 0.604243 0.562718
0.228471 0.610605 0.569503
0.248969 0.620353 0.576105
0.268984 0.631365 0.582351
0.286005 0.640978 0.588649
0.300874 0.647671 0.591486
0.315668 0.650867 0.585404
0.334443 0.651535 0.566844
0.360682 0.648975 0.527541
0.392740 0.644674 0.480754
0.428627 0.639817 0.443179
0.464877 0.634849 0.411804
0.497561 0.629784 0.379474
0.525845 0.624254 0.344513
0.550312 0.617628 0.306439
0.575554 0.610688 0.266971
0.608399 0.606276 0.231671
0.647578 0.605898 0.204472
0.685368 0.608979 0.186291
0.717676 0.614850 0.175796
0.743387 0.621337 0.169767
0.762043 0.625379 0.167072
