public/LUTs/X-8850-STD.cube
# Copyright: (C) Copyright 2010-2021 by IWLTBAP SAS
# Cannot be resold, shared or otherwise redistributed
# Website: https://luts.iwltbap.com
TITLE "IWLTBAP 8850 (Rec.709, sRGB, DCI-P3)"
LUT_3D_SIZE 9
0.071899 0.079559 0.094452
0.260099 0.065945 0.050001
0.375180 0.067120 0.044065
0.467028 0.111619 0.060732
0.542012 0.170373 0.074851
0.605045 0.254381 0.093026
0.674445 0.318331 0.115230
0.747007 0.342062 0.103645
0.794922 0.359009 0.102142
0.064989 0.192971 0.197146
0.238623 0.211219 0.108997
0.390436 0.222594 0.090633
0.483845 0.238925 0.096349
0.555065 0.278828 0.093075
0.624539 0.326063 0.102675
0.705142 0.360412 0.103738
0.771972 0.381576 0.107938
0.810041 0.406838 0.117404
0.039487 0.376855 0.315808
0.252779 0.320160 0.192456
0.369578 0.347687 0.154381
0.498037 0.368334 0.166036
0.581339 0.373384 0.168466
0.653500 0.389466 0.144731
0.734424 0.405488 0.119632
0.789249 0.424510 0.120966
0.823987 0.450962 0.133880
0.102168 0.449013 0.372029
0.226135 0.475975 0.332907
0.416915 0.443317 0.250718
0.507521 0.464462 0.246795
0.590658 0.460553 0.239304
0.680822 0.457341 0.202078
0.755052 0.455596 0.148071
0.801820 0.467823 0.137452
0.835476 0.489624 0.146542
0.160640 0.499784 0.420517
0.243159 0.547352 0.410102
0.389825 0.536526 0.309706
0.512324 0.527947 0.285191
0.588236 0.536533 0.288701
0.688827 0.524382 0.252917
0.775491 0.513902 0.178100
0.816421 0.513456 0.156010
0.848803 0.532308 0.159834
0.188850 0.541124 0.469362
0.265854 0.591162 0.492493
0.383970 0.585126 0.349952
0.484082 0.589312 0.313601
0.585176 0.587031 0.293785
0.679900 0.574295 0.234258
0.789181 0.560098 0.181162
0.839299 0.563906 0.167390
0.863184 0.573925 0.173499
0.180544 0.574421 0.511412
0.261972 0.614728 0.555014
0.348169 0.627468 0.483617
0.460819 0.610417 0.347620
0.560149 0.594081 0.245792
0.704192 0.603715 0.185545
0.783741 0.606437 0.166179
0.847373 0.598331 0.168034
0.876142 0.608818 0.180467
0.210768 0.622383 0.593774
0.283976 0.653454 0.616006
0.345288 0.676171 0.609940
0.459096 0.656833 0.450490
0.581654 0.633581 0.320618
0.737363 0.632580 0.174953
0.798244 0.640034 0.167041
0.834326 0.637922 0.174098
0.877029 0.638006 0.194196
0.239166 0.658661 0.651703
0.311481 0.688156 0.662637
0.364464 0.715249 0.680052
0.451106 0.714720 0.591050
0.571484 0.675048 0.407988
0.689371 0.654891 0.248125
0.814774 0.664345 0.179617
0.848984 0.666055 0.186187
0.871307 0.670715 0.216644
0.094519 0.146171 0.221416
0.234217 0.202848 0.214439
0.399537 0.190902 0.203213
0.492708 0.195601 0.188213
0.545696 0.239449 0.201046
0.601046 0.296551 0.203689
0.665255 0.343640 0.209083
0.736551 0.370125 0.192232
0.788149 0.389811 0.181436
0.018227 0.225152 0.289025
0.243192 0.268135 0.288024
0.440430 0.309482 0.262742
0.529200 0.296020 0.224366
0.574623 0.336471 0.219485
0.633413 0.373244 0.217925
0.701913 0.394546 0.207467
0.750250 0.419917 0.220495
0.787726 0.438569 0.212908
0.045042 0.381971 0.403489
0.224081 0.361599 0.376698
0.414893 0.412216 0.310100
0.537348 0.438398 0.296934
0.599632 0.434543 0.292513
0.657149 0.427623 0.249678
0.732925 0.434324 0.204662
0.787996 0.451450 0.189400
0.820205 0.472408 0.203453
0.107278 0.470384 0.449525
0.202005 0.506481 0.492465
0.390583 0.468052 0.356450
0.500540 0.481259 0.326879
0.611124 0.505385 0.337914
0.672120 0.492361 0.313698
0.753518 0.477782 0.225345
0.810754 0.487982 0.189874
0.840410 0.508633 0.203622
0.157143 0.512448 0.482914
0.221929 0.568812 0.544007
0.332140 0.575478 0.495975
0.498827 0.561729 0.401808
0.601937 0.566360 0.383924
0.681557 0.559733 0.362338
0.752904 0.546788 0.307627
0.815019 0.541519 0.243179
0.845223 0.559115 0.239272
0.180854 0.553104 0.523892
0.263818 0.612370 0.580640
0.331894 0.631643 0.569489
0.459027 0.625200 0.454373
0.584036 0.616139 0.411129
0.672590 0.619856 0.399435
0.746736 0.611772 0.370173
0.805974 0.606411 0.316333
0.831797 0.615555 0.312425
0.179943 0.591296 0.560466
0.274100 0.637866 0.603771
0.345406 0.666253 0.619983
0.453246 0.659507 0.495238
0.556598 0.650924 0.424066
0.668547 0.653691 0.394748
0.745103 0.647660 0.333603
0.814764 0.640488 0.307599
0.829309 0.657636 0.342179
0.193131 0.625925 0.610289
0.259046 0.650780 0.631976
0.329873 0.685146 0.653399
0.402061 0.696858 0.633915
0.541824 0.681288 0.493317
0.665446 0.655869 0.345730
0.791703 0.668204 0.255758
0.839768 0.667806 0.249139
0.819930 0.686609 0.370340
0.223478 0.655139 0.661475
0.307728 0.696034 0.689750
0.365286 0.726116 0.708669
0.419533 0.738482 0.708091
0.545586 0.725783 0.576230
0.690681 0.696964 0.434404
0.830365 0.685089 0.234385
0.844389 0.692189 0.273646
0.808198 0.716211 0.409195
0.140983 0.201000 0.340238
0.227130 0.257624 0.344051
0.364493 0.264429 0.315078
0.467194 0.264410 0.332792
0.510681 0.265387 0.301863
0.579239 0.290466 0.292466
0.650510 0.360712 0.313523
0.706791 0.391355 0.298537
0.750988 0.419694 0.300768
0.036741 0.229080 0.364935
0.234480 0.291790 0.409822
0.364514 0.353617 0.403306
0.499855 0.357110 0.391440
0.583335 0.369478 0.355695
0.632379 0.406086 0.334645
0.682832 0.431353 0.308987
0.719848 0.460217 0.329984
0.752410 0.490520 0.346155
0.052920 0.327030 0.424172
0.153459 0.361138 0.457646
0.369748 0.407644 0.461161
0.530382 0.463057 0.426206
0.621726 0.456146 0.378411
0.663103 0.469171 0.341155
0.710213 0.478660 0.319750
0.743160 0.503501 0.342420
0.767593 0.533555 0.377249
0.095142 0.390394 0.479850
0.165856 0.448043 0.521204
0.349054 0.491148 0.516535
0.509707 0.525337 0.454447
0.627721 0.546887 0.425315
0.686973 0.534586 0.389931
0.729820 0.519599 0.339862
0.767477 0.535361 0.340317
0.790199 0.561723 0.370973
0.146923 0.443412 0.517781
0.211861 0.522978 0.570663
0.316537 0.567865 0.585854
0.451035 0.565308 0.486623
0.579984 0.575816 0.441074
0.696676 0.594067 0.434417
0.743269 0.585548 0.408989
0.780908 0.584209 0.376187
0.803184 0.606923 0.397230
0.176328 0.514399 0.561219
0.255748 0.601286 0.618458
0.325920 0.645573 0.646473
0.399604 0.651038 0.625273
0.563518 0.645565 0.506624
0.681590 0.652151 0.488274
0.749259 0.649102 0.470714
0.784303 0.656946 0.471344
0.802030 0.671420 0.480603
0.181725 0.596114 0.607559
0.266048 0.645673 0.640542
0.349690 0.686028 0.669342
0.417762 0.695803 0.660803
0.544862 0.694783 0.549915
0.671714 0.690266 0.512974
0.740451 0.702983 0.512578
0.784107 0.707820 0.518357
0.806825 0.722684 0.535424
0.195176 0.627834 0.639141
0.255068 0.658332 0.659960
0.344069 0.706495 0.690038
0.416942 0.723494 0.706425
0.542549 0.721111 0.590906
0.658477 0.711067 0.517451
0.749122 0.726800 0.508066
0.782086 0.732120 0.503571
0.810526 0.749804 0.555581
0.223878 0.646687 0.669968
0.292221 0.684538 0.695032
0.355791 0.730301 0.729418
0.418192 0.749790 0.743409
0.511053 0.755735 0.710297
0.674015 0.746537 0.582487
0.759877 0.732591 0.487383
0.795592 0.752237 0.499706
0.811348 0.775034 0.566796
0.177912 0.217147 0.443208
0.254474 0.253054 0.475496
0.343213 0.243456 0.476360
0.421172 0.221046 0.454815
0.489491 0.252077 0.413932
0.535023 0.279386 0.370830
0.603313 0.315957 0.352132
0.696410 0.395491 0.383310
0.736297 0.426615 0.393814
0.051357 0.233829 0.460246
0.266343 0.326649 0.498956
0.348104 0.373742 0.510585
0.445145 0.380059 0.479839
0.544213 0.386292 0.480941
0.598664 0.378550 0.427771
0.673751 0.432527 0.409114
0.718092 0.474137 0.406682
0.748585 0.509732 0.419559
0.063385 0.309673 0.481502
0.175939 0.352911 0.520688
0.349144 0.415464 0.548630
0.464520 0.464937 0.517440
0.584639 0.469916 0.491865
0.662700 0.478309 0.445410
0.707217 0.505613 0.415713
0.739755 0.532673 0.420019
0.766928 0.568630 0.459691
0.099153 0.358585 0.500861
0.139521 0.385642 0.538355
0.293785 0.455595 0.561756
0.459712 0.509920 0.558921
0.614407 0.553176 0.519471
0.695453 0.545537 0.461690
0.733166 0.562791 0.432731
0.762335 0.586193 0.446859
0.786736 0.623108 0.493145
0.145185 0.399860 0.527680
0.170414 0.422315 0.563248
0.291472 0.527859 0.601024
0.431021 0.581209 0.602881
0.589026 0.606907 0.538066
0.703447 0.626496 0.509393
0.753213 0.625100 0.486005
0.780029 0.634192 0.480501
0.801711 0.663984 0.515128
0.176046 0.455002 0.563979
0.223459 0.518130 0.604294
0.323630 0.618837 0.656048
0.401998 0.644063 0.666132
0.532830 0.653097 0.580355
0.668160 0.663658 0.536221
0.758190 0.683254 0.541768
0.793368 0.696601 0.551431
0.814151 0.718773 0.576534
0.183585 0.548574 0.615764
0.254665 0.604535 0.649046
0.347627 0.688238 0.696810
0.416750 0.701760 0.714031
0.507563 0.719431 0.690542
0.663863 0.718628 0.588068
0.748258 0.741413 0.596057
0.796047 0.753691 0.611040
0.820922 0.771397 0.639345
0.197220 0.603337 0.650641
0.258402 0.636705 0.672841
0.350352 0.715092 0.718887
0.434416 0.734947 0.743445
0.537384 0.753411 0.716372
0.669383 0.760133 0.626289
0.756145 0.776593 0.625936
0.796195 0.794488 0.646197
0.825043 0.802542 0.668672
0.233744 0.630867 0.679706
0.300768 0.670971 0.704925
0.358229 0.720888 0.737743
0.435727 0.751665 0.765254
0.539763 0.772291 0.771703
0.677914 0.784408 0.658650
0.761982 0.796634 0.642439
0.808102 0.820111 0.661945
0.826287 0.830863 0.678637
0.200144 0.234774 0.534300
0.286645 0.258975 0.550893
0.357522 0.235762 0.566202
0.387755 0.200643 0.557296
0.450942 0.217189 0.523615
0.521838 0.255970 0.481105
0.570662 0.296527 0.442452
0.626400 0.330792 0.423201
0.714017 0.415517 0.450793
0.075012 0.254405 0.537551
0.288114 0.346899 0.553294
0.357585 0.372966 0.581973
0.418287 0.378262 0.569503
0.498605 0.362836 0.554271
0.569880 0.370463 0.513241
0.604270 0.367561 0.461098
0.692301 0.442184 0.469366
0.751121 0.515268 0.499299
0.076133 0.312219 0.549091
0.199274 0.358862 0.580819
0.366044 0.435973 0.602568
0.447971 0.479043 0.606428
0.541675 0.489890 0.569576
0.640545 0.498114 0.561615
0.677620 0.479360 0.507612
0.738834 0.539767 0.515313
0.773786 0.587350 0.538296
0.118282 0.366344 0.555458
0.156476 0.386922 0.593364
0.310575 0.457098 0.610630
0.449599 0.515040 0.630027
0.568863 0.563872 0.591248
0.676126 0.564314 0.572554
0.731753 0.579447 0.543417
0.767834 0.613811 0.541877
0.794949 0.652817 0.575455
0.154236 0.400785 0.567303
0.176226 0.420658 0.602000
0.268675 0.493369 0.620992
0.390591 0.552738 0.637666
0.567963 0.616743 0.631218
0.702370 0.638410 0.599178
0.761560 0.649289 0.569643
0.791528 0.680035 0.576700
0.815182 0.713932 0.620805
0.180146 0.441760 0.583492
0.204189 0.463750 0.608541
0.282974 0.549496 0.653043
0.390560 0.620729 0.679620
0.529924 0.670698 0.676135
0.675395 0.688660 0.616031
0.765426 0.719569 0.617875
0.803936 0.738150 0.632576
0.826004 0.758373 0.659200
0.186643 0.501486 0.621047
0.222501 0.533172 0.641962
0.325851 0.637818 0.697985
0.415572 0.690781 0.725902
0.514393 0.713418 0.740393
0.661239 0.736569 0.660702
0.749247 0.764956 0.656562
0.807354 0.784247 0.676781
0.831552 0.795997 0.701630
0.194643 0.556380 0.656634
0.249931 0.601903 0.678304
0.347594 0.683917 0.727068
0.440546 0.730059 0.757479
0.537785 0.747278 0.776547
0.667190 0.787371 0.726002
0.760668 0.803960 0.695688
0.804909 0.825980 0.714294
0.836107 0.830983 0.737030
0.244808 0.606024 0.689488
0.316065 0.660453 0.719407
0.373607 0.710366 0.753332
0.460367 0.747679 0.780162
0.579562 0.771254 0.800971
0.703846 0.814042 0.749068
0.776368 0.834945 0.732575
0.816019 0.850145 0.742504
0.836029 0.859569 0.760264
0.234626 0.287834 0.609719
0.322876 0.287500 0.611986
0.393341 0.257892 0.619160
0.407730 0.207696 0.614671
0.428946 0.209306 0.606019
0.488341 0.235378 0.571480
0.560689 0.276780 0.530044
0.616794 0.328909 0.516249
0.661851 0.378292 0.524793
0.126651 0.304621 0.609791
0.309051 0.372565 0.624953
0.389827 0.381539 0.647269
0.449161 0.376139 0.663772
0.499341 0.344015 0.648363
0.556664 0.341965 0.597723
0.611130 0.379635 0.557837
0.650009 0.414037 0.542344
0.695202 0.454064 0.552023
0.106218 0.332517 0.613062
0.248510 0.398842 0.638292
0.389431 0.455959 0.652781
0.457658 0.475693 0.684324
0.532291 0.490232 0.657327
0.610416 0.478269 0.632363
0.658564 0.484678 0.592730
0.685399 0.487621 0.572784
0.746490 0.555669 0.594327
0.145695 0.383390 0.609424
0.200724 0.422171 0.642023
0.340582 0.480284 0.656341
0.471281 0.538712 0.680706
0.559321 0.583420 0.667433
0.649777 0.590612 0.639440
0.716963 0.597195 0.645444
0.736488 0.583738 0.616353
0.797241 0.664340 0.654003
0.172625 0.417873 0.612949
0.202629 0.444814 0.640850
0.289937 0.506951 0.664364
0.411294 0.560144 0.678832
0.566534 0.618305 0.695330
0.677747 0.667593 0.671570
0.755931 0.679292 0.676826
0.798309 0.704536 0.678586
0.824744 0.736973 0.701990
0.184999 0.449147 0.620947
0.214322 0.471898 0.644394
0.285252 0.535818 0.671738
0.371031 0.591847 0.693320
0.490669 0.645457 0.717198
0.687084 0.726136 0.711764
0.777720 0.747922 0.705423
0.816242 0.760608 0.708401
0.837015 0.783220 0.729246
0.190016 0.485852 0.637083
0.225900 0.507512 0.656740
0.300634 0.577115 0.695164
0.381140 0.644338 0.731954
0.503494 0.700127 0.757089
0.676936 0.764503 0.747589
0.764263 0.790725 0.726733
0.819321 0.808408 0.741447
0.844285 0.819062 0.761690
0.204602 0.523676 0.666870
0.248919 0.554070 0.685737
0.328446 0.624976 0.726367
0.427732 0.702303 0.766613
0.549278 0.745603 0.792239
0.685666 0.802593 0.806055
0.771842 0.822193 0.760566
0.811772 0.842422 0.768520
0.847212 0.852483 0.790212
0.259674 0.569261 0.700703
0.323265 0.626202 0.731550
0.386906 0.691022 0.767518
0.485907 0.741790 0.793238
0.610929 0.773886 0.816195
0.727342 0.831864 0.832553
0.792078 0.854024 0.799376
0.826569 0.864887 0.800282
0.848046 0.874093 0.813742
0.275909 0.347139 0.666329
0.367908 0.329420 0.669407
0.443659 0.306377 0.674251
0.456228 0.240385 0.665230
0.467957 0.228758 0.654478
0.500996 0.242488 0.633782
0.564334 0.276355 0.592763
0.629236 0.339660 0.581824
0.681530 0.414148 0.600018
0.200622 0.370672 0.685259
0.368404 0.419411 0.712455
0.441095 0.412209 0.722786
0.497128 0.401154 0.733909
0.530962 0.356671 0.707548
0.560951 0.336250 0.670264
0.611491 0.367536 0.633156
0.659283 0.419353 0.624703
0.711250 0.494116 0.637351
0.166152 0.382955 0.668899
0.307918 0.451146 0.692399
0.443588 0.495526 0.729497
0.501840 0.488007 0.763913
0.571415 0.476534 0.772773
0.624590 0.438832 0.741933
0.668232 0.469655 0.684502
0.708761 0.530065 0.663770
0.746218 0.587170 0.669344
0.177807 0.411281 0.660979
0.259020 0.469806 0.685868
0.386871 0.518657 0.698120
0.499012 0.563295 0.729577
0.576209 0.596415 0.744434
0.664340 0.599508 0.718034
0.714003 0.596020 0.704325
0.751373 0.631613 0.694647
0.780780 0.666514 0.708694
0.187429 0.437298 0.657797
0.236721 0.482572 0.682617
0.326390 0.539819 0.703148
0.447233 0.587755 0.718100
0.590105 0.644087 0.740312
0.684396 0.693933 0.727704
0.746164 0.707652 0.726722
0.792512 0.725044 0.744935
0.810405 0.727918 0.743080
0.192240 0.466081 0.662551
0.239405 0.500715 0.683801
0.306834 0.559464 0.707174
0.394516 0.609753 0.726249
0.529686 0.666719 0.755408
0.706451 0.742785 0.766606
0.771618 0.781121 0.767192
0.818835 0.788064 0.778506
0.845251 0.802085 0.786695
0.199614 0.493761 0.673983
0.254265 0.528171 0.693824
0.323557 0.586955 0.719357
0.402442 0.646610 0.750532
0.513157 0.699078 0.775135
0.655913 0.756570 0.801573
0.784716 0.825899 0.796596
0.832601 0.834589 0.800826
0.858970 0.841930 0.809160
0.236129 0.532523 0.696702
0.291135 0.569664 0.716027
0.358166 0.631865 0.750344
0.444304 0.691523 0.780864
0.560243 0.736172 0.803901
0.694921 0.795705 0.827625
0.795265 0.849808 0.816706
0.828908 0.864181 0.817684
0.861390 0.870265 0.830640
0.309404 0.588544 0.729335
0.364113 0.643675 0.761406
0.426369 0.690623 0.786823
0.515210 0.731625 0.805638
0.628278 0.767333 0.827411
0.749445 0.838261 0.851295
0.814343 0.870977 0.841799
0.838020 0.875821 0.835376
0.857676 0.883617 0.842870
0.348546 0.397920 0.736646
0.418989 0.377072 0.722996
0.486975 0.364180 0.725543
0.505788 0.290593 0.711186
0.519488 0.269741 0.699777
0.558447 0.287301 0.683403
0.613668 0.322544 0.658516
0.665591 0.375409 0.654278
0.716462 0.451038 0.684401
0.276249 0.433425 0.740695
0.423628 0.453554 0.782616
0.487680 0.433642 0.795272
0.543378 0.428512 0.805946
0.571702 0.390538 0.763033
0.596340 0.364856 0.718127
0.636352 0.383537 0.699561
0.685895 0.430930 0.699626
0.738219 0.527914 0.707973
0.228896 0.445229 0.706770
0.358418 0.497932 0.727893
0.492524 0.541443 0.776007
0.548779 0.527814 0.808975
0.618021 0.510465 0.818397
0.658993 0.451184 0.807229
0.692492 0.470730 0.775323
0.728707 0.538187 0.736121
0.765829 0.622224 0.720213
0.220264 0.458951 0.701493
0.313068 0.517680 0.720178
0.435816 0.561564 0.732691
0.552879 0.615042 0.769065
0.621916 0.640005 0.779315
0.701966 0.629674 0.771333
0.741879 0.608796 0.767676
0.770529 0.656118 0.744014
0.802766 0.700725 0.756688
0.219627 0.473533 0.698402
0.285365 0.532485 0.720211
0.379228 0.581942 0.736704
0.500092 0.627216 0.754593
0.630465 0.681428 0.778660
0.718122 0.731251 0.780488
0.775570 0.733461 0.775305
0.803581 0.737419 0.777527
0.826026 0.762522 0.790439
0.221369 0.495056 0.701970
0.282885 0.545479 0.721689
0.350766 0.598643 0.742933
0.442762 0.645874 0.761058
0.583137 0.702697 0.794318
0.737154 0.770801 0.800513
0.789081 0.809169 0.805298
0.820480 0.812619 0.810869
0.846611 0.825574 0.827907
0.238438 0.524069 0.712740
0.304570 0.573630 0.733309
0.369168 0.624537 0.755342
0.451897 0.673991 0.777537
0.571879 0.723926 0.803217
0.710276 0.786736 0.828431
0.805972 0.850890 0.834607
0.831555 0.860294 0.838395
0.861523 0.864573 0.845178
0.288705 0.567033 0.733470
0.344587 0.611188 0.753735
0.410949 0.660905 0.777696
0.502851 0.708812 0.798155
0.609253 0.748102 0.822632
0.719851 0.801787 0.843409
0.803103 0.865763 0.861086
0.842109 0.878120 0.853428
0.875818 0.881598 0.857742
0.360061 0.627757 0.765881
0.419499 0.672430 0.788187
0.491669 0.709310 0.804273
0.574935 0.742152 0.820548
0.667768 0.779723 0.847747
0.762451 0.836747 0.862148
0.822318 0.881610 0.869727
0.853347 0.888451 0.861190
0.872991 0.895279 0.865165
0.403931 0.427124 0.799286
0.459657 0.405531 0.773699
0.527362 0.405961 0.783862
0.545552 0.344863 0.754688
0.570677 0.325067 0.747763
0.622398 0.358166 0.732596
0.673319 0.387626 0.733012
0.721841 0.426519 0.759831
0.761536 0.499268 0.765289
0.340130 0.485728 0.764011
0.478896 0.503018 0.815393
0.527887 0.464308 0.842335
0.587663 0.465582 0.859941
0.614668 0.423772 0.825525
0.645805 0.411341 0.788924
0.696705 0.432464 0.795825
0.744391 0.496466 0.786728
0.778921 0.586416 0.760798
0.288317 0.497094 0.734817
0.415475 0.544724 0.751574
0.535899 0.590961 0.797940
0.589398 0.573855 0.834096
0.659521 0.571970 0.833961
0.698957 0.496152 0.848529
0.732328 0.519512 0.817383
0.767791 0.594823 0.775547
0.797674 0.663672 0.760752
0.265806 0.509513 0.733955
0.361032 0.560096 0.748307
0.484224 0.603508 0.762564
0.596366 0.656382 0.796737
0.666950 0.686943 0.801342
0.738827 0.673613 0.796056
0.775961 0.648085 0.798671
0.800435 0.692454 0.780703
0.819524 0.722635 0.785876
0.266738 0.522255 0.733856
0.334245 0.575422 0.751915
0.429570 0.621390 0.767290
0.552104 0.667891 0.789373
0.682902 0.727588 0.812974
0.756621 0.766119 0.810389
0.804909 0.758009 0.807808
0.825153 0.757451 0.810604
0.839034 0.778394 0.815963
0.275005 0.541600 0.738695
0.337831 0.594694 0.758712
0.407583 0.638456 0.775660
0.513276 0.686012 0.794073
0.646304 0.738715 0.828119
0.766909 0.799747 0.828622
0.813343 0.831081 0.837914
0.836912 0.835744 0.839869
0.852918 0.838186 0.844950
0.306440 0.575050 0.753560
0.363499 0.621765 0.772081
0.434019 0.664363 0.788596
0.530122 0.708606 0.806219
0.637833 0.755065 0.838653
0.756361 0.818190 0.850809
0.824359 0.867835 0.858958
0.843295 0.873545 0.858854
0.862681 0.874948 0.862270
0.356696 0.620195 0.774414
0.413913 0.659256 0.789934
0.493646 0.698445 0.804275
0.581018 0.737426 0.824021
0.671111 0.776971 0.853333
0.765832 0.832404 0.861698
0.827427 0.879668 0.872881
0.854413 0.887196 0.872990
0.872922 0.891569 0.873980
0.415619 0.663879 0.794434
0.487851 0.699585 0.807141
0.562723 0.733297 0.822415
0.633389 0.764242 0.846037
0.714141 0.802747 0.863331
0.789283 0.856901 0.874487
0.832915 0.890805 0.881608
0.858867 0.897795 0.884515
0.882843 0.904541 0.885223
