public/LUTs/X-8850-STD.cube
# Copyright: (C) Copyright 2010-2021 by IWLTBAP SAS
# Cannot be resold, shared or otherwise redistributed
# Website: https://luts.iwltbap.com
TITLE "IWLTBAP 8850 (Rec.709, sRGB, DCI-P3)"
LUT_3D_SIZE 5
0.071899 0.079559 0.094452
0.375180 0.067120 0.044065
0.542012 0.170373 0.074851
0.674445 0.318331 0.115230
0.794922 0.359009 0.102142
0.039487 0.376855 0.315808
0.369578 0.347687 0.154381
0.581339 0.373384 0.168466
0.734424 0.405488 0.119632
0.823987 0.450962 0.133880
0.160640 0.499784 0.420517
0.389825 0.536526 0.309706
0.588236 0.536533 0.288701
0.775491 0.513902 0.178100
0.848803 0.532308 0.159834
0.180544 0.574421 0.511412
0.348169 0.627468 0.483617
0.560149 0.594081 0.245792
0.783741 0.606437 0.166179
0.876142 0.608818 0.180467
0.239166 0.658661 0.651703
0.364464 0.715249 0.680052
0.571484 0.675048 0.407988
0.814774 0.664345 0.179617
0.871307 0.670715 0.216644
0.140983 0.201000 0.340238
0.364493 0.264429 0.315078
0.510681 0.265387 0.301863
0.650510 0.360712 0.313523
0.750988 0.419694 0.300768
0.052920 0.327030 0.424172
0.369748 0.407644 0.461161
0.621726 0.456146 0.378411
0.710213 0.478660 0.319750
0.767593 0.533555 0.377249
0.146923 0.443412 0.517781
0.316537 0.567865 0.585854
0.579984 0.575816 0.441074
0.743269 0.585548 0.408989
0.803184 0.606923 0.397230
0.181725 0.596114 0.607559
0.349690 0.686028 0.669342
0.544862 0.694783 0.549915
0.740451 0.702983 0.512578
0.806825 0.722684 0.535424
0.223878 0.646687 0.669968
0.355791 0.730301 0.729418
0.511053 0.755735 0.710297
0.759877 0.732591 0.487383
0.811348 0.775034 0.566796
0.200144 0.234774 0.534300
0.357522 0.235762 0.566202
0.450942 0.217189 0.523615
0.570662 0.296527 0.442452
0.714017 0.415517 0.450793
0.076133 0.312219 0.549091
0.366044 0.435973 0.602568
0.541675 0.489890 0.569576
0.677620 0.479360 0.507612
0.773786 0.587350 0.538296
0.154236 0.400785 0.567303
0.268675 0.493369 0.620992
0.567963 0.616743 0.631218
0.761560 0.649289 0.569643
0.815182 0.713932 0.620805
0.186643 0.501486 0.621047
0.325851 0.637818 0.697985
0.514393 0.713418 0.740393
0.749247 0.764956 0.656562
0.831552 0.795997 0.701630
0.244808 0.606024 0.689488
0.373607 0.710366 0.753332
0.579562 0.771254 0.800971
0.776368 0.834945 0.732575
0.836029 0.859569 0.760264
0.275909 0.347139 0.666329
0.443659 0.306377 0.674251
0.467957 0.228758 0.654478
0.564334 0.276355 0.592763
0.681530 0.414148 0.600018
0.166152 0.382955 0.668899
0.443588 0.495526 0.729497
0.571415 0.476534 0.772773
0.668232 0.469655 0.684502
0.746218 0.587170 0.669344
0.187429 0.437298 0.657797
0.326390 0.539819 0.703148
0.590105 0.644087 0.740312
0.746164 0.707652 0.726722
0.810405 0.727918 0.743080
0.199614 0.493761 0.673983
0.323557 0.586955 0.719357
0.513157 0.699078 0.775135
0.784716 0.825899 0.796596
0.858970 0.841930 0.809160
0.309404 0.588544 0.729335
0.426369 0.690623 0.786823
0.628278 0.767333 0.827411
0.814343 0.870977 0.841799
0.857676 0.883617 0.842870
0.403931 0.427124 0.799286
0.527362 0.405961 0.783862
0.570677 0.325067 0.747763
0.673319 0.387626 0.733012
0.761536 0.499268 0.765289
0.288317 0.497094 0.734817
0.535899 0.590961 0.797940
0.659521 0.571970 0.833961
0.732328 0.519512 0.817383
0.797674 0.663672 0.760752
0.266738 0.522255 0.733856
0.429570 0.621390 0.767290
0.682902 0.727588 0.812974
0.804909 0.758009 0.807808
0.839034 0.778394 0.815963
0.306440 0.575050 0.753560
0.434019 0.664363 0.788596
0.637833 0.755065 0.838653
0.824359 0.867835 0.858958
0.862681 0.874948 0.862270
0.415619 0.663879 0.794434
0.562723 0.733297 0.822415
0.714141 0.802747 0.863331
0.832915 0.890805 0.881608
0.882843 0.904541 0.885223
