public/LUTs/X-9810-STD.cube
# Copyright: (C) Copyright 2010-2021 by IWLTBAP SAS
# Cannot be resold, shared or otherwise redistributed
# Website: https://luts.iwltbap.com
TITLE "IWLTBAP 9810 (Rec.709, sRGB, DCI-P3)"
LUT_3D_SIZE 9
0.049683 0.010254 0.058655
0.141144 0.044006 0.060455
0.283813 0.074158 0.091736
0.428436 0.086090 0.104919
0.572144 0.094696 0.113983
0.714966 0.119751 0.135406
0.851532 0.171021 0.183075
0.977539 0.255035 0.264526
1.000000 0.509399 0.521576
0.022095 0.077637 0.127808
0.147797 0.113953 0.070007
0.287354 0.124329 0.090881
0.431061 0.113953 0.104919
0.574615 0.096741 0.114319
0.716827 0.120087 0.135986
0.852905 0.171722 0.183746
0.978516 0.255951 0.265381
1.000000 0.510223 0.522705
0.062225 0.164856 0.143127
0.146973 0.184998 0.130585
0.290070 0.233582 0.106781
0.429077 0.248383 0.101868
0.573578 0.241028 0.113983
0.717102 0.228577 0.138611
0.854095 0.226196 0.186707
0.980682 0.266785 0.268066
1.000000 0.514191 0.526733
0.104156 0.244019 0.182007
0.148865 0.265228 0.182220
0.311798 0.312744 0.155182
0.424255 0.356537 0.143127
0.568390 0.375671 0.133911
0.711578 0.375183 0.143127
0.848938 0.373596 0.196564
0.977142 0.390717 0.281189
1.000000 0.553741 0.536926
0.132111 0.302948 0.219086
0.183716 0.325439 0.216766
0.289948 0.372925 0.199341
0.440765 0.433044 0.190674
0.556396 0.475433 0.188995
0.700745 0.498810 0.191895
0.842407 0.509308 0.222076
0.970886 0.521759 0.303558
1.000000 0.621704 0.553223
0.157196 0.368744 0.270599
0.218201 0.392609 0.264679
0.328339 0.449097 0.244812
0.442474 0.511566 0.236237
0.569458 0.558990 0.237030
0.694489 0.599884 0.250671
0.832306 0.624939 0.281738
0.961426 0.643463 0.349670
1.000000 0.701721 0.578156
0.197754 0.444641 0.325470
0.223969 0.460968 0.343658
0.350586 0.528076 0.287384
0.458466 0.589142 0.272247
0.578247 0.648529 0.284637
0.712830 0.690277 0.304169
0.828125 0.718597 0.338257
0.951233 0.742767 0.407501
1.000000 0.783936 0.618103
0.246216 0.516541 0.380249
0.248230 0.521271 0.422241
0.280640 0.547272 0.437988
0.455658 0.646973 0.353729
0.592468 0.706238 0.320831
0.728424 0.756256 0.345520
0.841522 0.796417 0.390564
0.945679 0.826416 0.465973
1.000000 0.855957 0.655914
0.281342 0.608337 0.484680
0.305603 0.625549 0.518677
0.372559 0.660736 0.516479
0.496887 0.688171 0.461700
0.626129 0.762604 0.408844
0.756348 0.818298 0.396942
0.864838 0.857147 0.441650
0.952118 0.895782 0.520966
1.000000 0.919830 0.694824
0.000000 0.056824 0.137146
0.134796 0.029968 0.137726
0.277954 0.062805 0.137146
0.424652 0.081970 0.138306
0.570465 0.093445 0.125916
0.714081 0.119415 0.135406
0.850861 0.170776 0.182861
0.977081 0.254761 0.264252
1.000000 0.509003 0.521027
0.000000 0.101074 0.167969
0.105652 0.120087 0.167236
0.280121 0.129028 0.146423
0.426117 0.123352 0.147247
0.572205 0.104523 0.135071
0.715912 0.120087 0.135986
0.852264 0.171478 0.183533
0.978119 0.255646 0.265106
1.000000 0.509857 0.522125
0.030731 0.173981 0.208710
0.118073 0.209473 0.190033
0.284210 0.242462 0.171234
0.423279 0.250519 0.165802
0.569916 0.246216 0.157959
0.714996 0.236053 0.151764
0.852997 0.233765 0.186707
0.979919 0.271118 0.267914
1.000000 0.513763 0.526184
0.093018 0.252167 0.224152
0.132690 0.276611 0.239288
0.278381 0.316010 0.225189
0.421722 0.363861 0.202057
0.564240 0.377167 0.193939
0.708130 0.377533 0.188995
0.847168 0.377533 0.208160
0.976318 0.394714 0.281189
1.000000 0.554565 0.536072
0.118439 0.316254 0.270569
0.156952 0.341736 0.295532
0.257843 0.378571 0.274994
0.439606 0.441925 0.250824
0.555420 0.481018 0.238159
0.697540 0.500610 0.238464
0.839600 0.510284 0.256226
0.969177 0.523804 0.315308
1.000000 0.622650 0.552490
0.154633 0.394043 0.319916
0.182861 0.418549 0.365051
0.258148 0.442383 0.360138
0.412964 0.507385 0.308350
0.571411 0.567841 0.285522
0.694611 0.606323 0.290436
0.829742 0.627808 0.313690
0.959229 0.644012 0.369598
1.000000 0.702179 0.582367
0.209473 0.464630 0.362915
0.223816 0.491119 0.425140
0.293365 0.520813 0.435883
0.440399 0.585266 0.376984
0.572083 0.656158 0.349548
0.707825 0.699402 0.345734
0.829315 0.727814 0.369476
0.947876 0.747711 0.428619
1.000000 0.784302 0.622375
0.250366 0.539307 0.416992
0.269745 0.564178 0.480316
0.313782 0.598297 0.510162
0.443542 0.650208 0.451813
0.592621 0.729004 0.394470
0.718018 0.781372 0.395355
0.835602 0.814331 0.426605
0.941986 0.837250 0.489777
1.000000 0.858673 0.660217
0.282257 0.622772 0.512360
0.318085 0.647797 0.556366
0.356262 0.673737 0.582184
0.417053 0.694702 0.577271
0.561096 0.748199 0.511322
0.729401 0.817841 0.461426
0.847626 0.873871 0.478241
0.951569 0.908173 0.548981
1.000000 0.925262 0.706146
0.000000 0.107147 0.203979
0.000000 0.120422 0.245422
0.214783 0.076660 0.248077
0.399658 0.045471 0.256958
0.553741 0.076660 0.257263
0.702301 0.110809 0.253540
0.843567 0.167267 0.255920
0.973236 0.253113 0.292236
1.000000 0.506042 0.520020
0.000000 0.152039 0.241364
0.000000 0.179352 0.281860
0.228088 0.151764 0.265503
0.410126 0.137726 0.262787
0.554840 0.125275 0.262360
0.703461 0.116364 0.259308
0.844452 0.167725 0.261780
0.973877 0.253845 0.296906
1.000000 0.507080 0.522186
0.007874 0.198151 0.276215
0.024445 0.236053 0.310150
0.181122 0.245911 0.307404
0.405945 0.255920 0.276337
0.554382 0.253693 0.274567
0.701874 0.248077 0.272522
0.843201 0.248535 0.276215
0.974030 0.282776 0.309784
1.000000 0.512085 0.529144
0.033905 0.245422 0.314270
0.099518 0.288635 0.343323
0.238953 0.330109 0.307892
0.405945 0.369598 0.294373
0.552063 0.378571 0.293640
0.696808 0.380798 0.293488
0.837250 0.383545 0.300720
0.969177 0.402435 0.336426
1.000000 0.555084 0.542023
0.119751 0.310486 0.343536
0.175110 0.355743 0.362305
0.229767 0.393677 0.356232
0.413055 0.444397 0.344696
0.548523 0.486725 0.324005
0.689911 0.502380 0.324768
0.831177 0.511932 0.334595
0.961945 0.527100 0.374054
1.000000 0.623016 0.564331
0.157196 0.406555 0.361145
0.196564 0.441711 0.397797
0.251740 0.470490 0.426361
0.386108 0.518616 0.395782
0.560760 0.570618 0.372253
0.689087 0.607880 0.365417
0.823029 0.626648 0.379761
0.953247 0.645020 0.418854
1.000000 0.702606 0.596008
0.215149 0.479706 0.399048
0.240387 0.511444 0.454346
0.290833 0.555542 0.499725
0.404327 0.606323 0.468201
0.549377 0.648224 0.428833
0.700867 0.695190 0.414734
0.818878 0.724884 0.427460
0.941803 0.746765 0.471893
1.000000 0.785675 0.636078
0.255798 0.560028 0.455688
0.282776 0.585663 0.514191
0.339417 0.631165 0.562805
0.434387 0.669342 0.540405
0.580841 0.717957 0.487762
0.710419 0.771240 0.471039
0.827057 0.811005 0.481934
0.933563 0.837738 0.527832
1.000000 0.861755 0.677429
0.289948 0.633545 0.540802
0.325348 0.659729 0.579742
0.376312 0.697784 0.619354
0.432556 0.718994 0.625977
0.573456 0.767517 0.574524
0.713837 0.823700 0.523560
0.840088 0.878510 0.530792
0.942932 0.915009 0.584137
1.000000 0.930328 0.724365
0.000000 0.135681 0.274841
0.000000 0.148071 0.315308
0.000000 0.137726 0.355835
0.273895 0.120087 0.351990
0.493896 0.083801 0.360626
0.663086 0.068939 0.372742
0.821991 0.157471 0.388550
0.956940 0.248535 0.406891
1.000000 0.495087 0.551727
0.000000 0.192505 0.295135
0.000000 0.186493 0.322876
0.088257 0.176239 0.383087
0.358154 0.173523 0.359344
0.523132 0.166779 0.374542
0.672302 0.151520 0.382996
0.823090 0.166534 0.392151
0.957520 0.249451 0.410126
1.000000 0.495819 0.553925
0.008667 0.232758 0.320709
0.011047 0.262054 0.356842
0.061035 0.272644 0.391785
0.364166 0.275787 0.387390
0.526550 0.272919 0.390808
0.670380 0.273071 0.395599
0.821930 0.270294 0.400513
0.956757 0.301605 0.419281
1.000000 0.506165 0.560944
0.030731 0.271118 0.351074
0.038635 0.304993 0.389374
0.151245 0.344055 0.417694
0.344055 0.370148 0.416046
0.525696 0.382904 0.402161
0.671478 0.390350 0.409363
0.818817 0.392609 0.414215
0.953461 0.413544 0.436584
1.000000 0.554840 0.574463
0.104523 0.329346 0.387482
0.155151 0.369598 0.424164
0.238464 0.414886 0.440552
0.386108 0.457001 0.426270
0.527466 0.489319 0.417877
0.674469 0.503418 0.425140
0.816315 0.514252 0.434784
0.948700 0.531952 0.461700
1.000000 0.623047 0.594788
0.190277 0.409973 0.415833
0.232758 0.452179 0.443939
0.287231 0.488770 0.470154
0.372650 0.536530 0.468994
0.541290 0.575012 0.456573
0.676880 0.611755 0.451874
0.812256 0.628052 0.465179
0.942688 0.646698 0.493225
1.000000 0.703918 0.624939
0.218903 0.487610 0.436188
0.257538 0.526062 0.477386
0.317841 0.571625 0.526001
0.394470 0.626099 0.537567
0.540375 0.659760 0.504089
0.690186 0.697784 0.493103
0.809875 0.728119 0.501495
0.932892 0.749451 0.535706
1.000000 0.788696 0.664337
0.259186 0.572144 0.490601
0.294769 0.601776 0.539795
0.354340 0.647583 0.591644
0.429626 0.689545 0.603394
0.572418 0.731842 0.565369
0.694366 0.772827 0.545166
0.819824 0.812897 0.549103
0.927856 0.841888 0.582581
1.000000 0.867218 0.706055
0.300873 0.646393 0.566528
0.341217 0.677643 0.608093
0.392426 0.714996 0.647980
0.454437 0.743164 0.671356
0.595367 0.789215 0.639038
0.722778 0.836639 0.593842
0.839569 0.888062 0.595673
0.940765 0.922058 0.635162
1.000000 0.937195 0.752106
0.000000 0.161713 0.344910
0.000000 0.172638 0.371307
0.000000 0.169861 0.402344
0.190247 0.164154 0.424011
0.411804 0.146729 0.429260
0.597992 0.128418 0.457153
0.766754 0.129028 0.481232
0.916168 0.225189 0.507843
1.000000 0.469727 0.600830
0.000000 0.212036 0.344879
0.000000 0.193939 0.375275
0.000000 0.198151 0.449402
0.208710 0.203033 0.460693
0.447815 0.203796 0.458710
0.623413 0.204742 0.478149
0.775177 0.194550 0.492401
0.923065 0.252014 0.517944
1.000000 0.472198 0.603394
0.003937 0.267212 0.369965
0.000000 0.287872 0.406464
0.116028 0.300476 0.452484
0.296265 0.297638 0.480865
0.485504 0.300110 0.476685
0.633362 0.304260 0.502563
0.787079 0.302216 0.514252
0.924622 0.330231 0.529755
1.000000 0.495819 0.609833
0.033905 0.309906 0.400085
0.019714 0.330780 0.440460
0.138855 0.375488 0.477051
0.274170 0.394379 0.514496
0.496216 0.394623 0.501190
0.648071 0.402588 0.512360
0.788177 0.413300 0.522705
0.925262 0.431000 0.542908
1.000000 0.548035 0.621704
0.113953 0.360626 0.426605
0.146698 0.393036 0.466827
0.199921 0.428925 0.503479
0.318665 0.471344 0.531708
0.480194 0.493408 0.523438
0.655304 0.508026 0.523132
0.793427 0.520691 0.540344
0.925629 0.538544 0.560760
1.000000 0.620453 0.639893
0.191498 0.430206 0.458710
0.220490 0.464813 0.500000
0.268890 0.506287 0.535217
0.375275 0.550446 0.547974
0.511444 0.580872 0.545319
0.662109 0.612518 0.542236
0.797791 0.628326 0.559387
0.924347 0.646973 0.582581
1.000000 0.703857 0.666168
0.250366 0.494629 0.492767
0.282379 0.533905 0.529480
0.330231 0.584412 0.571014
0.392670 0.638550 0.586182
0.520935 0.671936 0.584320
0.672394 0.702179 0.577942
0.795990 0.733673 0.584045
0.922516 0.752777 0.611725
1.000000 0.791626 0.702606
0.286957 0.576843 0.526245
0.328339 0.614868 0.565796
0.390533 0.659760 0.627075
0.430511 0.703857 0.648224
0.556732 0.750549 0.647125
0.692200 0.784668 0.624908
0.812256 0.818970 0.624359
0.920319 0.847473 0.650482
1.000000 0.874115 0.745819
0.316010 0.660431 0.594299
0.360809 0.697266 0.635315
0.431610 0.728485 0.678436
0.476715 0.760162 0.707001
0.591278 0.814545 0.712616
0.725250 0.856537 0.680908
0.835876 0.899292 0.675476
0.935608 0.928894 0.700165
1.000000 0.945740 0.789825
0.000000 0.192719 0.413818
0.000000 0.196564 0.433533
0.040985 0.198761 0.473053
0.194550 0.197174 0.478333
0.344696 0.194153 0.495026
0.530365 0.183289 0.518951
0.701416 0.183075 0.555725
0.863861 0.217133 0.592834
1.000000 0.328033 0.636383
0.000000 0.244812 0.403473
0.000000 0.220306 0.436188
0.090424 0.237030 0.510559
0.198944 0.242462 0.531677
0.339081 0.248535 0.545502
0.545380 0.246979 0.557434
0.718536 0.251434 0.580444
0.874756 0.272247 0.609619
1.000000 0.370361 0.644836
0.000000 0.313446 0.435669
0.000000 0.318420 0.467987
0.113953 0.309784 0.514954
0.234070 0.316589 0.561890
0.353333 0.318420 0.576172
0.571350 0.332855 0.584045
0.737396 0.339081 0.605713
0.885712 0.348328 0.623016
1.000000 0.437988 0.656860
0.051666 0.365143 0.459442
0.087372 0.387665 0.501251
0.178040 0.410614 0.538513
0.286041 0.422882 0.582520
0.410461 0.411530 0.606384
0.609711 0.419098 0.601257
0.762939 0.431213 0.624695
0.898102 0.444244 0.638062
1.000000 0.512787 0.670044
0.151520 0.412720 0.481293
0.170990 0.438904 0.523193
0.213318 0.469055 0.561951
0.294769 0.503815 0.604462
0.419617 0.517731 0.633179
0.633911 0.516724 0.625061
0.784058 0.528198 0.638123
0.901459 0.550018 0.652649
1.000000 0.599060 0.689606
0.201477 0.459076 0.505371
0.226898 0.494141 0.546387
0.270569 0.531830 0.584808
0.333282 0.566376 0.626648
0.439056 0.595490 0.653442
0.615082 0.622650 0.650299
0.784912 0.638611 0.653473
0.905151 0.653961 0.675720
1.000000 0.692657 0.715271
0.250977 0.518433 0.546967
0.281586 0.557892 0.582947
0.323334 0.600189 0.626526
0.392944 0.639771 0.662811
0.484802 0.675140 0.679657
0.650574 0.707245 0.674286
0.778625 0.739471 0.673431
0.908264 0.755249 0.698364
1.000000 0.788391 0.748230
0.293152 0.592255 0.596588
0.329132 0.631500 0.629303
0.378387 0.675232 0.673523
0.445312 0.716003 0.704773
0.515533 0.764282 0.713257
0.680634 0.799316 0.713013
0.802795 0.828156 0.709137
0.909546 0.855042 0.726288
1.000000 0.880737 0.791748
0.342499 0.672485 0.653870
0.388763 0.714996 0.685974
0.431702 0.749023 0.727539
0.479767 0.780273 0.766846
0.554382 0.836823 0.776093
0.688751 0.882538 0.771790
0.826294 0.913208 0.755798
0.930206 0.937500 0.769226
1.000000 0.955505 0.836395
0.000000 0.230103 0.484131
0.000000 0.229431 0.529114
0.137421 0.235077 0.541046
0.216400 0.237518 0.541473
0.308014 0.238800 0.562469
0.457916 0.238159 0.591248
0.641449 0.232269 0.617645
0.808563 0.255035 0.665924
0.961456 0.329468 0.717712
0.000000 0.300964 0.478180
0.018921 0.282898 0.547791
0.177368 0.291473 0.584412
0.246521 0.299622 0.605499
0.333710 0.307648 0.626068
0.500458 0.306671 0.641449
0.670746 0.304504 0.658295
0.831818 0.318207 0.693481
0.970245 0.370911 0.729584
0.005524 0.376709 0.514893
0.074646 0.375397 0.546143
0.186066 0.355347 0.596741
0.268890 0.369293 0.638031
0.337799 0.370544 0.668854
0.492737 0.372253 0.691071
0.695648 0.371490 0.687744
0.847504 0.386658 0.711700
0.979187 0.429779 0.739960
0.123688 0.429962 0.534393
0.153870 0.453003 0.571869
0.208710 0.450836 0.615570
0.266937 0.416412 0.655914
0.353210 0.420929 0.708374
0.490997 0.422638 0.730713
0.722260 0.440094 0.712891
0.862854 0.465179 0.728394
0.988037 0.501648 0.749695
0.173981 0.469299 0.550781
0.201660 0.500854 0.588562
0.243866 0.527222 0.626190
0.313446 0.541046 0.674408
0.373596 0.529388 0.723541
0.552765 0.502625 0.759705
0.756378 0.534027 0.734467
0.882202 0.562073 0.750000
0.998230 0.591980 0.766571
0.212250 0.506622 0.573700
0.240723 0.543488 0.611298
0.289673 0.577209 0.650238
0.331329 0.603790 0.693542
0.413208 0.627869 0.735474
0.579620 0.652863 0.765991
0.768402 0.650421 0.758545
0.898346 0.664459 0.768646
1.000000 0.696228 0.785278
0.243408 0.551208 0.608551
0.278900 0.591034 0.641815
0.333160 0.631805 0.682770
0.378021 0.660217 0.723541
0.435577 0.694183 0.764465
0.576477 0.724976 0.798431
0.739746 0.753967 0.790955
0.898926 0.767670 0.786743
1.000000 0.792084 0.817047
0.279053 0.618195 0.660370
0.328796 0.662537 0.694672
0.380524 0.702057 0.735809
0.419128 0.730560 0.775970
0.477539 0.771545 0.808594
0.611298 0.807678 0.831024
0.779846 0.836273 0.808563
0.892273 0.863739 0.809540
1.000000 0.884399 0.848846
0.335022 0.702179 0.722748
0.381256 0.743866 0.758698
0.418396 0.775360 0.794464
0.463013 0.801849 0.826416
0.550018 0.849609 0.848755
0.662354 0.891571 0.851593
0.798309 0.926758 0.845154
0.922577 0.945953 0.844025
1.000000 0.965271 0.888153
0.000000 0.280518 0.564789
0.060455 0.276215 0.613495
0.192505 0.285278 0.627563
0.249908 0.290466 0.631073
0.307190 0.294525 0.645844
0.420349 0.296021 0.676575
0.625702 0.288269 0.693329
0.774597 0.301483 0.735870
0.920654 0.353027 0.790375
0.000000 0.360718 0.568726
0.137695 0.351196 0.644257
0.236542 0.347809 0.672821
0.296387 0.354431 0.696686
0.345734 0.365906 0.727325
0.466492 0.361816 0.749207
0.660980 0.354431 0.745880
0.801025 0.358032 0.767700
0.931122 0.394135 0.806213
0.000000 0.438446 0.606232
0.086945 0.421814 0.655609
0.243256 0.414154 0.705963
0.313904 0.413574 0.728485
0.359863 0.414978 0.771698
0.495148 0.409698 0.795288
0.690796 0.405273 0.787109
0.815308 0.412903 0.800171
0.940704 0.447754 0.828064
0.130280 0.490326 0.618469
0.172607 0.500336 0.660797
0.221375 0.484741 0.722229
0.300476 0.456787 0.762146
0.373230 0.460968 0.808472
0.520386 0.450317 0.837372
0.708679 0.451874 0.826324
0.831635 0.471222 0.829559
0.950958 0.515839 0.850220
0.171722 0.525055 0.634094
0.216583 0.554962 0.670227
0.281586 0.575500 0.712280
0.323212 0.567780 0.771149
0.363586 0.535706 0.828339
0.535461 0.532501 0.876740
0.711914 0.530304 0.866455
0.849579 0.559174 0.855377
0.967255 0.598572 0.864563
0.204956 0.559296 0.654968
0.248840 0.598419 0.691315
0.315063 0.631805 0.728607
0.354736 0.658600 0.768646
0.427307 0.674377 0.824951
0.551361 0.678711 0.871857
0.742157 0.655365 0.875031
0.877350 0.670654 0.864258
0.988068 0.700897 0.876221
0.232941 0.603180 0.685577
0.287231 0.647675 0.721771
0.354736 0.683685 0.759125
0.385132 0.711578 0.798340
0.434326 0.739044 0.843353
0.595490 0.762146 0.887543
0.724762 0.784851 0.894287
0.889893 0.775543 0.887085
1.000000 0.798798 0.897491
0.265106 0.658508 0.726318
0.329895 0.705383 0.763550
0.386841 0.738586 0.798950
0.413147 0.765259 0.833405
0.476685 0.797974 0.871582
0.598846 0.829102 0.907013
0.750702 0.850159 0.923767
0.869812 0.876160 0.908203
1.000000 0.891602 0.914215
0.323792 0.745117 0.789154
0.374542 0.779114 0.820282
0.411377 0.806793 0.849579
0.483429 0.830505 0.879303
0.547699 0.863342 0.907501
0.631897 0.901733 0.932434
0.770996 0.930481 0.935303
0.909698 0.953735 0.921692
0.997467 0.973938 0.942078
0.000000 0.343536 0.687561
0.194153 0.326019 0.695831
0.281189 0.340607 0.718079
0.329132 0.355743 0.746429
0.363190 0.367493 0.777985
0.450592 0.359863 0.815002
0.630920 0.356659 0.813934
0.765991 0.356445 0.830078
0.890961 0.378845 0.867920
0.000000 0.420197 0.692535
0.206451 0.411133 0.739319
0.292114 0.389282 0.764557
0.345123 0.397552 0.796844
0.386139 0.401062 0.832092
0.519104 0.396240 0.849426
0.658600 0.394745 0.839874
0.787628 0.394836 0.853882
0.900787 0.416809 0.890198
0.000000 0.470703 0.717560
0.154633 0.473755 0.766022
0.289673 0.459595 0.786896
0.358368 0.449097 0.822540
0.441376 0.436981 0.866364
0.575439 0.433990 0.875488
0.700470 0.435028 0.869843
0.803131 0.441956 0.888336
0.911865 0.468781 0.911499
0.014191 0.531708 0.721710
0.208893 0.540466 0.768555
0.267212 0.544617 0.812927
0.348419 0.522400 0.852448
0.470551 0.498627 0.890869
0.602966 0.481171 0.905609
0.733337 0.487823 0.903717
0.825287 0.504730 0.916687
0.927979 0.533417 0.928833
0.147797 0.579742 0.727020
0.255615 0.604523 0.765961
0.328125 0.622559 0.806580
0.375671 0.636047 0.853149
0.503021 0.624695 0.903717
0.632629 0.587646 0.929962
0.759064 0.577728 0.930237
0.854218 0.591858 0.932281
0.951538 0.618713 0.939728
0.200714 0.625793 0.741577
0.290192 0.661102 0.777405
0.350281 0.687195 0.814606
0.399475 0.711365 0.850891
0.536957 0.731720 0.894409
0.632233 0.717163 0.929596
0.786041 0.689758 0.935425
0.879822 0.690216 0.941376
0.972687 0.713074 0.949860
0.232605 0.671387 0.771179
0.310486 0.708496 0.805634
0.359467 0.738251 0.839325
0.389740 0.765320 0.870544
0.505890 0.792786 0.905731
0.623810 0.804260 0.946167
0.749969 0.805511 0.959351
0.890686 0.782532 0.959961
0.991425 0.799042 0.969849
0.265808 0.726166 0.809113
0.340698 0.760742 0.839966
0.382019 0.788727 0.868378
0.444397 0.814209 0.896973
0.522583 0.839935 0.926727
0.608398 0.863586 0.962585
0.747223 0.878815 0.987305
0.861664 0.893677 0.988281
1.000000 0.887695 0.989319
0.310638 0.783478 0.846832
0.364471 0.812775 0.874542
0.443787 0.836548 0.900970
0.506226 0.857544 0.923767
0.571014 0.881989 0.947876
0.622803 0.917542 0.980499
0.752777 0.942352 1.000000
0.892090 0.958130 1.000000
0.993622 0.976562 0.998169
