public/LUTs/X-9810-STD.cube
# Copyright: (C) Copyright 2010-2021 by IWLTBAP SAS
# Cannot be resold, shared or otherwise redistributed
# Website: https://luts.iwltbap.com
TITLE "IWLTBAP 9810 (Rec.709, sRGB, DCI-P3)"
LUT_3D_SIZE 33
0.049683 0.010254 0.058655
0.052979 0.006317 0.018158
0.079559 0.019714 0.034698
0.109344 0.031525 0.048981
0.141144 0.044006 0.060455
0.175812 0.053650 0.070526
0.211121 0.061646 0.079102
0.247284 0.068390 0.086060
0.283813 0.074158 0.091736
0.320251 0.078125 0.096313
0.356354 0.081024 0.099915
0.392334 0.083801 0.102631
0.428436 0.086090 0.104919
0.464600 0.087860 0.107147
0.500580 0.089600 0.109344
0.536407 0.091736 0.111511
0.572144 0.094696 0.113983
0.607727 0.098724 0.117401
0.643585 0.104156 0.122070
0.679413 0.111145 0.128113
0.714966 0.119751 0.135406
0.750183 0.130280 0.144806
0.784454 0.141724 0.155426
0.818237 0.155182 0.168213
0.851532 0.171021 0.183075
0.884247 0.188812 0.200134
0.916168 0.208923 0.219452
0.947327 0.230957 0.240875
0.977539 0.255035 0.264526
1.000000 0.291351 0.300629
1.000000 0.379700 0.390106
1.000000 0.449097 0.460632
1.000000 0.509399 0.521576
0.068390 0.040222 0.106384
0.056183 0.029968 0.033142
0.080994 0.028381 0.037048
0.111145 0.036255 0.050354
0.143127 0.046875 0.061035
0.177368 0.054932 0.070526
0.212585 0.062225 0.079102
0.248535 0.068939 0.086060
0.284760 0.074158 0.091736
0.321045 0.078125 0.096710
0.357147 0.081482 0.099915
0.393036 0.083801 0.102631
0.429077 0.086090 0.104919
0.465118 0.087860 0.107147
0.501129 0.089600 0.109344
0.536896 0.091736 0.111511
0.572571 0.094696 0.113983
0.608093 0.098724 0.117401
0.643982 0.104553 0.122070
0.679779 0.111145 0.128113
0.715271 0.119751 0.135681
0.750427 0.130280 0.144806
0.784668 0.141724 0.155670
0.818512 0.155426 0.168457
0.851746 0.171234 0.183289
0.884430 0.189026 0.200317
0.916351 0.208923 0.219452
0.947510 0.230957 0.240875
0.977661 0.255188 0.264679
1.000000 0.291992 0.301239
1.000000 0.380157 0.390564
1.000000 0.449402 0.460907
1.000000 0.509521 0.521698
0.062225 0.048279 0.109344
0.080994 0.051025 0.085175
0.082886 0.056824 0.047577
0.111145 0.058044 0.051666
0.144226 0.062225 0.061646
0.178711 0.066742 0.071045
0.213867 0.071045 0.079559
0.249603 0.074158 0.086060
0.285797 0.076660 0.091736
0.322083 0.079102 0.096710
0.357941 0.081482 0.099915
0.393829 0.083801 0.102631
0.429779 0.086090 0.105286
0.465759 0.087860 0.107147
0.501648 0.089600 0.109344
0.537445 0.092163 0.111511
0.572998 0.094696 0.114319
0.608582 0.098724 0.117401
0.644409 0.104553 0.122070
0.680145 0.111511 0.128113
0.715637 0.120087 0.135681
0.750824 0.130280 0.144806
0.785004 0.142029 0.155670
0.818756 0.155426 0.168457
0.852051 0.171234 0.183289
0.884644 0.189240 0.200317
0.916595 0.209106 0.219635
0.947754 0.231293 0.241211
0.977905 0.255341 0.264801
1.000000 0.292633 0.301849
1.000000 0.380615 0.390991
1.000000 0.449799 0.461273
1.000000 0.509705 0.521942
0.029175 0.063934 0.118073
0.073639 0.061035 0.113617
0.085175 0.077148 0.070526
0.112915 0.085175 0.059265
0.145050 0.089142 0.063385
0.179810 0.092163 0.071564
0.215149 0.094238 0.079559
0.250824 0.095490 0.086060
0.286713 0.095886 0.091736
0.322754 0.095093 0.096313
0.358643 0.092987 0.099915
0.394623 0.090881 0.102631
0.430664 0.088715 0.105286
0.466705 0.088287 0.107147
0.502502 0.089600 0.109344
0.538177 0.092163 0.111511
0.573730 0.095093 0.114319
0.609222 0.098724 0.117737
0.645020 0.104553 0.122406
0.680725 0.111511 0.128113
0.716125 0.120087 0.135986
0.751282 0.130585 0.145081
0.785492 0.142029 0.155945
0.819183 0.155670 0.168671
0.852417 0.171478 0.183533
0.885040 0.189423 0.200714
0.916901 0.209290 0.219788
0.948029 0.231445 0.241364
0.978149 0.255646 0.265106
1.000000 0.293518 0.302826
1.000000 0.381256 0.391724
1.000000 0.450317 0.461853
1.000000 0.509979 0.522278
0.022095 0.077637 0.127808
0.047577 0.081482 0.125580
0.088287 0.088287 0.089600
0.114990 0.102997 0.074646
0.147797 0.113953 0.070007
0.181763 0.119751 0.073120
0.216034 0.123016 0.079102
0.251740 0.123993 0.085602
0.287354 0.124329 0.090881
0.322876 0.123352 0.095490
0.358948 0.121063 0.099121
0.394989 0.117737 0.102264
0.431061 0.113953 0.104919
0.467041 0.108978 0.107147
0.503082 0.103760 0.109344
0.538940 0.098724 0.111511
0.574615 0.096741 0.114319
0.610046 0.099121 0.117737
0.645782 0.104919 0.122406
0.681427 0.111511 0.128448
0.716827 0.120087 0.135986
0.751862 0.130585 0.145355
0.786011 0.142303 0.155945
0.819733 0.155945 0.168915
0.852905 0.171722 0.183746
0.885498 0.189636 0.200897
0.917389 0.209656 0.220154
0.948425 0.231781 0.241669
0.978516 0.255951 0.265381
1.000000 0.294769 0.304169
1.000000 0.382111 0.392517
1.000000 0.450989 0.462585
1.000000 0.510223 0.522705
0.006317 0.095093 0.137421
0.052338 0.098328 0.133026
0.083801 0.102234 0.119080
0.117737 0.115692 0.093018
0.150208 0.132111 0.082397
0.183929 0.143402 0.080048
0.218384 0.149933 0.080994
0.252014 0.154114 0.084717
0.287476 0.154633 0.090027
0.322968 0.154114 0.094269
0.358856 0.152832 0.098328
0.394897 0.150452 0.101471
0.431000 0.146973 0.104156
0.466919 0.143127 0.106415
0.502960 0.138000 0.108978
0.538879 0.132385 0.111145
0.574738 0.126556 0.114319
0.610657 0.121063 0.117737
0.646606 0.117065 0.122406
0.682312 0.115692 0.128754
0.717712 0.120728 0.136261
0.752747 0.130890 0.145630
0.786804 0.142578 0.156433
0.820465 0.156189 0.169159
0.853577 0.172180 0.184174
0.886108 0.190063 0.201294
0.917938 0.210022 0.220520
0.948975 0.232117 0.242004
0.979004 0.256378 0.265808
1.000000 0.296295 0.305725
1.000000 0.383209 0.393677
1.000000 0.452179 0.463684
1.000000 0.510681 0.523254
0.016541 0.116364 0.141449
0.058624 0.120422 0.136566
0.080994 0.121399 0.135681
0.114655 0.132385 0.112213
0.154114 0.146423 0.098724
0.187134 0.162415 0.092163
0.219788 0.173065 0.089600
0.253998 0.179596 0.088715
0.287750 0.184357 0.090454
0.322968 0.185852 0.093445
0.358643 0.185211 0.096741
0.394379 0.183716 0.099915
0.430511 0.181335 0.103027
0.466614 0.178253 0.105682
0.502502 0.174438 0.108276
0.538361 0.170074 0.110809
0.574402 0.165344 0.113983
0.610535 0.160461 0.118073
0.646637 0.155670 0.123047
0.682495 0.151245 0.129059
0.718079 0.148041 0.136566
0.753204 0.147247 0.145905
0.787476 0.149384 0.156708
0.821228 0.157471 0.169617
0.854370 0.172394 0.184387
0.886810 0.190460 0.201691
0.918610 0.210419 0.221039
0.949554 0.232605 0.242462
0.979614 0.256836 0.266388
1.000000 0.298279 0.307648
1.000000 0.384583 0.395020
1.000000 0.452942 0.464539
1.000000 0.512909 0.525055
0.058655 0.140015 0.130585
0.067291 0.145874 0.131500
0.080048 0.149139 0.134796
0.107513 0.154114 0.129974
0.151764 0.164368 0.115356
0.192505 0.179138 0.106415
0.223633 0.193329 0.101074
0.255188 0.203217 0.098328
0.289307 0.209656 0.096710
0.323090 0.214600 0.095886
0.358246 0.217133 0.097137
0.394012 0.216583 0.099121
0.429718 0.215332 0.101471
0.465698 0.213318 0.104553
0.501770 0.210388 0.107544
0.537811 0.207214 0.110443
0.574036 0.203796 0.113983
0.610352 0.199921 0.118439
0.646393 0.195953 0.123688
0.682281 0.192108 0.129974
0.717926 0.188812 0.137451
0.752777 0.185852 0.146729
0.787231 0.184784 0.157471
0.821228 0.186066 0.170319
0.854645 0.190460 0.185242
0.887421 0.198944 0.202271
0.919403 0.212616 0.221558
0.950348 0.233124 0.243103
0.980286 0.257416 0.266937
1.000000 0.300629 0.309937
1.000000 0.386230 0.396667
1.000000 0.454285 0.465851
1.000000 0.513489 0.525818
0.062225 0.164856 0.143127
0.074646 0.170990 0.145599
0.086517 0.175812 0.146973
0.104919 0.178253 0.145050
0.146973 0.184998 0.130585
0.192932 0.196960 0.121094
0.231598 0.211853 0.114319
0.260620 0.224487 0.110077
0.290070 0.233582 0.106781
0.323883 0.239594 0.104919
0.357758 0.244812 0.102997
0.393127 0.248230 0.101471
0.429077 0.248383 0.101868
0.464752 0.247284 0.103424
0.500977 0.245758 0.106415
0.537323 0.243713 0.110077
0.573578 0.241028 0.113983
0.609772 0.238159 0.118774
0.645935 0.234894 0.124329
0.681885 0.231781 0.130890
0.717102 0.228577 0.138611
0.751953 0.225861 0.147797
0.786530 0.224335 0.158722
0.820557 0.224152 0.171722
0.854095 0.226196 0.186707
0.886993 0.230927 0.203796
0.919189 0.238800 0.222961
0.950439 0.250824 0.244354
0.980682 0.266785 0.268066
1.000000 0.305267 0.312286
1.000000 0.388123 0.398621
1.000000 0.456055 0.467560
1.000000 0.514191 0.526733
0.075165 0.187531 0.154388
0.086517 0.194153 0.155914
0.097534 0.199310 0.156952
0.109344 0.202454 0.157196
0.144501 0.207397 0.145630
0.190857 0.216949 0.134216
0.234741 0.230927 0.128113
0.269867 0.244507 0.122375
0.296783 0.255463 0.118408
0.324097 0.264221 0.115356
0.358032 0.270142 0.112915
0.392059 0.275116 0.110413
0.427643 0.279053 0.107880
0.464233 0.280792 0.106781
0.500397 0.280121 0.107147
0.536774 0.278778 0.109711
0.572968 0.277008 0.113983
0.609100 0.274994 0.118774
0.645020 0.272797 0.124664
0.680634 0.269867 0.131500
0.716064 0.267059 0.139465
0.750946 0.264801 0.149139
0.785492 0.263214 0.160217
0.819550 0.262787 0.173309
0.853149 0.263947 0.188599
0.886108 0.267059 0.205902
0.918304 0.272644 0.225189
0.949768 0.281433 0.246704
0.980133 0.293640 0.270294
1.000000 0.324341 0.312988
1.000000 0.399048 0.400085
1.000000 0.461792 0.469299
1.000000 0.517426 0.528534
0.086060 0.208160 0.164124
0.097534 0.215515 0.165588
0.107880 0.221375 0.166290
0.119415 0.225708 0.166046
0.143127 0.230103 0.159485
0.187134 0.238159 0.147522
0.232758 0.250366 0.140900
0.274170 0.264374 0.135376
0.306091 0.276215 0.130280
0.331879 0.286194 0.126862
0.357452 0.295013 0.123688
0.392242 0.300598 0.121399
0.426758 0.305969 0.119080
0.462646 0.310272 0.116364
0.499664 0.313080 0.113953
0.535889 0.312988 0.113251
0.572235 0.311920 0.115021
0.608246 0.310486 0.119080
0.643799 0.308594 0.124969
0.679169 0.306580 0.131805
0.714508 0.304382 0.140320
0.749603 0.302460 0.150482
0.784302 0.300964 0.162201
0.818359 0.300476 0.175598
0.851990 0.301239 0.190887
0.884918 0.303558 0.208344
0.917206 0.307892 0.227753
0.948639 0.314728 0.249298
0.979218 0.324768 0.273224
1.000000 0.348511 0.312988
1.000000 0.416046 0.401489
1.000000 0.474182 0.471130
1.000000 0.527893 0.531342
0.094666 0.226898 0.173065
0.106781 0.234589 0.174438
0.117737 0.240540 0.175110
0.128723 0.245270 0.174469
0.143677 0.249298 0.172180
0.181763 0.258148 0.161469
0.229095 0.268463 0.152832
0.273895 0.282257 0.148071
0.311096 0.295776 0.143127
0.340149 0.306915 0.138580
0.365906 0.316467 0.135681
0.390015 0.326233 0.132996
0.426819 0.331329 0.130890
0.461548 0.336945 0.128723
0.497559 0.341431 0.125916
0.534546 0.344788 0.123352
0.570923 0.345612 0.121735
0.606689 0.344696 0.122040
0.642456 0.343323 0.125916
0.677856 0.341858 0.132721
0.712952 0.340363 0.141449
0.747955 0.338989 0.151794
0.782593 0.337799 0.164154
0.816925 0.337280 0.178040
0.850586 0.337708 0.193756
0.883575 0.339508 0.211334
0.915924 0.343109 0.230957
0.947327 0.348816 0.252655
0.978271 0.357544 0.276917
1.000000 0.375183 0.312744
1.000000 0.435730 0.402863
1.000000 0.489441 0.473267
1.000000 0.539551 0.533600
0.104156 0.244019 0.182007
0.116028 0.251434 0.183289
0.127167 0.257263 0.183716
0.137726 0.261932 0.182861
0.148865 0.265228 0.182220
0.176483 0.275269 0.174011
0.224487 0.285278 0.164642
0.271271 0.298401 0.159729
0.311798 0.312744 0.155182
0.344879 0.326691 0.151276
0.372833 0.337585 0.148041
0.399109 0.346863 0.145599
0.424255 0.356537 0.143127
0.460968 0.362091 0.140869
0.496155 0.367767 0.138885
0.531799 0.372162 0.136566
0.568390 0.375671 0.133911
0.605042 0.377533 0.132385
0.640686 0.377075 0.132690
0.676239 0.376221 0.135956
0.711578 0.375183 0.143127
0.746368 0.374237 0.153625
0.780945 0.373505 0.166077
0.815216 0.373199 0.180481
0.848938 0.373596 0.196564
0.882050 0.375000 0.214813
0.914368 0.378021 0.234589
0.946198 0.383179 0.256836
0.977142 0.390717 0.281189
1.000000 0.403290 0.312408
1.000000 0.457306 0.404419
1.000000 0.506409 0.475586
1.000000 0.553741 0.536926
0.113251 0.259888 0.190460
0.124329 0.266785 0.191895
0.135376 0.272522 0.192535
0.145874 0.277283 0.191284
0.157440 0.281311 0.190460
0.176025 0.289551 0.185455
0.216217 0.301239 0.177155
0.265778 0.313568 0.170776
0.310150 0.328247 0.167023
0.346649 0.343628 0.163422
0.377167 0.357056 0.160461
0.404480 0.367859 0.158203
0.431458 0.377258 0.156189
0.458405 0.386475 0.153870
0.494019 0.392426 0.151520
0.529358 0.397980 0.149658
0.565247 0.402588 0.147797
0.601715 0.406464 0.146149
0.638641 0.409088 0.145050
0.674469 0.409515 0.146149
0.709717 0.409088 0.149658
0.744720 0.408508 0.157196
0.779358 0.408081 0.168915
0.813385 0.408081 0.183289
0.847107 0.408600 0.199738
0.880219 0.409943 0.218201
0.913055 0.412811 0.238983
0.945038 0.417206 0.261658
0.975922 0.423859 0.286194
1.000000 0.432739 0.312866
1.000000 0.480316 0.406219
1.000000 0.525116 0.478394
1.000000 0.569000 0.540283
0.120087 0.274597 0.199341
0.131805 0.281708 0.200897
0.142548 0.287354 0.201294
0.154114 0.292114 0.199921
0.165802 0.296265 0.198944
0.180450 0.301605 0.196777
0.210571 0.315430 0.189026
0.258148 0.328003 0.181366
0.304749 0.342804 0.178040
0.346039 0.358643 0.174927
0.379669 0.374054 0.172180
0.408325 0.387024 0.170074
0.435394 0.397644 0.168427
0.463013 0.406891 0.166779
0.491119 0.416046 0.164856
0.526093 0.422638 0.162903
0.562195 0.428192 0.161438
0.598328 0.433136 0.160461
0.634857 0.437195 0.159698
0.671753 0.440308 0.160217
0.707794 0.441864 0.162170
0.742767 0.441772 0.167023
0.777496 0.441864 0.174896
0.811768 0.442017 0.187134
0.845337 0.442780 0.203613
0.878784 0.444397 0.222595
0.911560 0.447052 0.243561
0.943512 0.451111 0.266663
0.974457 0.456787 0.291748
1.000000 0.464661 0.318665
1.000000 0.504120 0.408081
1.000000 0.544739 0.481384
1.000000 0.584900 0.543243
0.125610 0.288788 0.208923
0.138000 0.296021 0.210205
0.149384 0.301849 0.210419
0.161438 0.306671 0.208923
0.174225 0.310974 0.207794
0.188171 0.314728 0.207031
0.212769 0.327789 0.200500
0.249146 0.342682 0.193329
0.296906 0.357147 0.189026
0.341949 0.373016 0.185883
0.379852 0.388916 0.183289
0.410706 0.403809 0.181366
0.438538 0.416229 0.179810
0.466187 0.426910 0.178711
0.494629 0.436493 0.178040
0.523621 0.445618 0.176697
0.558136 0.452698 0.174896
0.594788 0.458405 0.174438
0.631256 0.463593 0.174225
0.667816 0.467926 0.174896
0.704498 0.471405 0.176910
0.740631 0.473969 0.180695
0.775452 0.474579 0.187134
0.809967 0.475281 0.196747
0.844055 0.476410 0.209839
0.877441 0.478149 0.227600
0.910065 0.480743 0.248840
0.941925 0.484406 0.272125
0.972778 0.489502 0.297394
1.000000 0.496429 0.324677
1.000000 0.528778 0.410309
1.000000 0.565582 0.484894
1.000000 0.602600 0.547577
0.132111 0.302948 0.219086
0.144775 0.310028 0.220154
0.157196 0.316132 0.219971
0.169617 0.320831 0.218201
0.183716 0.325439 0.216766
0.198547 0.329987 0.215698
0.220673 0.340149 0.212067
0.249298 0.357147 0.205322
0.289948 0.372925 0.199341
0.335327 0.388275 0.197357
0.377350 0.403961 0.194550
0.411133 0.418793 0.191925
0.440765 0.433044 0.190674
0.469330 0.445679 0.189850
0.497681 0.456573 0.189423
0.526703 0.466187 0.189240
0.556396 0.475433 0.188995
0.590485 0.482971 0.187958
0.627625 0.488831 0.188385
0.664246 0.494232 0.189636
0.700745 0.498810 0.191895
0.737030 0.502716 0.195740
0.773315 0.506073 0.202057
0.808441 0.508026 0.210571
0.842407 0.509308 0.222076
0.875885 0.511108 0.236694
0.908630 0.513611 0.255341
0.940277 0.517151 0.278107
0.970886 0.521759 0.303558
1.000000 0.527710 0.330994
1.000000 0.554169 0.412811
1.000000 0.587280 0.488831
1.000000 0.621704 0.553223
0.138885 0.317627 0.229950
0.151245 0.324005 0.230957
0.164368 0.329987 0.230438
0.178040 0.335114 0.228088
0.193115 0.340149 0.226227
0.209076 0.345520 0.225189
0.230591 0.353638 0.223480
0.258148 0.372070 0.217133
0.290314 0.389648 0.211151
0.329559 0.405609 0.208160
0.372253 0.420410 0.205902
0.409271 0.434296 0.203033
0.441559 0.448639 0.201111
0.471680 0.462921 0.200500
0.500793 0.475433 0.200500
0.529785 0.486328 0.200714
0.559326 0.496155 0.201294
0.589569 0.505432 0.202271
0.623322 0.513489 0.202240
0.660828 0.519501 0.203979
0.697510 0.525299 0.206848
0.734161 0.530426 0.211304
0.770233 0.534790 0.217468
0.805878 0.538544 0.225861
0.840729 0.541290 0.236542
0.874146 0.543243 0.250061
0.906860 0.545868 0.266785
0.938446 0.548981 0.286591
0.968781 0.553131 0.310394
0.997803 0.558716 0.337830
1.000000 0.580109 0.415405
1.000000 0.609558 0.493439
1.000000 0.640137 0.557404
0.145905 0.333313 0.242157
0.157715 0.339081 0.243256
0.170532 0.344788 0.242950
0.185211 0.350250 0.239777
0.202057 0.356354 0.237183
0.219971 0.362488 0.235413
0.242462 0.370636 0.234436
0.269745 0.388123 0.229095
0.299744 0.407318 0.222961
0.331757 0.424316 0.219086
0.367859 0.439545 0.216614
0.405426 0.452545 0.214813
0.440155 0.465698 0.212616
0.472321 0.479706 0.211517
0.502686 0.493347 0.211517
0.532593 0.505707 0.212067
0.562592 0.516785 0.212982
0.592773 0.526794 0.214447
0.623505 0.536011 0.216431
0.657043 0.544495 0.218018
0.695038 0.551025 0.221558
0.731750 0.557098 0.226379
0.767792 0.562408 0.232758
0.803040 0.566986 0.241180
0.837799 0.570862 0.251892
0.872101 0.574463 0.265076
0.904602 0.576996 0.280640
0.936035 0.579956 0.299255
0.966492 0.583832 0.321198
0.995667 0.589050 0.346375
1.000000 0.606384 0.418701
1.000000 0.632446 0.498413
1.000000 0.660278 0.563782
0.151520 0.350281 0.255798
0.162170 0.355347 0.258423
0.175110 0.360718 0.257996
0.191071 0.366791 0.254303
0.211121 0.374146 0.249756
0.231445 0.381897 0.246704
0.256073 0.391968 0.244507
0.283295 0.406616 0.240875
0.313690 0.427063 0.234100
0.343109 0.444763 0.229950
0.372345 0.461029 0.227600
0.404572 0.474731 0.225891
0.439301 0.486786 0.224854
0.472534 0.499084 0.223297
0.503998 0.512146 0.222778
0.534973 0.525177 0.223480
0.566040 0.537628 0.225037
0.596527 0.548676 0.226746
0.627289 0.558350 0.229279
0.658752 0.567719 0.232605
0.692017 0.576508 0.236053
0.729889 0.582855 0.241364
0.765930 0.588837 0.248077
0.800781 0.594147 0.256500
0.834900 0.598694 0.266937
0.868591 0.602600 0.279724
0.901733 0.606598 0.295288
0.933716 0.610291 0.313812
0.964020 0.614014 0.334717
0.993134 0.618866 0.358948
1.000000 0.632690 0.423706
1.000000 0.655762 0.504150
1.000000 0.680725 0.570129
0.157196 0.368744 0.270599
0.166046 0.372375 0.275543
0.178253 0.377380 0.275665
0.195160 0.383575 0.271545
0.218201 0.392609 0.264679
0.242920 0.403015 0.258148
0.270294 0.415070 0.254456
0.298523 0.428192 0.251434
0.328339 0.449097 0.244812
0.357849 0.467255 0.240723
0.385101 0.484039 0.238495
0.412628 0.498810 0.237183
0.442474 0.511566 0.236237
0.474091 0.522949 0.235748
0.505951 0.534332 0.235229
0.537628 0.546509 0.235413
0.569458 0.558990 0.237030
0.600891 0.571014 0.239624
0.631836 0.581543 0.242462
0.663055 0.590912 0.246063
0.694489 0.599884 0.250671
0.727020 0.608429 0.256073
0.764160 0.614471 0.262939
0.798645 0.619965 0.271271
0.832306 0.624939 0.281738
0.865631 0.629486 0.294403
0.898438 0.633942 0.309937
0.930389 0.638519 0.328247
0.961426 0.643463 0.349670
0.990540 0.648224 0.373413
1.000000 0.659027 0.430908
1.000000 0.679199 0.511963
1.000000 0.701721 0.578156
0.164642 0.387939 0.285675
0.170776 0.390381 0.293365
0.181763 0.394745 0.294525
0.199127 0.400879 0.290192
0.222778 0.410461 0.282257
0.252319 0.423859 0.271423
0.280792 0.437439 0.264679
0.309662 0.451355 0.260651
0.339935 0.470276 0.254761
0.370148 0.489044 0.250366
0.396759 0.506195 0.248383
0.423126 0.521820 0.247467
0.449554 0.535706 0.247162
0.477325 0.547974 0.247162
0.507629 0.558990 0.247467
0.540039 0.570007 0.248383
0.572693 0.581909 0.249756
0.604980 0.593689 0.252502
0.636810 0.604614 0.255798
0.668182 0.614563 0.259766
0.699005 0.623352 0.264526
0.729950 0.631805 0.270721
0.760681 0.639648 0.277435
0.796417 0.644836 0.285797
0.830231 0.650085 0.296173
0.863434 0.654968 0.308960
0.895874 0.659912 0.324463
0.927521 0.664886 0.342712
0.958069 0.670258 0.363892
0.987640 0.676422 0.388306
1.000000 0.685638 0.439484
1.000000 0.702820 0.521271
1.000000 0.722778 0.587646
0.174225 0.407928 0.300018
0.176910 0.409363 0.311340
0.185852 0.412903 0.313568
0.203400 0.419128 0.308624
0.227051 0.429077 0.299377
0.257843 0.444000 0.286469
0.287994 0.458618 0.276093
0.315643 0.472321 0.269745
0.344360 0.488068 0.264252
0.375092 0.507690 0.259460
0.402863 0.524933 0.256958
0.429321 0.541595 0.256531
0.455811 0.557037 0.256836
0.482330 0.570618 0.257568
0.510468 0.583130 0.258606
0.542053 0.595093 0.260651
0.575745 0.606445 0.263367
0.608795 0.617188 0.265808
0.641693 0.627716 0.269043
0.673615 0.637787 0.273224
0.703979 0.646545 0.278259
0.733734 0.654572 0.284119
0.763367 0.662109 0.291473
0.792786 0.669495 0.300140
0.828278 0.674316 0.310516
0.861725 0.679352 0.323456
0.893890 0.684601 0.338898
0.925171 0.689911 0.357147
0.955322 0.695618 0.378387
0.984344 0.701874 0.402618
1.000000 0.710571 0.446075
1.000000 0.726471 0.531647
1.000000 0.744080 0.598633
0.186066 0.427338 0.313110
0.185669 0.428131 0.327454
0.191284 0.430695 0.332977
0.205902 0.436584 0.328583
0.227905 0.446747 0.318787
0.260620 0.462799 0.303680
0.292755 0.478363 0.290985
0.320587 0.492798 0.281067
0.346649 0.505524 0.273773
0.374542 0.524231 0.268066
0.404053 0.541168 0.264526
0.431458 0.558014 0.264252
0.458466 0.574585 0.265106
0.485565 0.589844 0.266785
0.513977 0.604065 0.268921
0.544617 0.617401 0.271698
0.577545 0.630096 0.275146
0.612030 0.641052 0.278931
0.646118 0.651031 0.282379
0.678436 0.660278 0.286469
0.708496 0.668854 0.291351
0.737732 0.676849 0.297546
0.766693 0.684082 0.304901
0.795868 0.690826 0.313812
0.825378 0.697815 0.324677
0.860199 0.702606 0.337616
0.892517 0.708038 0.353333
0.923340 0.713745 0.371613
0.953003 0.719879 0.392883
0.981567 0.726318 0.417236
1.000000 0.733948 0.451813
1.000000 0.747955 0.539154
1.000000 0.765198 0.610352
0.197754 0.444641 0.325470
0.195374 0.445709 0.340576
0.195770 0.446991 0.351379
0.204742 0.451508 0.352234
0.223969 0.460968 0.343658
0.254883 0.475647 0.328918
0.289551 0.492676 0.312988
0.323761 0.512451 0.297668
0.350586 0.528076 0.287384
0.374908 0.543091 0.279327
0.403534 0.558197 0.273499
0.432007 0.573517 0.271423
0.458466 0.589142 0.272247
0.485474 0.604889 0.274445
0.514191 0.620148 0.277161
0.545197 0.634644 0.280518
0.578247 0.648529 0.284637
0.613342 0.661621 0.289429
0.649353 0.672333 0.294647
0.682526 0.681702 0.298889
0.712830 0.690277 0.304169
0.741364 0.698334 0.310516
0.769989 0.705475 0.317993
0.799164 0.711823 0.326904
0.828125 0.718597 0.338257
0.857971 0.725281 0.351807
0.891266 0.730469 0.367493
0.921997 0.736389 0.386047
0.951233 0.742767 0.407501
0.979156 0.749634 0.431702
1.000000 0.756897 0.459229
1.000000 0.768707 0.546631
1.000000 0.783936 0.618103
0.210602 0.460327 0.335785
0.208160 0.461853 0.350983
0.207214 0.463593 0.363983
0.209106 0.466125 0.371887
0.221008 0.472900 0.369995
0.242767 0.483429 0.360931
0.273468 0.498413 0.346375
0.311920 0.523071 0.326813
0.347595 0.547424 0.310150
0.375275 0.563721 0.298279
0.403198 0.577759 0.287628
0.432739 0.589996 0.281189
0.459290 0.603638 0.280518
0.485291 0.617859 0.281860
0.512787 0.632568 0.284485
0.543671 0.647369 0.288025
0.577209 0.662109 0.292389
0.612946 0.676239 0.297668
0.650238 0.689240 0.303680
0.685944 0.700317 0.310150
0.716797 0.709808 0.316132
0.744934 0.718262 0.322876
0.773224 0.725616 0.330688
0.802582 0.732086 0.339966
0.831635 0.738678 0.351501
0.859985 0.745758 0.365631
0.889496 0.752380 0.381836
0.920837 0.758087 0.400452
0.949890 0.764648 0.421997
0.977234 0.771729 0.446533
1.000000 0.779297 0.473969
1.000000 0.789246 0.555023
1.000000 0.802521 0.626678
0.223480 0.476288 0.346558
0.222443 0.477692 0.359924
0.220673 0.479767 0.374634
0.220520 0.482208 0.384766
0.222961 0.485565 0.391907
0.234894 0.492767 0.391907
0.255920 0.503296 0.383942
0.287231 0.521088 0.369202
0.324432 0.546448 0.349670
0.360809 0.570343 0.331329
0.396301 0.594421 0.312744
0.429779 0.610046 0.301117
0.461395 0.621399 0.294037
0.488678 0.633118 0.291870
0.515411 0.646027 0.292755
0.544556 0.659821 0.295532
0.577209 0.674377 0.299774
0.612640 0.688782 0.305023
0.650482 0.702911 0.311462
0.688141 0.715973 0.319366
0.721344 0.727264 0.327148
0.749725 0.736786 0.334717
0.777069 0.744965 0.343018
