public/LUTs/X-9810-STD.cube
# Copyright: (C) Copyright 2010-2021 by IWLTBAP SAS
# Cannot be resold, shared or otherwise redistributed
# Website: https://luts.iwltbap.com
TITLE "IWLTBAP 9810 (Rec.709, sRGB, DCI-P3)"
LUT_3D_SIZE 5
0.049683 0.010254 0.058655
0.283813 0.074158 0.091736
0.572144 0.094696 0.113983
0.851532 0.171021 0.183075
1.000000 0.509399 0.521576
0.062225 0.164856 0.143127
0.290070 0.233582 0.106781
0.573578 0.241028 0.113983
0.854095 0.226196 0.186707
1.000000 0.514191 0.526733
0.132111 0.302948 0.219086
0.289948 0.372925 0.199341
0.556396 0.475433 0.188995
0.842407 0.509308 0.222076
1.000000 0.621704 0.553223
0.197754 0.444641 0.325470
0.350586 0.528076 0.287384
0.578247 0.648529 0.284637
0.828125 0.718597 0.338257
1.000000 0.783936 0.618103
0.281342 0.608337 0.484680
0.372559 0.660736 0.516479
0.626129 0.762604 0.408844
0.864838 0.857147 0.441650
1.000000 0.919830 0.694824
0.000000 0.107147 0.203979
0.214783 0.076660 0.248077
0.553741 0.076660 0.257263
0.843567 0.167267 0.255920
1.000000 0.506042 0.520020
0.007874 0.198151 0.276215
0.181122 0.245911 0.307404
0.554382 0.253693 0.274567
0.843201 0.248535 0.276215
1.000000 0.512085 0.529144
0.119751 0.310486 0.343536
0.229767 0.393677 0.356232
0.548523 0.486725 0.324005
0.831177 0.511932 0.334595
1.000000 0.623016 0.564331
0.215149 0.479706 0.399048
0.290833 0.555542 0.499725
0.549377 0.648224 0.428833
0.818878 0.724884 0.427460
1.000000 0.785675 0.636078
0.289948 0.633545 0.540802
0.376312 0.697784 0.619354
0.573456 0.767517 0.574524
0.840088 0.878510 0.530792
1.000000 0.930328 0.724365
0.000000 0.161713 0.344910
0.000000 0.169861 0.402344
0.411804 0.146729 0.429260
0.766754 0.129028 0.481232
1.000000 0.469727 0.600830
0.003937 0.267212 0.369965
0.116028 0.300476 0.452484
0.485504 0.300110 0.476685
0.787079 0.302216 0.514252
1.000000 0.495819 0.609833
0.113953 0.360626 0.426605
0.199921 0.428925 0.503479
0.480194 0.493408 0.523438
0.793427 0.520691 0.540344
1.000000 0.620453 0.639893
0.250366 0.494629 0.492767
0.330231 0.584412 0.571014
0.520935 0.671936 0.584320
0.795990 0.733673 0.584045
1.000000 0.791626 0.702606
0.316010 0.660431 0.594299
0.431610 0.728485 0.678436
0.591278 0.814545 0.712616
0.835876 0.899292 0.675476
1.000000 0.945740 0.789825
0.000000 0.230103 0.484131
0.137421 0.235077 0.541046
0.308014 0.238800 0.562469
0.641449 0.232269 0.617645
0.961456 0.329468 0.717712
0.005524 0.376709 0.514893
0.186066 0.355347 0.596741
0.337799 0.370544 0.668854
0.695648 0.371490 0.687744
0.979187 0.429779 0.739960
0.173981 0.469299 0.550781
0.243866 0.527222 0.626190
0.373596 0.529388 0.723541
0.756378 0.534027 0.734467
0.998230 0.591980 0.766571
0.243408 0.551208 0.608551
0.333160 0.631805 0.682770
0.435577 0.694183 0.764465
0.739746 0.753967 0.790955
1.000000 0.792084 0.817047
0.335022 0.702179 0.722748
0.418396 0.775360 0.794464
0.550018 0.849609 0.848755
0.798309 0.926758 0.845154
1.000000 0.965271 0.888153
0.000000 0.343536 0.687561
0.281189 0.340607 0.718079
0.363190 0.367493 0.777985
0.630920 0.356659 0.813934
0.890961 0.378845 0.867920
0.000000 0.470703 0.717560
0.289673 0.459595 0.786896
0.441376 0.436981 0.866364
0.700470 0.435028 0.869843
0.911865 0.468781 0.911499
0.147797 0.579742 0.727020
0.328125 0.622559 0.806580
0.503021 0.624695 0.903717
0.759064 0.577728 0.930237
0.951538 0.618713 0.939728
0.232605 0.671387 0.771179
0.359467 0.738251 0.839325
0.505890 0.792786 0.905731
0.749969 0.805511 0.959351
0.991425 0.799042 0.969849
0.310638 0.783478 0.846832
0.443787 0.836548 0.900970
0.571014 0.881989 0.947876
0.752777 0.942352 1.000000
0.993622 0.976562 0.998169
